; generated by PrusaSlicer 2.6.1+win64 on 2023-10-27 at 15:10:40 UTC

; 

; external perimeters extrusion width = 0.45mm
; perimeters extrusion width = 0.45mm
; infill extrusion width = 0.45mm
; solid infill extrusion width = 0.45mm
; top infill extrusion width = 0.40mm
; first layer extrusion width = 0.42mm

;TYPE:Custom
; START_GCODE

T0 ; Select Titan extruder
M220 S100 ; Set feedmultiply back to 100percent

G90 ; Absolute positioning
M83; Relative Extruder

G28 ; Home all axes

M190 S50 ; Set and wait - bed temperature
M104 S220

G32 ; Probe Z and calculate Z plane
G29 ; Mesh bed probe

G1009 ; Go ARC to purge end

G92 E0 ; Zero extruder
G21 ; set units to millimeters
G90 ; use absolute coordinates
M83 ; use relative distances for extrusion
; Filament gcode
M107
;LAYER_CHANGE
;Z:0.2
;HEIGHT:0.2
; BEFORE_LAYER_CHANGE
;0.2
G92 E0

G1 E-4.2 F1800
G1 Z.2 F9000
; AFTER_LAYER_CHANGE
;0.2
G1 Z.4
G1 X14.393 Y13.582
G1 Z.2
G1 E4.2 F1800
M204 P1000
;TYPE:Perimeter
;WIDTH:0.419999
G1 F1199.941
G1 X13.988 Y13.024 E.02162
G1 X10.591 Y7.909 E.19252
G1 X9.258 Y6.067 E.07129
G1 X8.204 Y4.727 E.05345
G1 X7.458 Y3.85 E.0361
G1 X6.798 Y3.128 E.03067
G1 X5.428 Y1.802 E.05978
G1 X4.566 Y1.096 E.03494
G1 X3.764 Y.535 E.03069
G1 X3.09 Y.139 E.02451
G1 X2.477 Y-.159 E.02137
G1 X1.669 Y-.457 E.027
G1 X1.002 Y-.62 E.02153
G1 X.041 Y-.713 E.03027
G1 X-.642 Y-.675 E.02145
G1 X-1.387 Y-.536 E.02376
G1 X-2.168 Y-.285 E.02572
G1 X-3.026 Y.105 E.02955
G1 X-4.087 Y.75 E.03893
G1 X-4.892 Y1.351 E.0315
G1 X-5.396 Y1.773 E.02061
G1 X-5.925 Y2.255 E.02244
G1 X-6.517 Y2.836 E.02601
G1 X-7.186 Y3.546 E.03059
G1 X-7.952 Y4.424 E.03653
G1 X-8.845 Y5.528 E.04452
G1 X-9.873 Y6.898 E.0537
G1 X-11.151 Y8.725 E.06991
G1 X-13.681 Y12.544 E.14363
G1 X-14.402 Y13.597 E.04001
G1 X-14.215 Y12.332 E.04009
G1 X-13.977 Y11.15 E.0378
G1 X-13.439 Y8.929 E.07165
G1 X-12.536 Y5.791 E.10238
G1 X-11.445 Y2.503 E.10862
G1 X-11.172 Y1.745 E.02526
G1 X-10.116 Y-.998 E.09216
G1 X-9.131 Y-3.309 E.07877
G1 X-8.238 Y-5.215 E.066
G1 X-7.439 Y-6.774 E.05493
G1 X-6.728 Y-8.046 E.04569
G1 X-6.097 Y-9.087 E.03817
G1 X-5.535 Y-9.942 E.03208
G1 X-5.034 Y-10.648 E.02714
G1 X-4.587 Y-11.23 E.02301
G1 X-3.812 Y-12.133 E.03731
G1 X-3.176 Y-12.77 E.02822
G1 X-2.642 Y-13.23 E.0221
G1 X-2.183 Y-13.567 E.01785
G1 X-1.708 Y-13.856 E.01743
G1 X-1.208 Y-14.092 E.01734
G1 X-.608 Y-14.269 E.01961
G1 X.072 Y-14.337 E.02143
G1 X.802 Y-14.22 E.02318
G1 X1.328 Y-14.034 E.01749
G1 X1.836 Y-13.784 E.01775
G1 X2.477 Y-13.357 E.02415
G1 X3.008 Y-12.922 E.02152
G1 X3.634 Y-12.322 E.02719
G1 X4.391 Y-11.471 E.03571
G1 X4.841 Y-10.905 E.02267
G1 X5.347 Y-10.214 E.02685
G1 X5.92 Y-9.364 E.03214
G1 X6.572 Y-8.313 E.03878
G1 X7.315 Y-7.003 E.04722
G1 X8.164 Y-5.365 E.05785
G1 X9.126 Y-3.321 E.07083
G1 X10.196 Y-.802 E.08581
G1 X11.333 Y2.189 E.10033
G1 X12.466 Y5.565 E.11165
G1 X13.26 Y8.262 E.08815
G1 X13.856 Y10.609 E.07592
G1 X14.148 Y11.978 E.04389
G1 X14.318 Y12.945 E.03078
G1 X14.386 Y13.523 E.01825
M204 P2000
G1 X14.786 Y14.627 F9000
M204 P1000
;TYPE:External perimeter
G1 F1200
G1 X14.349 Y14.164 E.01996
G1 X13.678 Y13.239 E.03583
G1 X10.277 Y8.118 E.19275
G1 X8.953 Y6.288 E.07082
G1 X7.917 Y4.971 E.05254
G1 X7.179 Y4.104 E.0357
G1 X6.529 Y3.392 E.03023
G1 X5.189 Y2.094 E.05849
G1 X4.327 Y1.388 E.03494
G1 X3.572 Y.86 E.02889
G1 X2.924 Y.478 E.02359
G1 X2.345 Y.194 E.02022
G1 X1.579 Y-.091 E.02563
G1 X.913 Y-.253 E.02149
G1 X.06 Y-.337 E.02687
G1 X-.575 Y-.304 E.01994
G1 X-1.274 Y-.176 E.02228
G1 X-2.013 Y.058 E.0243
G1 X-2.837 Y.432 E.02837
G1 X-3.863 Y1.053 E.0376
G1 X-4.666 Y1.653 E.03143
G1 X-5.142 Y2.053 E.01949
G1 X-5.661 Y2.524 E.02197
G1 X-6.242 Y3.095 E.02554
G1 X-6.902 Y3.794 E.03014
G1 X-7.659 Y4.661 E.03609
G1 X-8.543 Y5.754 E.04408
G1 X-9.572 Y7.125 E.05375
G1 X-10.836 Y8.933 E.06917
G1 X-13.909 Y13.572 E.17447
G1 X-14.44 Y14.281 E.02777
G1 X-14.798 Y14.633 E.01574
G1 X-14.824 Y14.132 E.01573
G1 X-14.779 Y13.555 E.01815
G1 X-14.586 Y12.267 E.04084
G1 X-14.345 Y11.069 E.03831
G1 X-13.803 Y8.832 E.07217
G1 X-12.897 Y5.679 E.10286
G1 X-11.801 Y2.379 E.10903
G1 X-11.526 Y1.613 E.02552
G1 X-10.466 Y-1.14 E.0925
G1 X-9.476 Y-3.463 E.07917
G1 X-8.576 Y-5.381 E.06643
G1 X-7.771 Y-6.952 E.05535
G1 X-7.054 Y-8.236 E.04611
G1 X-6.416 Y-9.288 E.03858
G1 X-5.847 Y-10.155 E.03252
G1 X-5.337 Y-10.872 E.02759
G1 X-4.88 Y-11.467 E.02352
G1 X-4.089 Y-12.389 E.03809
G1 X-3.433 Y-13.047 E.02913
G1 X-3.012 Y-13.409 E.01741
G1 X-2.542 Y-13.771 E.0186
G1 X-2.068 Y-14.078 E.01771
G1 X-1.544 Y-14.35 E.01851
G1 X-.877 Y-14.599 E.02232
G1 X-.203 Y-14.699 E.02136
G1 X.383 Y-14.682 E.01838
G1 X.898 Y-14.585 E.01643
G1 X1.471 Y-14.383 E.01905
G1 X2.029 Y-14.109 E.01949
G1 X2.702 Y-13.661 E.02535
G1 X3.259 Y-13.205 E.02257
G1 X3.903 Y-12.587 E.02799
G1 X4.272 Y-12.189 E.01702
G1 X4.682 Y-11.711 E.01975
G1 X5.141 Y-11.133 E.02314
G1 X5.655 Y-10.431 E.02728
G1 X6.236 Y-9.569 E.03259
G1 X6.896 Y-8.505 E.03926
G1 X7.647 Y-7.183 E.04767
G1 X8.502 Y-5.532 E.0583
G1 X9.47 Y-3.475 E.07128
G1 X10.546 Y-.943 E.08626
G1 X11.688 Y2.062 E.10079
G1 X12.826 Y5.451 E.11209
G1 X13.624 Y8.163 E.08864
G1 X14.223 Y10.523 E.07634
G1 X14.516 Y11.893 E.04393
G1 X14.693 Y12.906 E.03224
G1 X14.809 Y13.905 E.03153
G1 X14.82 Y14.433 E.01656
G1 X14.797 Y14.568 E.00429
M204 P2000
G1 X14.597 Y14.275 F9000
G1 E-3.78 F1800
;WIPE_START
G1 F7200
G1 X14.349 Y14.164 E-.14327
G1 X13.678 Y13.239 E-.2714
G1 X13.666 Y13.22 E-.00533
;WIPE_END
G1 Z.4 F9000
G1 X2.044 Y-13.51
G1 Z.2
G1 E4.2 F1800
M204 P1000
;TYPE:Solid infill
;WIDTH:0.422764
G1 F1199.974
G1 X3.457 Y-12.097 E.06311
G1 X3.779 Y-11.75 E.01495
G1 X4.173 Y-11.291 E.01911
G1 X4.616 Y-10.733 E.0225
G1 X5.115 Y-10.051 E.02669
G1 X5.426 Y-9.59 E.01756
G1 X1.261 Y-13.756 E.18606
G1 X.906 Y-13.9 E.0121
G1 X.471 Y-14.008 E.01416
G1 X6.351 Y-8.128 E.26264
G1 X7.057 Y-6.885 E.04515
G1 X4.671 Y-9.271 Z.2 E.10659
G1 X2.284 Y-11.658 Z.2 E.10659
G1 X-.102 Y-14.044 Z.2 E.10659
G1 X-.368 Y-14.029 E.00841
G1 X-.581 Y-13.986 E.00686
G1 X2.158 Y-11.247 Z.2 E.12235
G1 X4.897 Y-8.507 Z.2 E.12235
G1 X7.636 Y-5.768 Z.2 E.12235
G1 X8.162 Y-4.706 E.03743
G1 X5.109 Y-7.759 Z.2 E.13635
G1 X2.057 Y-10.811 Z.2 E.13635
G1 X-.996 Y-13.864 Z.2 E.13635
G1 X-1.371 Y-13.702 E.0129
G1 X1.966 Y-10.365 Z.2 E.14905
G1 X5.302 Y-7.028 Z.2 E.14905
G1 X8.639 Y-3.691 Z.2 E.14905
G1 X9.074 Y-2.719 E.03363
G1 X6.375 Y-5.418 Z.2 E.12057
G1 X3.675 Y-8.118 Z.2 E.12057
G1 X.976 Y-10.817 Z.2 E.12057
G1 X-1.723 Y-13.516 Z.2 E.12057
G1 X-2.054 Y-13.31 E.01231
G1 X.827 Y-10.429 Z.2 E.12869
G1 X3.708 Y-7.548 Z.2 E.1287
G1 X6.59 Y-4.666 Z.2 E.1287
G1 X9.471 Y-1.785 Z.2 E.12869
G1 X9.868 Y-.851 E.03205
G1 X-2.364 Y-13.083 E.54636
G1 X-2.66 Y-12.842 E.01206
G1 X.557 Y-9.625 Z.2 E.14369
G1 X3.774 Y-6.408 Z.2 E.14369
G1 X6.991 Y-3.191 Z.2 E.14369
G1 X10.208 Y.026 Z.2 E.14369
G1 X10.538 Y.893 E.0293
G1 X7.166 Y-2.478 Z.2 E.1506
G1 X3.795 Y-5.85 Z.2 E.1506
G1 X.423 Y-9.222 Z.2 E.1506
G1 X-2.949 Y-12.593 Z.2 E.1506
G1 X-3.219 Y-12.327 E.01197
G1 X10.867 Y1.76 E.6292
G1 X11.174 Y2.603 E.02834
G1 X8.242 Y-.329 Z.2 E.13098
G1 X5.309 Y-3.261 Z.2 E.13098
G1 X2.377 Y-6.194 Z.2 E.13098
G1 X-.556 Y-9.126 Z.2 E.13098
G1 X-3.488 Y-12.058 Z.2 E.13098
G1 X-3.744 Y-11.778 E.01198
G1 X11.445 Y3.412 E.67847
G1 X11.717 Y4.221 E.02696
G1 X-3.992 Y-11.488 E.70167
G1 X-4.24 Y-11.199 E.01203
G1 X11.988 Y5.029 E.72485
G1 X12.249 Y5.827 E.02652
G1 X-4.481 Y-10.903 E.74727
G1 X-4.715 Y-10.599 E.01212
G1 X12.472 Y6.588 E.76769
G1 X12.696 Y7.349 E.02506
G1 X9.168 Y3.821 Z.2 E.15757
G1 X5.641 Y.294 Z.2 E.15757
G1 X2.113 Y-3.234 Z.2 E.15757
G1 X-1.414 Y-6.761 Z.2 E.15757
G1 X-4.942 Y-10.289 Z.2 E.15757
G1 X-5.165 Y-9.975 E.01216
G1 X12.92 Y8.11 E.8078
G1 X13.115 Y8.842 E.02393
G1 X-5.384 Y-9.657 E.82629
G1 X-5.597 Y-9.333 E.01225
G1 X-2.298 Y-6.034 Z.2 E.14735
G1 X1 Y-2.735 Z.2 E.14735
G1 X4.299 Y.564 Z.2 E.14735
G1 X4.743 Y.875 E.01712
G1 X5.609 Y1.585 E.03537
G1 X6.404 Y2.323 E.03426
G1 X7.02 Y2.951 E.02778
G1 X7.685 Y3.68 E.03117
G1 X8.439 Y4.567 E.03677
G1 X8.939 Y5.203 E.02555
G1 X11.118 Y7.383 Z.2 E.09736
G1 X13.298 Y9.563 Z.2 E.09736
G1 X13.481 Y10.283 E.02346
G1 X10.501 Y7.302 E.13313
G1 X10.826 Y7.751 E.01751
G1 X11.642 Y8.981 E.04662
G1 X13.647 Y10.986 E.08956
G1 X13.793 Y11.669 E.02206
G1 X12.705 Y10.581 E.0486
G1 X13.768 Y12.181 E.06067
G1 X14.081 Y12.494 E.01398
M204 P2000
G1 E-3.78 F1800
;WIPE_START
G1 F7200
G1 X13.768 Y12.181 E-.10513
G1 X13.034 Y11.077 E-.31487
;WIPE_END
G1 Z.4 F9000
G1 X3.375 Y.177
G1 Z.2
G1 E4.2 F1800
M204 P1000
G1 F1199.988
G1 X.313 Y-2.885 Z.2 E.13676
G1 X-2.748 Y-5.947 Z.2 E.13676
G1 X-5.81 Y-9.009 Z.2 E.13676
G1 X-6.015 Y-8.676 E.01235
G1 X-3.33 Y-5.991 Z.2 E.11994
G1 X-.644 Y-3.306 Z.2 E.11994
G1 X2.041 Y-.621 Z.2 E.11994
G1 X1.74 Y-.731 E.01012
G1 X1.287 Y-.837 E.01469
G1 X-1.215 Y-3.339 Z.2 E.11174
G1 X-3.716 Y-5.84 Z.2 E.11174
G1 X-6.218 Y-8.342 Z.2 E.11174
G1 X-6.421 Y-8.008 E.01234
G1 X-2.888 Y-4.476 Z.2 E.15779
G1 X.644 Y-.943 Z.2 E.15779
G1 X.053 Y-.996 E.01874
G1 X-6.616 Y-7.666 E.2979
G1 X-6.809 Y-7.322 E.01246
G1 X-.456 Y-.969 E.28377
G1 X-.663 Y-.958 E.00655
G1 X-.932 Y-.907 E.00865
G1 X-7.001 Y-6.977 E.2711
G1 X-7.194 Y-6.632 E.01249
G1 X-4.289 Y-3.727 Z.2 E.12976
G1 X-1.384 Y-.822 Z.2 E.12976
G1 X-1.799 Y-.7 E.01366
G1 X-4.587 Y-3.489 Z.2 E.12455
G1 X-7.376 Y-6.277 Z.2 E.12456
G1 F1200
G1 X-7.558 Y-5.922 E.0126
G1 X-2.205 Y-.569 E.2391
G1 F1199.802
G1 X-2.582 Y-.409 E.01294
G1 X-7.74 Y-5.567 E.23039
G1 X-7.922 Y-5.211 E.01263
G1 X-2.952 Y-.241 E.22199
G1 X-3.306 Y-.058 E.01259
G1 X-5.701 Y-2.454 Z.2 E.107
G1 X-8.097 Y-4.849 Z.2 E.107
G1 X-8.268 Y-4.484 E.01273
G1 X-5.957 Y-2.173 Z.2 E.10322
G1 X-3.647 Y.138 Z.2 E.10321
G1 X-3.98 Y.342 E.01233
G1 X-8.44 Y-4.118 E.19921
G1 X-8.611 Y-3.752 E.01276
G1 X-4.302 Y.557 E.19247
G1 X-4.609 Y.787 E.01212
G1 X-8.783 Y-3.386 E.18642
G1 X-8.949 Y-3.015 E.01284
G1 X-4.916 Y1.017 E.18012
G1 X-5.217 Y1.254 E.0121
G1 X-9.11 Y-2.639 E.17389
G1 X-9.27 Y-2.262 E.01294
G1 X-7.39 Y-.382 Z.2 E.084
G1 X-5.509 Y1.499 Z.2 E.08399
G1 X-5.793 Y1.752 E.01201
G1 X-9.431 Y-1.886 E.1625
G1 X-9.591 Y-1.509 E.01294
G1 X-6.074 Y2.008 E.15709
G1 X-6.347 Y2.273 E.01202
G1 X-9.752 Y-1.132 E.15209
G1 X-9.908 Y-.752 E.01297
G1 X-6.618 Y2.539 E.14698
G1 X-6.882 Y2.812 E.01199
G1 X-10.058 Y-.364 E.14186
G1 X-10.207 Y.024 E.01313
G1 X-7.143 Y3.088 E.13686
G1 X-7.403 Y3.365 E.012
G1 X-10.356 Y.412 E.1319
G1 X-10.505 Y.8 E.01313
G1 X-7.653 Y3.652 E.12739
G1 X-7.904 Y3.939 E.01204
G1 X-10.655 Y1.188 E.12288
G1 X-10.804 Y1.576 E.01313
G1 X-8.154 Y4.225 E.11834
G1 X-8.395 Y4.522 E.01208
G1 X-10.951 Y1.966 E.11417
G1 X-11.093 Y2.361 E.01326
G1 X-8.635 Y4.819 E.10979
G1 X-8.875 Y5.116 E.01206
G1 X-11.232 Y2.759 E.10528
G1 X-11.366 Y3.163 E.01344
G1 X-9.114 Y5.415 E.10059
G1 X-9.344 Y5.722 E.01212
G1 X-11.5 Y3.566 E.0963
G1 X-11.634 Y3.969 E.01341
G1 X-9.574 Y6.029 E.09201
G1 X-9.805 Y6.335 E.01211
G1 X-11.768 Y4.372 E.08768
G1 X-11.901 Y4.776 E.01343
G1 X-10.035 Y6.642 E.08335
G1 X-10.259 Y6.956 E.01218
G1 X-12.035 Y5.179 E.07935
G1 X-12.169 Y5.582 E.01341
G1 X-10.48 Y7.272 E.07546
G1 X-10.701 Y7.588 E.01218
G1 X-12.299 Y5.989 E.0714
G1 X-12.419 Y6.407 E.01374
G1 X-10.922 Y7.904 E.06687
G1 X-11.143 Y8.22 E.01218
G1 X-12.539 Y6.824 E.06235
G1 X-12.659 Y7.241 E.01371
G1 X-11.364 Y8.536 E.05784
G1 X-11.579 Y8.859 E.01226
G1 X-12.779 Y7.658 E.05362
G1 X-12.899 Y8.075 E.01371
G1 X-11.793 Y9.182 E.04942
G1 X-12.007 Y9.505 E.01224
G1 X-13.019 Y8.493 E.0452
G1 X-13.139 Y8.91 E.01371
G1 X-12.221 Y9.828 E.041
G1 X-12.435 Y10.151 E.01224
G1 X-13.247 Y9.339 E.03627
G1 X-13.352 Y9.771 E.01404
G1 X-12.649 Y10.474 E.0314
G1 X-12.863 Y10.798 E.01226
G1 X-13.457 Y10.204 E.02653
G1 X-13.562 Y10.636 E.01404
G1 X-13.077 Y11.121 E.02166
G1 X-13.291 Y11.444 E.01224
G1 X-13.666 Y11.068 E.01677
G1 X-13.761 Y11.511 E.01431
G1 X-13.505 Y11.767 E.01143
G1 X-13.719 Y12.09 E.01224
G1 X-13.995 Y11.814 E.01233
M204 P2000
;LAYER_CHANGE
;Z:0.4
;HEIGHT:0.2
; BEFORE_LAYER_CHANGE
;0.4
G92 E0

G1 E-3.78 F1800
;WIPE_START
G1 F7200
G1 X-13.719 Y12.09 E-.0927
G1 X-13.505 Y11.767 E-.09202
G1 X-13.761 Y11.511 E-.08598
G1 X-13.666 Y11.068 E-.1076
G1 X-13.542 Y11.192 E-.0417
;WIPE_END
G1 Z.4 F9000
; AFTER_LAYER_CHANGE
;0.4
G1 Z.6
G1 X14.472 Y13.785
G1 Z.4
G1 E4.2 F1800
M204 P1500
;TYPE:Perimeter
;WIDTH:0.449999
G1 F2699.77
G1 X13.943 Y13.055 E.03052
G1 X12.244 Y10.498 Z.4 E.10389
G1 X10.546 Y7.942 Z.4 E.10389
G1 X9.215 Y6.1 E.07692
G1 X8.161 Y4.761 E.05768
G1 X7.416 Y3.885 E.03892
G1 X6.757 Y3.165 E.03304
G1 X5.39 Y1.842 E.06439
G1 X4.534 Y1.141 E.03745
G1 X3.733 Y.581 E.03308
G1 X3.063 Y.187 E.02631
G1 X2.453 Y-.109 E.02295
G1 X1.65 Y-.406 E.02898
G1 X.995 Y-.565 E.02281
G1 X.024 Y-.657 E.03301
G1 X-.786 Y-.599 E.02749
G1 X-1.225 Y-.507 E.01518
G1 X-1.887 Y-.32 E.02328
G1 X-2.412 Y-.127 E.01893
G1 X-3.013 Y.161 E.02256
G1 X-4.01 Y.764 E.03944
G1 X-4.893 Y1.423 E.03729
G1 X-5.888 Y2.295 E.04478
G1 X-6.478 Y2.875 E.028
G1 X-7.13 Y3.566 E.03216
G1 X-7.911 Y4.46 E.04018
G1 X-8.802 Y5.562 E.04797
G1 X-9.828 Y6.93 E.05788
G1 X-11.106 Y8.757 E.07547
G1 X-13.968 Y13.092 E.17583
G1 X-14.467 Y13.788 E.02899
G1 X-14.457 Y13.583 E.00695
G1 X-14.269 Y12.321 E.04319
G1 X-14.031 Y11.138 E.04085
G1 X-13.492 Y8.915 E.07743
G1 X-12.589 Y5.775 E.11059
G1 X-11.497 Y2.485 E.11734
G1 X-11.224 Y1.725 E.02733
G1 F2688.027
G1 X-10.167 Y-1.019 E.09953
G1 F2649.631
G1 X-9.181 Y-3.331 E.08508
G1 F2601.873
G1 X-8.287 Y-5.239 E.07132
G1 F2562.605
G1 X-7.487 Y-6.8 E.05937
G1 F2530.434
G1 X-6.776 Y-8.074 E.04938
G1 F2503.529
G1 X-6.143 Y-9.116 E.04127
G1 F2481.533
G1 X-5.581 Y-9.973 E.03469
G1 F2463.08
G1 X-5.078 Y-10.68 E.02937
G1 F2447.991
G1 X-4.63 Y-11.264 E.02491
G1 F2429.06
G1 X-3.853 Y-12.17 E.0404
G1 F2408.75
G1 X-3.214 Y-12.811 E.03064
G1 F2394.109
G1 X-2.676 Y-13.273 E.024
G1 F2381.205
G1 X-2.214 Y-13.612 E.0194
G1 F2370.864
G1 X-1.735 Y-13.904 E.01899
G1 F2360.886
G1 X-1.228 Y-14.143 E.01897
G1 F2349.018
G1 X-.619 Y-14.322 E.02149
G1 F2336.921
G1 X.077 Y-14.392 E.02368
G1 F2325.213
G1 X.663 Y-14.312 E.02002
G1 F2314.919
G1 X1.185 Y-14.151 E.01849
G1 F2305.315
G1 X1.678 Y-13.934 E.01823
G1 F2293.741
G1 X2.282 Y-13.566 E.02394
G1 F2281.52
G1 X2.774 Y-13.195 E.02086
G1 F2271.145
G1 X3.242 Y-12.779 E.02119
G1 F2259.778
G1 X3.665 Y-12.369 E.01994
G1 F2244.242
G1 X4.437 Y-11.501 E.03932
G1 F2227.926
G1 X4.884 Y-10.938 E.02433
G1 F2214.186
G1 X5.392 Y-10.245 E.02908
G1 F2197.142
G1 X5.966 Y-9.394 E.03475
G1 F2177.904
G1 X6.619 Y-8.341 E.04194
G1 F2154.443
G1 X7.364 Y-7.029 E.05107
G1 F2126.135
G1 X8.213 Y-5.389 E.06251
G1 F2092.077
G1 X9.176 Y-3.344 E.07651
G1 F2051.323
G1 X10.247 Y-.823 E.09271
G1 F2003.698
G1 X11.385 Y2.17 E.10839
G1 F1951.115
G1 X12.519 Y5.548 E.12061
G1 F1902.593
G1 X13.313 Y8.248 E.09526
G1 F1863.646
G1 X13.909 Y10.597 E.08203
G1 F1835.866
G1 X14.202 Y11.968 E.04745
G1 F1818.329
G1 X14.372 Y12.936 E.03327
G1 F1805.46
G1 X14.465 Y13.726 E.02693
M204 P2000
G1 X14.847 Y14.763 F9000
M204 P1500
;TYPE:External perimeter
G1 F1800
G1 X14.616 Y14.599 E.00959
G1 X14.284 Y14.22 E.01705
G1 X13.608 Y13.287 E.039
G1 X10.207 Y8.167 E.20806
G1 X8.885 Y6.339 E.07636
G1 X7.851 Y5.025 E.0566
G1 X7.115 Y4.16 E.03844
G1 X6.467 Y3.45 E.03254
G1 X5.132 Y2.157 E.06291
G1 X4.277 Y1.456 E.03742
G1 X3.526 Y.931 E.03102
G1 X2.883 Y.552 E.02526
G1 X2.31 Y.272 E.02159
G1 X1.554 Y-.01 E.02731
G1 X.899 Y-.169 E.02281
G1 X.054 Y-.251 E.02874
G1 X-.757 Y-.193 E.02752
G1 X-1.136 Y-.11 E.01313
G1 X-1.749 Y.063 E.02156
G1 X-2.238 Y.241 E.01761
G1 X-2.802 Y.51 E.02115
G1 X-3.799 Y1.113 E.03944
G1 X-4.625 Y1.729 E.03488
G1 X-5.603 Y2.586 E.04402
G1 X-6.182 Y3.155 E.02748
G1 X-6.834 Y3.846 E.03216
G1 X-7.594 Y4.716 E.0391
G1 X-8.476 Y5.806 E.04746
G1 X-9.503 Y7.174 E.0579
G1 X-10.766 Y8.981 E.07462
G1 X-13.64 Y13.333 E.17653
G1 X-14.19 Y14.099 E.03192
G1 X-14.571 Y14.548 E.01993
G1 X-14.84 Y14.759 E.01157
G1 X-14.906 Y14.422 E.01162
G1 X-14.862 Y13.542 E.02982
G1 X-14.67 Y12.251 E.04418
G1 X-14.428 Y11.05 E.04147
G1 X-13.886 Y8.81 E.07801
G1 X-12.978 Y5.654 E.11116
G1 X-11.881 Y2.352 E.11778
G1 X-11.605 Y1.583 E.02766
G1 X-10.545 Y-1.172 E.09992
G1 X-9.553 Y-3.498 E.08559
G1 X-8.653 Y-5.419 E.07181
