; generated by PrusaSlicer 2.6.1+win64 on 2023-10-27 at 09:05:05 UTC

; 

; external perimeters extrusion width = 0.45mm
; perimeters extrusion width = 0.45mm
; infill extrusion width = 0.45mm
; solid infill extrusion width = 0.45mm
; top infill extrusion width = 0.40mm
; first layer extrusion width = 0.42mm

;TYPE:Custom
; START_GCODE

T0 ; Select Titan extruder
M220 S100 ; Set feedmultiply back to 100percent

G90 ; Absolute positioning
M83; Relative Extruder

G28 ; Home all axes

M190 S50 ; Set and wait - bed temperature
M104 S220

G32 ; Probe Z and calculate Z plane
G29 ; Mesh bed probe

G1009 ; Go ARC to purge end

G92 E0 ; Zero extruder
G21 ; set units to millimeters
G90 ; use absolute coordinates
M83 ; use relative distances for extrusion
; Filament gcode
M107
;LAYER_CHANGE
;Z:0.2
;HEIGHT:0.2
; BEFORE_LAYER_CHANGE
;0.2
G92 E0

G1 E-4.2 F1800
G1 Z.2 F9000
; AFTER_LAYER_CHANGE
;0.2
G1 Z.4
G1 X2.57 Y-.111
G1 Z.2
G1 E4.2 F1800
M204 P1000
;TYPE:Perimeter
;WIDTH:0.419999
G1 F1199.747
G1 X2.207 Y-.271 E.01244
G1 X1.658 Y-.46 E.0182
G1 X.701 Y-.667 E.0307
G1 X-.044 Y-.713 E.0234
G1 X-.894 Y-.638 E.02675
G1 X-1.907 Y-.381 E.03277
G1 X-2.61 Y-.095 E.0238
G1 X-2.54 Y-.816 E.02271
G1 X-2.486 Y-3.206 E.07496
G1 X-2.546 Y-5.853 E.08302
G1 X-2.546 Y-9.568 Z.2 E.11648
G1 X-2.547 Y-13.283 Z.2 E.11648
G1 X-1.89 Y-13.751 E.02529
G1 X-1.212 Y-14.089 E.02375
G1 X-.52 Y-14.29 E.02259
G1 X.072 Y-14.336 E.01862
G1 X.478 Y-14.282 E.01284
G1 X.923 Y-14.178 E.01433
G1 X1.474 Y-13.962 E.01856
G1 X2.094 Y-13.623 E.02216
G1 X2.547 Y-13.302 E.01741
G1 X2.536 Y-9.534 E.11814
G1 X2.504 Y-7.975 E.04889
G1 X2.511 Y-2.902 E.15906
G1 X2.473 Y-2.052 E.02668
G1 X2.518 Y-.662 E.04361
G1 X2.565 Y-.171 E.01547
M204 P2000
G1 X3.012 Y.551 F9000
M204 P1000
;TYPE:External perimeter
G1 F1200
G1 X2.628 Y.327 E.01394
G1 X2.082 Y.085 E.01873
G1 X1.576 Y-.092 E.01681
G1 X.675 Y-.291 E.02893
G1 X-.014 Y-.337 E.02165
G1 X-.803 Y-.272 E.02482
G1 X-1.837 Y-.002 E.03351
G1 X-2.552 Y.291 E.02423
G1 X-3.02 Y.542 E.01665
G1 X-2.992 Y-.067 E.01911
G1 X-2.917 Y-.824 E.02385
G1 X-2.863 Y-3.195 E.07436
G1 X-2.924 Y-5.849 E.08324
G1 X-2.924 Y-13.477 E.23917
G1 X-2.085 Y-14.075 E.0323
G1 X-1.35 Y-14.441 E.02574
G1 X-.588 Y-14.663 E.02489
G1 X.083 Y-14.715 E.0211
G1 X.792 Y-14.62 E.02243
G1 X1.651 Y-14.295 E.0288
G1 X2.309 Y-13.933 E.02355
G1 X2.925 Y-13.484 E.0239
G1 X2.913 Y-9.529 E.12401
G1 X2.881 Y-7.975 E.04873
G1 X2.881 Y-4.335 E.11413
G1 X2.905 Y-3.388 E.0297
G1 X2.85 Y-2.064 E.04155
G1 X2.894 Y-.698 E.04285
G1 X3.006 Y.491 E.03745
M204 P2000
G1 X2.749 Y.249 F9000
G1 E-3.78 F1800
;WIPE_START
G1 F7200
G1 X2.628 Y.327 E-.09786
G1 X2.082 Y.085 E-.14184
G1 X1.576 Y-.092 E-.12732
G1 X1.358 Y-.14 E-.05298
;WIPE_END
G1 Z.4 F9000
G1 X2.432 Y-12.464
G1 Z.2
G1 E4.2 F1800
M204 P1000
;TYPE:Solid infill
;WIDTH:0.427942
G1 F1200
G1 X1.064 Y-13.831 E.06191
G1 F1199.652
G1 X.641 Y-13.974 E.0143
G1 X.336 Y-14.015 E.00985
G1 X2.261 Y-12.09 E.08716
G1 X2.259 Y-11.548 E.01735
G1 X-.223 Y-14.029 E.11235
G1 X-.469 Y-14.01 E.0079
G1 X-.685 Y-13.947 E.0072
G1 X2.257 Y-11.005 E.1332
G1 X2.256 Y-10.462 E.01738
G1 X-1.107 Y-13.825 E.15226
G1 X-1.471 Y-13.644 E.01301
G1 X2.254 Y-9.919 E.16865
G1 X2.25 Y-9.379 E.01729
G1 X-1.823 Y-13.452 E.18441
G1 X-2.141 Y-13.225 E.01251
G1 X2.239 Y-8.845 E.19831
G1 X2.228 Y-8.311 E.0171
G1 X-2.264 Y-12.804 E.2034
G1 X-2.264 Y-12.259 E.01745
G1 X2.222 Y-7.774 E.20308
G1 X2.221 Y-7.229 E.01745
G1 X-2.264 Y-11.715 E.20308
G1 X-2.264 Y-11.17 E.01745
G1 X2.221 Y-6.685 E.20306
G1 X2.221 Y-6.14 E.01745
G1 X-2.264 Y-10.626 E.20308
G1 X-2.264 Y-10.081 E.01745
G1 X2.221 Y-5.596 E.20306
G1 X2.221 Y-5.052 E.01742
G1 X-2.264 Y-9.537 E.20306
G1 X-2.264 Y-8.992 E.01745
G1 X2.221 Y-4.507 E.20306
G1 X2.231 Y-3.953 E.01774
G1 X-2.264 Y-8.448 E.20351
G1 X-2.264 Y-7.903 E.01745
G1 X2.245 Y-3.394 E.20415
G1 X2.227 Y-2.868 E.01685
G1 X-2.264 Y-7.358 E.20331
G1 X-2.264 Y-6.814 E.01742
G1 X-.031 Y-4.582 Z.2 E.10108
G1 X2.201 Y-2.349 Z.2 E.10108
G1 X2.198 Y-1.808 E.01732
G1 X-.033 Y-4.038 Z.2 E.101
G1 X-2.264 Y-6.269 Z.2 E.101
G1 X-2.261 Y-5.722 E.01751
G1 X-.022 Y-3.484 Z.2 E.10135
G1 X2.216 Y-1.245 Z.2 E.10135
G1 X2.234 Y-.683 E.018
G1 X-2.248 Y-5.164 E.2029
G1 X-2.235 Y-4.607 E.01784
G1 X-.311 Y-2.683 Z.2 E.08709
G1 X1.612 Y-.76 Z.2 E.08709
G1 X.911 Y-.916 E.02299
G1 X-2.223 Y-4.05 E.14189
G1 X-2.21 Y-3.493 E.01784
G1 X.308 Y-.975 E.114
G1 X.005 Y-.997 E.00973
G1 X-.238 Y-.976 E.00781
G1 X-2.209 Y-2.948 E.08926
G1 X-2.221 Y-2.415 E.01707
G1 X-.739 Y-.933 E.0671
G1 X-.955 Y-.914 E.00694
G1 X-1.203 Y-.852 E.00818
G1 X-2.233 Y-1.883 E.04666
G1 X-2.245 Y-1.35 E.01707
G1 X-1.639 Y-.744 E.02744
G1 X-1.904 Y-.679 E.00874
G1 X-2.058 Y-.618 E.0053
G1 X-2.423 Y-.984 E.01655
M204 P2000
;LAYER_CHANGE
;Z:0.4
;HEIGHT:0.2
; BEFORE_LAYER_CHANGE
;0.4
G92 E0

G1 E-3.78 F1800
;WIPE_START
G1 F7200
G1 X-2.058 Y-.618 E-.12276
G1 X-1.904 Y-.679 E-.03934
G1 X-1.639 Y-.744 E-.0648
G1 X-2.214 Y-1.319 E-.1931
;WIPE_END
G1 Z.4 F9000
; AFTER_LAYER_CHANGE
;0.4
G1 Z.6
G1 X3.084 Y.2
G1 Z.4
G1 E4.2 F1800
M204 P1500
;TYPE:Perimeter
;WIDTH:0.449999
G1 F1893.967
G1 X2.241 Y-.198 E.03155
G1 F1879.97
G1 X1.402 Y-.475 E.02991
G1 F1867.948
G1 X.691 Y-.613 E.02452
G1 F1856.401
G1 X-.178 Y-.647 E.02944
G1 F1845.361
G1 X-.877 Y-.585 E.02375
G1 F1834.02
G1 X-1.641 Y-.408 E.02655
G1 F1822.552
G1 X-2.412 Y-.127 E.02778
G1 F1812.588
G1 X-3.002 Y.155 E.02213
G1 F1804.399
G1 X-3.43 Y.403 E.01674
M204 P1000
;TYPE:Overhang perimeter
G1 F1800
G1 X-3.69 Y.554 E.01018
G1 X-4.459 Y1.084 E.03161
G1 X-4.961 Y1.491 E.02188
G1 X-4.946 Y-5.063 E.22185
G1 X-4.968 Y-10.822 E.19494
G1 X-4.63 Y-11.264 E.01883
G1 X-3.853 Y-12.17 E.0404
G1 X-3.435 Y-12.589 E.02003
M204 P1500
;TYPE:Perimeter
G1 F1914.13
G1 X-3.217 Y-12.807 E.01044
G1 F1904.753
G1 X-2.438 Y-13.453 E.03426
G1 F1891.081
G1 X-1.733 Y-13.904 E.02833
G1 F1879.414
G1 X-1.076 Y-14.199 E.02438
G1 F1870.252
G1 X-.534 Y-14.344 E.01899
G1 F1861.703
G1 X.016 Y-14.392 E.01869
G1 F1854.113
G1 X.577 Y-14.336 E.01908
G1 F1845.498
G1 X1.181 Y-14.16 E.02129
G1 F1836.232
G1 X1.684 Y-13.931 E.01871
G1 F1827.576
G1 X2.282 Y-13.565 E.02373
G1 F1818.375
G1 X2.768 Y-13.198 E.02061
G1 F1807.087
G1 X3.435 Y-12.58 E.03078
M204 P1000
;TYPE:Overhang perimeter
G1 F1800
G1 X3.672 Y-12.36 E.01095
G1 X4.435 Y-11.504 E.03881
G1 X4.964 Y-10.82 E.02927
G1 X4.964 Y-10.035 E.02657
G1 X4.967 Y-3.841 E.20966
G1 X4.944 Y-2.539 E.04408
G1 X4.962 Y1.492 E.13645
G1 X4.498 Y1.113 E.02028
G1 X3.733 Y.581 E.03154
G1 X3.423 Y.399 E.01217
M204 P1500
;TYPE:Perimeter
G1 F1802.187
G1 X3.135 Y.231 E.01129
M204 P2000
G1 X2.362 Y.309 F9000
M204 P1500
;TYPE:External perimeter
G1 F1800
G1 X2.046 Y.162 E.0118
G1 X1.322 Y-.076 E.0258
G1 X.662 Y-.207 E.02278
G1 X-.146 Y-.241 E.02737
G1 X-.787 Y-.188 E.02177
G1 X-1.503 Y-.025 E.02486
G1 X-2.238 Y.241 E.02646
G1 X-2.799 Y.508 E.02103
G1 X-3.433 Y.874 E.02478
M204 P1000
;TYPE:Overhang perimeter
G1 X-4.202 Y1.401 E.03156
G1 X-5.078 Y2.109 E.03813
G1 X-5.37 Y2.379 E.01346
G1 X-5.353 Y-5.064 E.25194
G1 X-5.376 Y-10.959 E.19954
G1 X-4.946 Y-11.52 E.02393
G1 X-4.152 Y-12.447 E.04131
G1 X-3.435 Y-13.156 E.03413
M204 P1500
;TYPE:External perimeter
G1 X-2.679 Y-13.783 E.03325
G1 X-1.927 Y-14.263 E.0302
G1 X-1.213 Y-14.583 E.02648
G1 X-.605 Y-14.746 E.02131
G1 X.019 Y-14.801 E.0212
G1 X.654 Y-14.737 E.0216
G1 X1.323 Y-14.543 E.02358
G1 X1.875 Y-14.291 E.02054
G1 X2.511 Y-13.902 E.02524
G1 X3.03 Y-13.511 E.02199
G1 X3.435 Y-13.135 E.01871
M204 P1000
;TYPE:Overhang perimeter
G1 X3.963 Y-12.646 E.02436
G1 X4.748 Y-11.764 E.03997
G1 X5.371 Y-10.959 E.03446
G1 X5.371 Y-10.035 E.03128
G1 X5.374 Y-3.841 E.20966
G1 X5.351 Y-2.541 E.04401
G1 X5.373 Y2.379 E.16654
G1 X5.132 Y2.157 E.01109
G1 X4.277 Y1.456 E.03742
G1 X3.431 Y.875 E.03474
M204 P1500
;TYPE:External perimeter
G1 X2.88 Y.551 E.02164
G1 X2.416 Y.335 E.01732
M204 P2000
G1 X2.337 Y-.038 F9000
G1 E-3.78 F1800
;WIPE_START
G1 F7200
G1 X2.046 Y.162 E-.09701
G1 X1.322 Y-.076 E-.181
G1 X.736 Y-.192 E-.14199
;WIPE_END
G1 Z.6 F9000
G1 X-4.695 Y1.12
G1 Z.4
G1 E4.2 F1800
M204 P1000
;TYPE:Bridge infill
;WIDTH:0.440409
G1 X-4.668 Y-10.729 E.39163
G1 X-4.269 Y-11.231 E.02119
G1 X-4.296 Y.613 E.39146
G1 X-3.898 Y.341 E.01593
G1 X-3.87 Y-11.696 E.39784
G1 X-3.472 Y-12.134 E.01956
G1 X-3.5 Y.102 E.40442
G1 X-3.102 Y-.125 E.01514
G1 X-3.073 Y-12.533 E.4101
G1 X-2.675 Y-12.873 E.0173
G1 X-2.704 Y-.313 E.41513
G1 X-2.306 Y-.482 E.01429
G1 X-2.277 Y-13.204 E.42048
G1 X-2.167 Y-13.277 E.00436
G1 X-2.038 Y-13.037 E.00901
G1 X-1.977 Y-12.826 E.00726
G1 X-1.958 Y-12.675 E.00503
G1 X-1.957 Y-5.844 E.22577
G1 X-1.902 Y-3.421 E.0801
G1 X-1.909 Y-.44 E.09853
M204 P2000
G1 E-3.78
;WIPE_START
G1 F7200
G1 X-1.905 Y-2.208 E-.42
;WIPE_END
G1 Z.6 F9000
G1 X4.663 Y-11.011
G1 Z.4
G1 E4.2 F1800
M204 P1000
;WIDTH:0.440124
G1 X4.667 Y-3.531 E.24705
G1 X4.649 Y-2.539 E.03277
G1 X4.664 Y.882 E.11299
G1 X4.272 Y.603 E.01589
G1 X4.266 Y-11.24 E.39115
G1 X3.869 Y-11.696 E.01997
G1 X3.874 Y.322 E.39693
G1 X3.477 Y.089 E.0152
G1 X3.471 Y-12.142 E.40396
G1 X3.074 Y-12.513 E.01795
G1 X3.08 Y-.131 E.40895
G1 X2.682 Y-.317 E.01451
G1 X2.677 Y-12.881 E.41496
G1 X2.279 Y-13.198 E.0168
G1 X2.285 Y-.492 E.41965
G1 X1.925 Y-.611 E.01252
G1 X1.887 Y-1.911 E.04295
G1 X1.882 Y-13.098 E.36948
M204 P2000
G1 E-3.78
;WIPE_START
G1 F7200
G1 X1.883 Y-11.33 E-.42
;WIPE_END
G1 Z.6 F9000
G1 X-1.331 Y-13.75
G1 Z.4
G1 E4.2 F1800
;TYPE:Solid infill
;WIDTH:0.449999
G1 F3015.677
G1 X-1.74 Y-13.341 E.01958
G1 F3009.772
G1 X-1.844 Y-13.432 E.00468
;WIDTH:0.41646
G1 F3281.331
G1 X-1.948 Y-13.523 E.00429
;WIDTH:0.38292
G1 F3597.33
G1 X-2.019 Y-13.542 E.00208
G1 F3595.927
G1 X-2 Y-13.471 E.00208
G1 X-1.959 Y-13.482 E.0012
;WIDTH:0.449999
G1 F3406.714
G1 X-1.59 Y-12.915 E.0229
G1 F3390.032
G1 X-.461 Y-14.044 E.05404
G1 F3373.512
G1 X.144 Y-14.073 E.0205
G1 F3350.561
G1 X-1.562 Y-12.367 E.08167
G1 F3328.075
G1 X-1.562 Y-11.791 E.0195
G1 F3301.4
G1 X.645 Y-13.998 E.10565
G1 F3275.157
G1 X1.089 Y-13.867 E.01567
G1 F3244.965
G1 X-1.562 Y-11.216 E.1269
G1 F3213.349
G1 X-1.562 Y-10.64 E.0195
G1 F3179.352
G1 X1.484 Y-13.686 E.14581
G1 F3146.648
G1 X1.806 Y-13.432 E.01388
G1 F3110.486
G1 X-1.562 Y-10.064 E.16122
G1 F3073.168
G1 X-1.563 Y-9.488 E.0195
G1 F3039.851
G1 X1.562 Y-12.612 E.14957
G1 F2875.332
G1 X1.648 Y-12.74 E.00522
;WIDTH:0.41646
G1 F3105.21
G1 X1.734 Y-12.867 E.00476
;WIDTH:0.38292
G1 F3407.995
G1 X1.693 Y-12.856 E.0012
G1 F3402.447
G1 X1.674 Y-12.927 E.00208
G1 F3401.116
G1 X1.745 Y-12.908 E.00208
G1 X1.561 Y-12.036 F9000
;WIDTH:0.449999
G1 F2815.462
G1 X-1.563 Y-8.912 E.14954
G1 F2783.829
G1 X-1.563 Y-8.336 E.0195
G1 F2753.745
G1 X1.558 Y-11.457 E.1494
G1 F2723.962
G1 X1.556 Y-10.879 E.01956
G1 F2693.537
G1 X-1.563 Y-7.76 E.1493
G1 F2663.303
G1 X-1.563 Y-7.184 E.0195
G1 F2634.623
G1 X1.553 Y-10.301 E.14918
G1 F2606.097
G1 X1.551 Y-9.723 E.01956
G1 F2576.865
G1 X-1.563 Y-6.609 E.14907
G1 F2548.83
G1 X-1.56 Y-6.037 E.01936
G1 F2520.773
G1 X1.545 Y-9.141 E.14861
G1 F2493.451
G1 X1.536 Y-8.556 E.0198
G1 F2465.926
G1 X-1.551 Y-5.469 E.14777
G1 F2439.09
G1 X-1.539 Y-4.906 E.01906
G1 F2412.719
G1 X1.518 Y-7.963 E.14634
G1 F2386.244
G1 X1.518 Y-7.387 E.0195
G1 F2361.081
G1 X-1.526 Y-4.343 E.14571
G1 F2335.37
G1 X-1.513 Y-3.781 E.01903
G1 F2310.711
G1 X1.518 Y-6.812 E.14509
G1 F2285.455
G1 X1.518 Y-6.236 E.0195
G1 F2261.463
G1 X-1.5 Y-3.218 E.14447
G1 F2236.55
G1 X-1.52 Y-2.622 E.02019
G1 F2213.026
G1 X1.518 Y-5.66 E.14543
G1 F2188.855
G1 X1.518 Y-5.084 E.0195
G1 F2165.594
G1 X-1.533 Y-2.034 E.14603
G1 F2142.406
G1 X-1.543 Y-1.447 E.01987
G1 F2118.997
G1 X1.518 Y-4.508 E.14653
G1 F2095.901
G1 X1.531 Y-3.946 E.01903
G1 F2073.396
G1 X-1.549 Y-.866 E.14744
G1 F2050.615
G1 X-1.578 Y-.747 E.00415
;WIDTH:0.41646
G1 F2236.669
G1 X-1.608 Y-.629 E.00378
;WIDTH:0.38292
G1 F2452.798
G1 X-1.679 Y-.648 E.00208
G1 F2451.842
G1 X-1.66 Y-.577 E.00208
G1 F2454.336
G1 X-1.619 Y-.588 E.0012
;WIDTH:0.449999
G1 F2045.6
G1 X-.96 Y-.88 E.0244
G1 F2026.623
G1 X1.543 Y-3.382 E.11979
G1 F2008.197
G1 X1.517 Y-2.781 E.02036
G1 F1993.797
G1 X-.327 Y-.937 E.08827
G1 F1979.957
G1 X.26 Y-.948 E.01987
G1 F1969.442
G1 X1.486 Y-2.174 E.05869
G1 F1959.682
G1 X1.499 Y-1.611 E.01906
G1 F1952.813
G1 X.791 Y-.903 E.03389
G1 F1945.69
G1 X1.49 Y-.811 E.02386
;WIDTH:0.612418
G1 F1387.677
G1 X1.421 Y-.792 E.00339
G1 F1388.812
G1 X1.371 Y-.843 E.00338
G1 F1387.883
G1 X1.389 Y-.911 E.00333
G1 F1386.736
G1 X1.458 Y-.93 E.00339
G1 X1.508 Y-.88 E.00335
;LAYER_CHANGE
;Z:0.6
;HEIGHT:0.2
; BEFORE_LAYER_CHANGE
;0.6
G92 E0

G1 E-3.78 F1800
;WIPE_START
G1 F7200
G1 X1.458 Y-.93 E-.01679
G1 X1.389 Y-.911 E-.017
G1 X1.371 Y-.843 E-.01671
G1 X1.421 Y-.792 E-.01696
G1 X1.49 Y-.811 E-.017
G1 X.791 Y-.903 E-.16744
G1 X1.291 Y-1.403 E-.1681
;WIPE_END
G1 Z.6 F9000
; AFTER_LAYER_CHANGE
;0.6
G1 Z.8
G1 X2.777 Y.043
G1 Z.6
G1 E4.2 F1800
M204 P1500
;TYPE:Perimeter
;WIDTH:0.449999
G1 F1932.875
G1 X1.896 Y-.326 E.03233
G1 F1917.577
G1 X.906 Y-.58 E.0346
G1 F1903.586
G1 X.059 Y-.657 E.02879
G1 F1890.175
G1 X-.889 Y-.582 E.03219
G1 F1875.468
G1 X-1.891 Y-.328 E.03499
G1 F1861.189
G1 X-2.699 Y.003 E.02956
G1 F1849.621
G1 X-3.334 Y.339 E.02432
G1 F1835.02
G1 X-4.448 Y1.076 E.04521
G1 F1821.275
G1 X-4.893 Y1.423 E.0191
G1 F1808.75
G1 X-5.792 Y2.21 E.04044
M204 P1000
;TYPE:Overhang perimeter
G1 F1800
G1 X-6.564 Y2.967 E.0366
G1 X-6.558 Y-6.259 E.31229
G1 X-6.587 Y-8.386 E.072
G1 X-6.143 Y-9.116 E.02892
G1 X-5.8 Y-9.64 E.0212
M204 P1500
;TYPE:Perimeter
G1 F2024.509
G1 X-5.078 Y-10.68 E.04285
G1 F2008.604
G1 X-4.627 Y-11.268 E.02508
G1 F1997.414
G1 X-4.221 Y-11.758 E.02154
G1 F1987.901
G1 X-3.857 Y-12.166 E.01851
G1 F1976.839
G1 X-3.217 Y-12.807 E.03066
G1 F1961.647
G1 X-2.434 Y-13.457 E.03445
G1 F1949.016
G1 X-1.927 Y-13.794 E.02061
G1 F1938.808
G1 X-1.222 Y-14.144 E.02664
G1 F1927.852
G1 X-.576 Y-14.331 E.02276
G1 F1918.391
G1 X.005 Y-14.392 E.01977
G1 F1908.203
G1 X.728 Y-14.302 E.02466
G1 F1899.537
G1 X1.17 Y-14.165 E.01566
G1 F1891.966
G1 X1.676 Y-13.921 E.01901
G1 F1881.766
G1 X2.277 Y-13.569 E.02358
G1 F1872.47
G1 X2.768 Y-13.198 E.02083
G1 F1858.805
G1 X3.677 Y-12.356 E.04194
G1 F1841.323
G1 X4.434 Y-11.506 E.03853
G1 F1827.857
G1 X4.884 Y-10.938 E.02453
G1 F1816.87
G1 X5.392 Y-10.245 E.02908
G1 F1805.493
G1 X5.797 Y-9.645 E.0245
M204 P1000
;TYPE:Overhang perimeter
G1 F1800
G1 X6.59 Y-8.38 E.05054
G1 X6.588 Y-7.27 E.03757
G1 X6.558 Y2.965 E.34644
G1 X5.795 Y2.211 E.03631
M204 P1500
;TYPE:Perimeter
G1 F1849.651
G1 X5.397 Y1.848 E.01823
G1 F1839.848
G1 X4.844 Y1.383 E.02446
G1 F1828.454
G1 X4.102 Y.827 E.03138
G1 F1815.512
G1 X3.387 Y.369 E.02874
G1 F1805.071
G1 X2.83 Y.071 E.02138
M204 P2000
G1 X2.356 Y.304 F9000
M204 P1500
;TYPE:External perimeter
G1 F1800
G1 X1.791 Y.068 E.02073
G1 X.869 Y-.174 E.03227
G1 X-.028 Y-.25 E.03047
G1 X-.791 Y-.187 E.02591
G1 X-1.738 Y.05 E.03304
G1 X-2.51 Y.364 E.02821
G1 X-3.109 Y.679 E.02291
G1 X-4.186 Y1.389 E.04366
G1 X-4.625 Y1.729 E.0188
G1 X-5.594 Y2.578 E.04361
G1 X-5.795 Y2.775 E.00953
M204 P1000
;TYPE:Overhang perimeter
G1 X-6.182 Y3.155 E.01836
G1 X-6.984 Y4.018 E.03988
G1 X-6.965 Y2.468 E.05247
G1 X-6.965 Y-6.251 E.29513
G1 X-6.995 Y-8.497 E.07603
G1 X-6.488 Y-9.334 E.03312
G1 X-5.801 Y-10.365 E.04194
M204 P1500
;TYPE:External perimeter
G1 X-5.405 Y-10.922 E.02313
G1 X-4.945 Y-11.522 E.02559
G1 X-4.153 Y-12.445 E.04117
G1 X-3.492 Y-13.108 E.03169
G1 X-2.678 Y-13.784 E.03582
G1 X-2.131 Y-14.147 E.02222
G1 X-1.645 Y-14.389 E.01838
G1 X-1.142 Y-14.6 E.01846
G1 X-.657 Y-14.73 E.017
G1 X.016 Y-14.801 E.02291
G1 X.815 Y-14.702 E.02725
G1 X1.32 Y-14.544 E.01791
G1 X2.077 Y-14.179 E.02845
G1 X2.51 Y-13.904 E.01736
G1 X3.03 Y-13.511 E.02206
G1 X3.965 Y-12.644 E.04316
G1 X4.335 Y-12.246 E.01839
G1 X4.748 Y-11.765 E.02146
G1 X5.208 Y-11.185 E.02506
G1 X5.796 Y-10.373 E.03393
M204 P1000
;TYPE:Overhang perimeter
G1 X6.308 Y-9.616 E.03093
G1 X6.997 Y-8.495 E.04454
G1 X6.995 Y-7.269 E.0415
G1 X6.98 Y1.567 E.29909
G1 X6.961 Y2.682 E.03775
G1 X6.982 Y4.026 E.0455
G1 X6.466 Y3.449 E.0262
G1 X5.8 Y2.781 E.03193
M204 P1500
;TYPE:External perimeter
G1 X5.135 Y2.159 E.03082
G1 X4.6 Y1.708 E.02369
G1 X3.881 Y1.169 E.03042
G1 X3.194 Y.727 E.02765
