; generated by PrusaSlicer 2.5.2+win64 on 2023-10-14 at 09:06:09 UTC

; 

; external perimeters extrusion width = 0.45mm
; perimeters extrusion width = 0.45mm
; infill extrusion width = 0.45mm
; solid infill extrusion width = 0.45mm
; top infill extrusion width = 0.40mm
; first layer extrusion width = 0.42mm

M73 P0 R38
M73 Q0 S38
M201 X1000 Y1000 Z200 E5000 ; sets maximum accelerations, mm/sec^2
M203 X200 Y200 Z12 E120 ; sets maximum feedrates, mm / sec
M204 P1250 R1250 T1250 ; sets acceleration (P, T) and retract acceleration (R), mm/sec^2
M205 X8.00 Y8.00 Z0.40 E4.50 ; sets the jerk limits, mm/sec
M205 S0 T0 ; sets the minimum extruding and travel feed rate, mm/sec
M107
;TYPE:Custom
M862.3 P "MK3S" ; printer model check
M862.1 P0.4 ; nozzle diameter check
M115 U3.10.1 ; tell printer latest fw version
G90 ; use absolute coordinates
M83 ; extruder relative mode
M104 S215 ; set extruder temp
M140 S60 ; set bed temp
M190 S60 ; wait for bed temp
M109 S215 ; wait for extruder temp
G28 W ; home all without mesh bed level
G80 ; mesh bed leveling
G1 Y-3.0 F1000.0 ; go outside print area
G92 E0.0
G1 X60.0 E9.0 F1000.0 ; intro line
G1 X100.0 E12.5 F1000.0 ; intro line
G92 E0.0
M221 S95

; Don't change E values below. Excessive value can damage the printer.
M907 E430 ; set extruder motor current
G21 ; set units to millimeters
G90 ; use absolute coordinates
M83 ; use relative distances for extrusion
M900 K0.05 ; Filament gcode LA 1.5
M900 K30 ; Filament gcode LA 1.0
M107
;LAYER_CHANGE
;Z:0.2
;HEIGHT:0.2
;BEFORE_LAYER_CHANGE
G92 E0.0
;0.2


G1 E-.8 F2100
G1 Z.4 F10800
;AFTER_LAYER_CHANGE
;0.2
G1 X100.175 Y84.219
G1 Z.2
G1 E.8 F2100
M204 S1000
;TYPE:Skirt/Brim
;WIDTH:0.42
G1 F1200
G1 X102.367 Y81.85 E.1012
G1 X104.785 Y79.711 E.1012
G1 X107.403 Y77.824 E.1012
G1 X110.196 Y76.207 E.1012
G1 X113.137 Y74.876 E.1012
G1 X116.195 Y73.844 E.1012
G1 X119.341 Y73.122 E.1012
G1 X122.543 Y72.717 E.1012
G1 X124.877 Y72.625 E.07324
G1 X127.997 Y72.762 E.09792
G1 X131.192 Y73.22 E.1012
G1 X134.326 Y73.995 E.1012
G1 X137.366 Y75.077 E.1012
G1 X140.284 Y76.457 E.1012
G1 X143.05 Y78.12 E.1012
G1 X145.637 Y80.051 E.1012
G1 X148.019 Y82.23 E.1012
G1 X150.122 Y84.573 E.09873
G1 X152.031 Y87.176 E.1012
G1 X153.671 Y89.955 E.1012
G1 X155.027 Y92.885 E.1012
G1 X156.084 Y95.934 E.1012
G1 X156.832 Y99.074 E.1012
G1 X157.264 Y102.273 E.1012
G1 X157.375 Y105.499 E.1012
G1 X157.264 Y107.727 E.06996
G1 X156.832 Y110.926 E.1012
G1 X156.084 Y114.066 E.1012
G1 X155.027 Y117.115 E.1012
G1 X153.671 Y120.045 E.1012
G1 X152.031 Y122.824 E.1012
G1 X150.122 Y125.427 E.1012
G1 X147.963 Y127.827 E.1012
G1 X145.576 Y129.999 E.1012
G1 X142.985 Y131.924 E.1012
G1 X140.215 Y133.58 E.1012
G1 X137.294 Y134.953 E.1012
G1 X134.25 Y136.028 E.10121
G1 X131.115 Y136.795 E.1012
G1 X127.919 Y137.245 E.1012
G1 X124.772 Y137.376 E.09873
G1 X121.55 Y137.192 E.1012
G1 X118.362 Y136.689 E.1012
G1 X115.24 Y135.87 E.1012
G1 X112.215 Y134.744 E.1012
G1 X109.317 Y133.323 E.1012
G1 X106.574 Y131.621 E.10121
G1 X104.015 Y129.654 E.1012
G1 X101.665 Y127.442 E.1012
G1 X99.546 Y125.007 E.1012
G1 X97.681 Y122.373 E.1012
G1 X96.087 Y119.566 E.1012
G1 X94.788 Y116.634 E.10055
G1 X94.052 Y114.505 E.07062
G1 X93.259 Y111.377 E.1012
G1 X92.782 Y108.184 E.1012
G1 X92.625 Y104.96 E.1012
G1 X92.79 Y101.737 E.1012
G1 X93.275 Y98.546 E.1012
G1 X94.075 Y95.419 E.1012
G1 X95.183 Y92.387 E.1012
G1 X96.587 Y89.481 E.1012
G1 X98.229 Y86.794 E.09873
G1 X100.138 Y84.267 E.09932
; printing object temp_slicing_14102023_110607.stl id:0 copy 0
;WIPE_START
G1 F8640
G1 X102.367 Y81.85 E-.75909
G1 X102.37 Y81.847 E-.00091
;WIPE_END
G1 E-.04 F2100
G1 Z.6 F10800
G1 X102.624 Y86.222
G1 Z.2
G1 E.8 F2100
;TYPE:Perimeter
;WIDTH:0.419999
G1 F1200
G1 X103.26 Y85.489 E.03045
G1 X103.921 Y84.777 E.03045
G1 X104.605 Y84.087 E.03045
G1 X105.311 Y83.421 E.03045
G1 X106.026 Y82.79 E.0299
G1 X106.788 Y82.16 E.031
G1 X107.557 Y81.568 E.03044
G1 X108.346 Y81.001 E.03045
G1 X109.153 Y80.461 E.03045
G1 X109.977 Y79.947 E.03045
G1 X110.818 Y79.462 E.03045
G1 X111.675 Y79.004 E.03045
G1 X112.546 Y78.576 E.03045
G1 X113.432 Y78.176 E.03045
G1 X114.329 Y77.807 E.03044
G1 X115.256 Y77.461 E.031
G1 X116.16 Y77.158 E.0299
G1 X117.09 Y76.879 E.03045
G1 X118.029 Y76.632 E.03045
G1 X118.976 Y76.415 E.03045
G1 X119.929 Y76.231 E.03045
G1 X120.888 Y76.078 E.03045
G1 X121.852 Y75.958 E.03045
G1 X122.819 Y75.869 E.03045
G1 X123.788 Y75.812 E.03045
G1 X124.777 Y75.788 E.031
G1 X125.73 Y75.796 E.0299
G1 X126.701 Y75.837 E.03045
G1 X127.669 Y75.909 E.03044
G1 X129.12 Y76.083 E.04582
G1 X130.076 Y76.235 E.03035
G1 X131.028 Y76.42 E.03042
G1 X131.975 Y76.636 E.03045
G1 X132.914 Y76.883 E.03046
G1 X133.848 Y77.163 E.03055
G1 X134.759 Y77.469 E.03016
G1 X135.669 Y77.809 E.03046
G1 X136.575 Y78.182 E.0307
G1 X137.458 Y78.58 E.03036
G1 X138.329 Y79.009 E.03044
G1 X139.188 Y79.467 E.03055
G1 X140.021 Y79.948 E.03016
G1 X140.846 Y80.462 E.03046
G1 X141.659 Y81.007 E.0307
G1 X142.446 Y81.572 E.03036
G1 X143.214 Y82.164 E.03042
G1 X143.963 Y82.782 E.03043
G1 X144.691 Y83.424 E.03045
G1 X145.397 Y84.091 E.03044
G1 X146.081 Y84.78 E.03045
G1 X146.741 Y85.492 E.03043
G1 X147.377 Y86.225 E.03046
G1 X147.989 Y86.979 E.03043
G1 X148.575 Y87.753 E.03045
G1 X149.136 Y88.546 E.03044
G1 X149.669 Y89.357 E.03044
G1 X150.175 Y90.186 E.03045
G1 X150.654 Y91.031 E.03045
G1 X151.104 Y91.891 E.03045
G1 X151.526 Y92.767 E.03046
G1 X151.918 Y93.656 E.03046
G1 X152.281 Y94.56 E.03055
G1 X152.61 Y95.463 E.03015
G1 X152.912 Y96.387 E.03047
G1 X153.185 Y97.327 E.0307
G1 X153.424 Y98.265 E.03035
G1 X153.632 Y99.214 E.03044
G1 X153.809 Y100.172 E.03055
G1 X153.952 Y101.123 E.03015
G1 X154.065 Y102.088 E.03046
G1 X154.147 Y103.064 E.03071
G1 X154.195 Y104.031 E.03035
G1 X154.211 Y104.999 E.03036
G1 X154.179 Y106.456 E.04571
G1 X154.114 Y107.425 E.03045
G1 X154.017 Y108.391 E.03045
G1 X153.889 Y109.354 E.03045
G1 X153.731 Y110.294 E.0299
G1 X153.535 Y111.264 E.031
G1 X153.312 Y112.208 E.03044
G1 X153.056 Y113.145 E.03045
G1 X152.77 Y114.073 E.03045
G1 X152.453 Y114.991 E.03045
G1 X152.106 Y115.898 E.03045
G1 X151.729 Y116.793 E.03045
G1 X151.322 Y117.675 E.03045
G1 X150.886 Y118.543 E.03045
G1 X150.422 Y119.396 E.03045
G1 X149.929 Y120.233 E.03045
G1 X149.409 Y121.053 E.03045
G1 X148.862 Y121.855 E.03045
G1 X148.289 Y122.639 E.03045
G1 X147.689 Y123.403 E.03045
G1 X147.065 Y124.147 E.03045
G1 X146.417 Y124.87 E.03044
G1 X145.756 Y125.558 E.0299
G1 X145.049 Y126.249 E.031
G1 X144.332 Y126.903 E.03044
G1 X143.593 Y127.534 E.03045
G1 X142.834 Y128.139 E.03045
G1 X142.055 Y128.719 E.03045
G1 X141.257 Y129.273 E.03045
G1 X140.441 Y129.8 E.03045
G1 X139.609 Y130.299 E.03045
G1 X138.76 Y130.771 E.03045
G1 X137.895 Y131.214 E.03045
G1 X137.017 Y131.628 E.03044
M73 Q1 S38
G1 X136.109 Y132.019 E.031
G1 X135.221 Y132.367 E.0299
G1 X134.306 Y132.692 E.03045
G1 X133.38 Y132.986 E.03045
G1 X132.446 Y133.249 E.03045
G1 X131.519 Y133.476 E.0299
M73 P1 R38
G1 X130.552 Y133.681 E.031
G1 X129.596 Y133.849 E.03044
G1 X128.635 Y133.986 E.03045
G1 X127.669 Y134.091 E.03045
G1 X126.701 Y134.163 E.03045
G1 X125.73 Y134.204 E.03045
G1 X124.759 Y134.212 E.03045
G1 X123.788 Y134.188 E.03045
G1 X122.819 Y134.131 E.03045
G1 X121.852 Y134.042 E.03044
G1 X120.871 Y133.919 E.031
G1 X119.929 Y133.769 E.0299
G1 X118.976 Y133.585 E.03045
G1 X118.029 Y133.368 E.03044
G1 X117.073 Y133.116 E.031
G1 X116.16 Y132.842 E.0299
G1 X115.239 Y132.533 E.03045
G1 X114.329 Y132.193 E.03045
G1 X113.432 Y131.824 E.03045
G1 X112.562 Y131.431 E.0299
G1 X111.675 Y130.996 E.031
G1 X110.818 Y130.538 E.03044
G1 X109.977 Y130.053 E.03045
G1 X109.153 Y129.54 E.03045
G1 X108.346 Y128.999 E.03045
G1 X107.557 Y128.432 E.03045
G1 X106.788 Y127.839 E.03045
G1 X106.039 Y127.222 E.03045
G1 X105.311 Y126.579 E.03045
G1 X104.605 Y125.912 E.03045
G1 X103.921 Y125.223 E.03045
G1 X103.26 Y124.511 E.03044
G1 X102.624 Y123.778 E.03045
G1 X102.012 Y123.023 E.03045
G1 X101.426 Y122.249 E.03045
G1 X100.865 Y121.456 E.03045
G1 X100.332 Y120.645 E.03045
G1 X99.834 Y119.831 E.0299
G1 X99.347 Y118.971 E.031
G1 X98.897 Y118.111 E.03044
G1 X98.475 Y117.236 E.03045
G1 X98.083 Y116.347 E.03045
G1 X97.721 Y115.446 E.03045
G1 X97.389 Y114.534 E.03045
G1 X97.087 Y113.611 E.03045
G1 X96.816 Y112.678 E.03045
G1 X96.577 Y111.737 E.03045
G1 X96.368 Y110.788 E.03045
G1 X96.192 Y109.833 E.03045
G1 X96.047 Y108.873 E.03045
G1 X95.934 Y107.909 E.03045
G1 X95.854 Y106.941 E.03045
G1 X95.805 Y105.971 E.03045
G1 X95.789 Y105 E.03045
G1 X95.805 Y104.029 E.03045
G1 X95.853 Y103.077 E.0299
G1 X95.934 Y102.091 E.031
G1 X96.047 Y101.127 E.03044
G1 X96.192 Y100.167 E.03045
G1 X96.368 Y99.212 E.03045
G1 X96.577 Y98.263 E.03045
G1 X96.816 Y97.322 E.03045
G1 X97.087 Y96.389 E.03045
G1 X97.389 Y95.466 E.03045
G1 X97.721 Y94.554 E.03045
G1 X98.083 Y93.653 E.03045
G1 X98.475 Y92.764 E.03045
G1 X98.897 Y91.889 E.03045
G1 X99.347 Y91.029 E.03045
G1 X99.825 Y90.184 E.03045
G1 X100.332 Y89.355 E.03045
G1 X100.865 Y88.544 E.03045
G1 X101.426 Y87.751 E.03045
G1 X102.012 Y86.977 E.03045
G1 X102.586 Y86.269 E.02857
G1 X102.335 Y85.98 F10800
;TYPE:External perimeter
G1 F1200
G1 X102.98 Y85.237 E.03084
G1 X103.649 Y84.516 E.03084
G1 X104.341 Y83.818 E.03084
G1 X105.057 Y83.143 E.03084
G1 X105.781 Y82.503 E.03029
G1 X106.553 Y81.866 E.0314
G1 X107.332 Y81.265 E.03084
G1 X108.131 Y80.691 E.03084
G1 X108.948 Y80.144 E.03084
G1 X109.783 Y79.624 E.03085
G1 X110.635 Y79.132 E.03084
G1 X111.503 Y78.669 E.03084
G1 X112.386 Y78.235 E.03084
G1 X113.282 Y77.83 E.03084
G1 X114.192 Y77.456 E.03084
G1 X115.13 Y77.106 E.0314
G1 X116.046 Y76.798 E.03029
G1 X116.988 Y76.516 E.03084
G1 X117.939 Y76.265 E.03084
G1 X118.898 Y76.046 E.03084
G1 X119.864 Y75.86 E.03084
G1 X120.835 Y75.705 E.03084
G1 X121.811 Y75.583 E.03084
G1 X122.791 Y75.493 E.03084
G1 X123.773 Y75.436 E.03084
G1 X124.774 Y75.411 E.03139
G1 X125.74 Y75.419 E.03029
G1 X126.723 Y75.46 E.03084
G1 X127.703 Y75.534 E.03084
G1 X128.699 Y75.642 E.0314
G1 X129.655 Y75.778 E.03029
G1 X130.624 Y75.949 E.03084
G1 X131.586 Y76.152 E.03084
G1 X132.542 Y76.387 E.03084
G1 X133.489 Y76.653 E.03084
G1 X134.426 Y76.951 E.03084
G1 X135.337 Y77.274 E.03029
G1 X136.269 Y77.639 E.0314
G1 X137.172 Y78.029 E.03084
G1 X138.062 Y78.448 E.03084
G1 X138.937 Y78.897 E.03084
G1 X139.797 Y79.374 E.03084
G1 X140.626 Y79.871 E.03029
G1 X141.467 Y80.414 E.03139
G1 X142.275 Y80.975 E.03084
G1 X143.064 Y81.562 E.03084
G1 X143.833 Y82.175 E.03084
G1 X144.581 Y82.814 E.03084
G1 X145.308 Y83.477 E.03084
G1 X146.012 Y84.164 E.03084
M73 P1 R37
G1 X146.693 Y84.874 E.03085
G1 X147.35 Y85.606 E.03084
G1 X147.982 Y86.359 E.03084
G1 X148.589 Y87.134 E.03084
G1 X149.17 Y87.927 E.03084
G1 X149.724 Y88.74 E.03084
G1 X150.251 Y89.571 E.03084
G1 X150.75 Y90.418 E.03084
G1 X151.22 Y91.282 E.03084
G1 X151.662 Y92.161 E.03084
G1 X152.074 Y93.055 E.03084
G1 X152.456 Y93.961 E.03084
G1 X152.808 Y94.88 E.03084
G1 X153.123 Y95.793 E.03029
G1 X153.419 Y96.749 E.0314
G1 X153.677 Y97.698 E.03084
G1 X153.904 Y98.656 E.03084
G1 X154.099 Y99.62 E.03084
G1 X154.262 Y100.59 E.03084
G1 X154.44 Y102.05 E.04612
G1 X154.523 Y103.039 E.03111
G1 X154.572 Y104.018 E.03074
G1 X154.588 Y104.999 E.03075
G1 X154.555 Y106.475 E.0463
G1 X154.49 Y107.456 E.03084
G1 X154.392 Y108.435 E.03084
G1 X154.262 Y109.41 E.03084
G1 X154.102 Y110.363 E.03029
G1 X153.904 Y111.344 E.0314
G1 X153.677 Y112.302 E.03084
G1 X153.418 Y113.251 E.03084
G1 X153.129 Y114.191 E.03084
G1 X152.808 Y115.12 E.03084
G1 X152.456 Y116.039 E.03084
G1 X152.074 Y116.945 E.03084
G1 X151.662 Y117.839 E.03084
G1 X151.22 Y118.718 E.03084
G1 X150.75 Y119.582 E.03084
G1 X150.251 Y120.429 E.03084
G1 X149.724 Y121.26 E.03084
G1 X149.17 Y122.073 E.03084
G1 X148.589 Y122.866 E.03084
G1 X147.982 Y123.641 E.03085
G1 X147.35 Y124.394 E.03084
G1 X146.693 Y125.126 E.03084
G1 X146.024 Y125.823 E.03029
G1 X145.308 Y126.523 E.03139
G1 X144.581 Y127.186 E.03084
G1 X143.833 Y127.825 E.03084
G1 X143.064 Y128.438 E.03084
G1 X142.275 Y129.025 E.03084
G1 X141.467 Y129.586 E.03084
G1 X140.641 Y130.12 E.03084
G1 X139.797 Y130.626 E.03084
G1 X138.937 Y131.103 E.03084
G1 X138.062 Y131.552 E.03084
G1 X137.172 Y131.971 E.03084
G1 X136.252 Y132.367 E.0314
G1 X135.353 Y132.72 E.03029
G1 X134.426 Y133.049 E.03084
G1 X133.489 Y133.347 E.03084
G1 X132.542 Y133.613 E.03084
G1 X131.604 Y133.844 E.03029
G1 X130.624 Y134.051 E.03139
G1 X129.655 Y134.222 E.03084
G1 X128.681 Y134.36 E.03084
G1 X127.703 Y134.466 E.03084
G1 X126.723 Y134.54 E.03084
G1 X125.74 Y134.581 E.03084
G1 X124.756 Y134.589 E.03084
G1 X123.773 Y134.564 E.03084
G1 X122.791 Y134.507 E.03084
G1 X121.811 Y134.417 E.03084
G1 X120.818 Y134.292 E.0314
G1 X119.864 Y134.14 E.03029
G1 X118.898 Y133.954 E.03084
G1 X117.939 Y133.735 E.03084
G1 X116.971 Y133.479 E.0314
G1 X116.046 Y133.202 E.03029
M73 Q1 S37
G1 X115.113 Y132.889 E.03084
G1 X114.192 Y132.544 E.03084
G1 X113.282 Y132.17 E.03084
G1 X112.401 Y131.773 E.03029
G1 X111.503 Y131.331 E.0314
G1 X110.635 Y130.868 E.03084
G1 X109.783 Y130.376 E.03084
G1 X108.948 Y129.856 E.03084
G1 X108.131 Y129.309 E.03084
G1 X107.332 Y128.735 E.03084
G1 X106.553 Y128.134 E.03084
G1 X105.794 Y127.508 E.03084
G1 X105.057 Y126.857 E.03085
G1 X104.341 Y126.182 E.03084
G1 X103.649 Y125.484 E.03084
G1 X102.98 Y124.763 E.03084
G1 X102.335 Y124.02 E.03085
G1 X101.715 Y123.256 E.03084
G1 X101.121 Y122.472 E.03084
G1 X100.554 Y121.669 E.03084
G1 X100.013 Y120.847 E.03084
G1 X99.509 Y120.022 E.03029
G1 X99.016 Y119.151 E.03139
G1 X98.56 Y118.28 E.03084
G1 X98.133 Y117.394 E.03084
G1 X97.736 Y116.494 E.03084
G1 X97.369 Y115.581 E.03084
G1 X97.032 Y114.657 E.03084
G1 X96.727 Y113.722 E.03084
G1 X96.452 Y112.777 E.03084
G1 X96.21 Y111.824 E.03084
G1 X95.999 Y110.863 E.03084
G1 X95.82 Y109.896 E.03084
G1 X95.673 Y108.923 E.03084
G1 X95.559 Y107.946 E.03084
G1 X95.478 Y106.966 E.03085
G1 X95.428 Y105.984 E.03084
G1 X95.412 Y105 E.03084
G1 X95.428 Y104.016 E.03084
G1 X95.477 Y103.052 E.03029
G1 X95.559 Y102.054 E.03139
G1 X95.673 Y101.077 E.03084
G1 X95.82 Y100.104 E.03084
G1 X95.999 Y99.137 E.03084
G1 X96.21 Y98.176 E.03084
G1 X96.452 Y97.223 E.03084
G1 X96.727 Y96.278 E.03084
G1 X97.032 Y95.343 E.03084
G1 X97.369 Y94.419 E.03084
G1 X97.736 Y93.506 E.03084
G1 X98.133 Y92.606 E.03084
G1 X98.56 Y91.72 E.03084
G1 X99.016 Y90.848 E.03084
G1 X99.5 Y89.993 E.03084
G1 X100.013 Y89.153 E.03084
G1 X100.554 Y88.331 E.03084
G1 X101.121 Y87.528 E.03084
G1 X101.715 Y86.744 E.03084
G1 X102.297 Y86.027 E.02896
G1 X102.729 Y86.049 F10800
;WIPE_START
G1 F8640
G1 X102.98 Y85.237 E-.24098
G1 X103.649 Y84.516 E-.22711
G1 X104.341 Y83.818 E-.22715
G1 X104.545 Y83.625 E-.06476
;WIPE_END
G1 E-.04 F2100
G1 Z.6 F10800
G1 X143.258 Y82.344
G1 Z.2
G1 E.8 F2100
;TYPE:Solid infill
;WIDTH:0.421066
G1 F1200
G1 X145.562 Y84.648 E.10247
G1 X146.209 Y85.323 E.0294
G1 X146.852 Y86.038 E.03024
G1 X147.47 Y86.775 E.03024
G1 X148.063 Y87.532 E.03024
G1 X148.477 Y88.098 E.02204
G1 X141.891 Y81.511 E.29288
G1 X141.1 Y80.962 E.03026
G1 X140.275 Y80.43 E.03086
G1 X149.564 Y89.719 E.41304
G1 X150.321 Y91.012 E.04712
G1 X138.992 Y79.682 E.50381
G1 X137.862 Y79.087 E.04013
G1 X150.91 Y92.135 E.5802
G1 X151.392 Y93.151 E.03537
G1 X136.847 Y78.607 E.64674
G1 X135.914 Y78.209 E.03191
G1 X151.793 Y94.088 E.70609
G1 X152.132 Y94.962 E.02948
G1 X135.039 Y77.868 E.76009
G1 X134.211 Y77.575 E.02763
G1 X152.423 Y95.787 E.80983
G1 X152.673 Y96.572 E.02591
G1 X133.427 Y77.326 E.85581
G1 X132.676 Y77.11 E.02456
M73 P2 R37
M73 Q2 S37
G1 X152.891 Y97.325 E.8989
G1 X153.082 Y98.051 E.0236
G1 X131.953 Y76.922 E.93956
G1 X131.253 Y76.756 E.02263
G1 X153.248 Y98.752 E.97809
G1 X153.386 Y99.424 E.02158
G1 X130.575 Y76.613 E1.01434
G1 X129.923 Y76.495 E.02085
G1 X153.507 Y100.08 E1.04872
G1 X153.613 Y100.721 E.02044
G1 X129.284 Y76.392 E1.08184
G1 X128.661 Y76.303 E.0198
G1 X153.696 Y101.338 E1.11323
G1 X153.766 Y101.943 E.01916
G1 X128.059 Y76.236 E1.14313
G1 X127.466 Y76.178 E.01875
G1 X153.826 Y102.538 E1.17218
G1 X153.866 Y103.113 E.01813
G1 X126.887 Y76.134 E1.19968
G1 X126.327 Y76.108 E.01766
G1 X153.9 Y103.682 E1.22612
G1 X153.919 Y104.235 E.0174
