; generated by PrusaSlicer 2.5.2+win64 on 2023-10-11 at 08:57:14 UTC

; 

; external perimeters extrusion width = 0.45mm
; perimeters extrusion width = 0.45mm
; infill extrusion width = 0.45mm
; solid infill extrusion width = 0.45mm
; top infill extrusion width = 0.40mm
; first layer extrusion width = 0.42mm

M73 P0 R16
M73 Q0 S16
M201 X1000 Y1000 Z200 E5000 ; sets maximum accelerations, mm/sec^2
M203 X200 Y200 Z12 E120 ; sets maximum feedrates, mm / sec
M204 P1250 R1250 T1250 ; sets acceleration (P, T) and retract acceleration (R), mm/sec^2
M205 X8.00 Y8.00 Z0.40 E4.50 ; sets the jerk limits, mm/sec
M205 S0 T0 ; sets the minimum extruding and travel feed rate, mm/sec
M107
;TYPE:Custom
M862.3 P "MK3S" ; printer model check
M862.1 P0.4 ; nozzle diameter check
M115 U3.10.1 ; tell printer latest fw version
G90 ; use absolute coordinates
M83 ; extruder relative mode
M104 S215 ; set extruder temp
M140 S60 ; set bed temp
M190 S60 ; wait for bed temp
M109 S215 ; wait for extruder temp
G28 W ; home all without mesh bed level
G80 ; mesh bed leveling
G1 Y-3.0 F1000.0 ; go outside print area
G92 E0.0
G1 X60.0 E9.0 F1000.0 ; intro line
G1 X100.0 E12.5 F1000.0 ; intro line
G92 E0.0
M221 S95

; Don't change E values below. Excessive value can damage the printer.
M907 E430 ; set extruder motor current
G21 ; set units to millimeters
G90 ; use absolute coordinates
M83 ; use relative distances for extrusion
M900 K0.05 ; Filament gcode LA 1.5
M900 K30 ; Filament gcode LA 1.0
M107
;LAYER_CHANGE
;Z:0.2
;HEIGHT:0.2
;BEFORE_LAYER_CHANGE
G92 E0.0
;0.2


G1 E-.8 F2100
G1 Z.4 F10800
;AFTER_LAYER_CHANGE
;0.2
G1 X117.223 Y92.275
G1 Z.2
G1 E.8 F2100
M204 S1000
;TYPE:Skirt/Brim
;WIDTH:0.42
G1 F1200
G1 X118.699 Y90.49 E.07264
G1 X120.26 Y89.042 E.06674
G1 X121.897 Y87.99 E.06102
G1 X122.742 Y87.626 E.02886
G1 X123.545 Y87.388 E.02626
G1 X125.105 Y87.22 E.04919
G1 X126.564 Y87.414 E.04616
G1 X127.916 Y87.899 E.04503
G1 X129.248 Y88.677 E.04837
G1 X130.723 Y89.902 E.06013
G1 X132.079 Y91.379 E.06286
G1 X133.779 Y93.722 E.09075
G1 X135.314 Y96.309 E.09434
G1 X136.225 Y98.063 E.06196
G1 X137.288 Y100.321 E.07825
G1 X138.368 Y102.865 E.08664
G1 X139.554 Y105.978 E.10448
G1 X140.733 Y109.482 E.11588
G1 X141.565 Y112.304 E.09225
G1 X142.516 Y116.271 E.12794
G1 X142.822 Y118.204 E.06135
G1 X142.865 Y119.829 E.05098
G1 X142.752 Y120.485 E.02086
G1 X142.546 Y121.06 E.01915
G1 X142.115 Y121.737 E.02517
G1 X141.367 Y122.373 E.03078
G1 X140.598 Y122.691 E.02607
G1 X139.888 Y122.781 E.02246
G1 X110.121 Y122.781 E.9333
M73 Q1 S16
G1 X109.076 Y122.587 E.03333
M73 P1 R16
G1 X108.398 Y122.217 E.02424
G1 X107.9 Y121.754 E.0213
G1 X107.528 Y121.207 E.02076
G1 X107.279 Y120.594 E.02074
G1 X107.141 Y119.892 E.02243
G1 X107.115 Y119.044 E.02661
G1 X107.391 Y116.767 E.07191
G1 X108.22 Y113.104 E.11776
G1 X109.193 Y109.719 E.11041
G1 X110.614 Y105.515 E.13914
G1 X111.677 Y102.754 E.09278
G1 X112.748 Y100.241 E.08563
G1 X114.504 Y96.645 E.12549
G1 X115.967 Y94.118 E.09156
G1 X117.189 Y92.325 E.06803
G1 X117.506 Y92.558 F10800
G1 F1200
G1 X118.043 Y91.829 E.02839
G1 X119.385 Y90.324 E.06323
G1 X120.746 Y89.145 E.05645
G1 X122.154 Y88.284 E.05177
G1 X123.635 Y87.754 E.04929
G1 X125.103 Y87.597 E.04629
G1 X126.468 Y87.778 E.04319
G1 X127.844 Y88.283 E.04597
G1 X129.276 Y89.162 E.05267
G1 X130.457 Y90.169 E.04867
G1 X131.783 Y91.614 E.06148
G1 X133.467 Y93.932 E.08984
G1 X134.986 Y96.496 E.09343
G1 X135.891 Y98.237 E.06151
G1 X138.021 Y103.012 E.16395
G1 X139.202 Y106.112 E.10402
G1 X140.375 Y109.602 E.11542
G1 X141.203 Y112.41 E.0918
G1 X141.85 Y114.956 E.08236
G1 X142.436 Y118.146 E.10169
G1 X142.497 Y119.709 E.04904
G1 X142.395 Y120.36 E.02067
G1 X142.204 Y120.9 E.01794
G1 X141.825 Y121.495 E.02214
G1 X141.175 Y122.048 E.02676
G1 X140.507 Y122.325 E.02269
G1 X139.888 Y122.404 E.01956
G1 X110.121 Y122.404 E.9333
G1 X109.604 Y122.351 E.01632
G1 X108.913 Y122.098 E.02308
G1 X108.374 Y121.707 E.02087
G1 X107.942 Y121.171 E.02157
G1 X107.677 Y120.602 E.01968
G1 X107.527 Y119.943 E.02119
G1 X107.555 Y118.22 E.05404
G1 X108.021 Y115.533 E.0855
G1 X108.612 Y113.096 E.07864
G1 X109.523 Y109.93 E.10327
G1 X110.669 Y106.474 E.11418
G1 X112.06 Y102.811 E.12285
G1 X113.993 Y98.473 E.1489
G1 X115.602 Y95.449 E.10742
G1 X116.905 Y93.373 E.07683
G1 X117.47 Y92.606 E.02988
; printing object temp_slicing_11102023_105712.stl id:0 copy 0
;WIPE_START
G1 F8640
G1 X118.043 Y91.829 E-.22296
G1 X119.385 Y90.324 E-.46563
G1 X119.619 Y90.121 E-.07141
;WIPE_END
G1 E-.04 F2100
G1 Z.6 F10800
G1 X110.729 Y118.269
G1 Z.2
G1 E.8 F2100
;TYPE:Perimeter
;WIDTH:0.419999
G1 F1200
G1 X110.883 Y117.355 E.02906
G1 X111.12 Y116.172 E.03784
G1 X111.658 Y113.954 E.07154
G1 X112.559 Y110.82 E.10224
G1 X113.65 Y107.535 E.10853
G1 X113.922 Y106.779 E.02518
M73 Q2 S16
G1 X114.976 Y104.039 E.09207
G1 X115.96 Y101.732 E.07864
M73 P2 R16
G1 X116.852 Y99.829 E.0659
G1 X117.649 Y98.273 E.05481
G1 X118.358 Y97.004 E.04558
G1 X118.988 Y95.966 E.03805
G1 X119.547 Y95.114 E.03196
G1 X120.047 Y94.412 E.02703
G1 X120.491 Y93.833 E.02288
G1 X121.261 Y92.935 E.03708
G1 X121.892 Y92.303 E.028
G1 X122.42 Y91.848 E.02186
G1 X122.873 Y91.516 E.01762
G1 X123.34 Y91.232 E.01711
G1 X123.829 Y91.001 E.01697
G1 X124.413 Y90.829 E.01908
G1 X125.069 Y90.763 E.02069
G1 X125.775 Y90.876 E.02241
G1 X126.289 Y91.058 E.01712
G1 X126.785 Y91.302 E.01732
G1 X127.417 Y91.723 E.0238
G1 X127.942 Y92.152 E.02127
G1 X128.562 Y92.747 E.02693
G1 X129.314 Y93.593 E.03549
G1 X129.761 Y94.156 E.02254
G1 X130.265 Y94.844 E.02673
G1 X130.836 Y95.69 E.032
G1 X131.486 Y96.738 E.03868
G1 X132.227 Y98.045 E.04711
G1 X133.074 Y99.679 E.05771
G1 X134.035 Y101.72 E.0707
G1 X135.103 Y104.235 E.08569
G1 X136.239 Y107.222 E.1002
G1 X137.371 Y110.594 E.11153
G1 X138.163 Y113.289 E.08806
G1 X138.758 Y115.632 E.0758
G1 X139.05 Y116.995 E.04371
G1 X139.26 Y118.243 E.03966
G1 X135.673 Y112.852 E.20302
G1 X134.338 Y111.006 E.07142
G1 X133.282 Y109.664 E.05357
G1 X132.533 Y108.783 E.03624
G1 X131.871 Y108.059 E.03077
G1 X130.494 Y106.727 E.06006
G1 X129.626 Y106.016 E.03515
G1 X128.818 Y105.451 E.03093
G1 X128.138 Y105.051 E.02475
G1 X127.518 Y104.75 E.02161
G1 X126.698 Y104.447 E.0274
G1 X126.02 Y104.282 E.02188
G1 X125.043 Y104.187 E.03078
G1 X124.347 Y104.226 E.02186
G1 X123.589 Y104.367 E.02416
G1 X122.796 Y104.621 E.02611
G1 X121.928 Y105.016 E.0299
G1 X120.856 Y105.667 E.03932
G1 X120.045 Y106.273 E.03172
G1 X119.538 Y106.698 E.02075
G1 X119.006 Y107.182 E.02256
G1 X118.412 Y107.766 E.02612
G1 X117.74 Y108.479 E.0307
G1 X116.971 Y109.36 E.03668
G1 X116.077 Y110.466 E.0446
G1 X115.046 Y111.84 E.05385
G1 X113.766 Y113.669 E.07
G1 X110.762 Y118.219 E.17093
;WIPE_START
G1 F8640
G1 X110.883 Y117.355 E-.20138
G1 X111.12 Y116.172 E-.27865
G1 X111.406 Y114.993 E-.27997
;WIPE_END
G1 E-.04 F2100
G1 Z.6 F10800
G1 X110.257 Y119.494
G1 Z.2
G1 E.8 F2100
;TYPE:External perimeter
G1 F1200
G1 X110.256 Y119.321 E.0054
G1 X110.189 Y119.109 E.007
G1 X110.237 Y118.924 E.00597
G1 X110.512 Y117.286 E.05208
G1 X110.752 Y116.09 E.03826
G1 X111.293 Y113.858 E.07202
G1 X112.199 Y110.709 E.10273
G1 X113.293 Y107.412 E.10892
G1 X113.568 Y106.648 E.02546
G1 X114.627 Y103.897 E.09241
G1 X115.616 Y101.578 E.07906
G1 X116.513 Y99.663 E.06631
G1 X117.317 Y98.095 E.05523
G1 X118.032 Y96.814 E.046
G1 X118.669 Y95.765 E.03848
G1 X119.236 Y94.902 E.03239
G1 X119.743 Y94.187 E.02747
G1 X120.198 Y93.595 E.02342
G1 X120.984 Y92.679 E.03784
G1 X121.635 Y92.026 E.0289
G1 X122.053 Y91.667 E.01729
G1 X122.518 Y91.309 E.01839
G1 X122.984 Y91.007 E.01743
G1 X123.498 Y90.74 E.01815
G1 X124.148 Y90.498 E.02175
G1 X124.803 Y90.4 E.02074
G1 X125.372 Y90.417 E.01785
G1 X125.871 Y90.511 E.01594
G1 X126.432 Y90.709 E.01863
G1 X126.979 Y90.978 E.01911
G1 X127.641 Y91.419 E.02497
G1 X128.192 Y91.87 E.02232
G1 X128.831 Y92.483 E.02774
G1 X129.605 Y93.353 E.03652
G1 X130.061 Y93.927 E.023
G1 X130.573 Y94.627 E.02719
G1 X131.152 Y95.485 E.03246
G1 X131.81 Y96.546 E.03913
G1 X132.559 Y97.865 E.04757
G1 X133.412 Y99.512 E.05816
G1 X134.379 Y101.565 E.07116
G1 X135.453 Y104.094 E.08615
G1 X136.594 Y107.095 E.10066
G1 X137.73 Y110.481 E.11199
G1 X138.527 Y113.189 E.0885
G1 X139.126 Y115.546 E.07625
G1 X139.42 Y116.925 E.0442
G1 X139.644 Y118.253 E.04224
G1 X139.78 Y119.169 E.02905
G1 X139.74 Y119.491 E.01016
G1 X139.355 Y119.122 E.01671
G1 X138.974 Y118.494 E.02303
G1 X135.359 Y113.061 E.20461
G1 X134.032 Y111.227 E.07096
G1 X132.994 Y109.908 E.05264
G1 X132.254 Y109.038 E.03582
G1 X131.602 Y108.323 E.03034
G1 X130.255 Y107.018 E.05878
G1 X129.388 Y106.308 E.03515
G1 X128.626 Y105.776 E.02913
G1 X127.972 Y105.39 E.02383
G1 X127.385 Y105.103 E.02047
G1 X126.609 Y104.813 E.02598
G1 X125.931 Y104.648 E.02188
G1 X125.062 Y104.563 E.02738
G1 X124.414 Y104.597 E.02034
G1 X123.702 Y104.727 E.02268
G1 X122.951 Y104.965 E.0247
G1 X122.116 Y105.343 E.02875
G1 X121.08 Y105.97 E.03797
G1 X120.271 Y106.575 E.03167
G1 X119.792 Y106.977 E.01962
M73 Q3 S16
G1 X119.27 Y107.451 E.0221
G1 X118.686 Y108.025 E.02567
G1 X118.024 Y108.727 E.03025
G1 X117.264 Y109.597 E.03623
G1 X116.378 Y110.692 E.04417
G1 X115.347 Y112.066 E.05385
G1 X114.081 Y113.877 E.06928
M73 P3 R16
G1 X110.688 Y119.015 E.19305
G1 X110.601 Y119.185 E.00598
G1 X110.503 Y119.292 E.00455
G1 X110.304 Y119.456 E.0081
G1 X110.304 Y119.328 F10800
;WIPE_START
G1 F8640
G1 X110.256 Y119.321 E-.03291
G1 X110.189 Y119.109 E-.05153
G1 X110.237 Y118.924 E-.04395
G1 X110.512 Y117.286 E-.38352
G1 X110.723 Y116.233 E-.24809
;WIPE_END
G1 E-.04 F2100
G1 Z.6 F10800
G1 X129.761 Y94.347
G1 Z.2
G1 E.8 F2100
;TYPE:Solid infill
;WIDTH:0.420352
G1 F1200
G1 X127.754 Y92.364 E.08853
G1 X127.249 Y91.95 E.0205
G1 X126.64 Y91.545 E.02295
G1 X126.213 Y91.332 E.01498
G1 X130.338 Y95.458 E.18309
G1 X130.598 Y95.844 E.0146
G1 X131.26 Y96.913 E.03947
G1 X125.434 Y91.088 E.25854
G1 X125.062 Y91.046 E.01177
G1 X124.87 Y91.057 E.00602
G1 X131.961 Y98.148 E.31471
G1 X132.538 Y99.259 E.0393
G1 X124.399 Y91.12 E.36124
G1 X123.991 Y91.246 E.01341
G1 X133.062 Y100.317 E.4026
G1 X133.536 Y101.325 E.03497
G1 X123.623 Y91.411 E.44
G1 X123.278 Y91.6 E.01234
G1 X133.971 Y102.294 E.47459
G1 X134.365 Y103.221 E.03164
G1 X122.952 Y91.809 E.50654
G1 X122.645 Y92.034 E.01198
G1 X134.759 Y104.149 E.53769
G1 X135.1 Y105.024 E.02947
G1 X122.354 Y92.278 E.56571
G1 X122.069 Y92.526 E.01187
G1 X135.428 Y105.885 E.59292
G1 X135.755 Y106.746 E.02891
G1 X121.802 Y92.793 E.61929
G1 X121.535 Y93.06 E.01185
M73 P4 R16
M73 Q4 S16
G1 X136.063 Y107.588 E.64479
G1 X136.333 Y108.392 E.0266
G1 X121.284 Y93.343 E.66792
G1 X121.037 Y93.63 E.01188
G1 X136.603 Y109.195 E.69083
G1 X136.872 Y109.999 E.0266
G1 X120.791 Y93.917 E.71374
G1 X120.554 Y94.215 E.01192
G1 X137.135 Y110.795 E.73589
G1 X137.357 Y111.551 E.02474
G1 X120.323 Y94.517 E.75605
G1 X120.099 Y94.827 E.012
M73 P4 R15
G1 X137.58 Y112.307 E.77586
G1 X137.802 Y113.064 E.02474
M73 Q4 S15
G1 X119.877 Y95.139 E.79557
G1 X119.661 Y95.456 E.01206
G1 X138 Y113.795 E.81394
M73 Q5 S15
G1 X138.182 Y114.511 E.02317
M73 P5 R15
G1 X134.712 Y111.041 E.15399
G1 X136.059 Y112.922 E.07259
G1 X138.364 Y115.226 E.10228
G1 X138.533 Y115.929 E.02269
G1 X137.12 Y114.517 E.06268
G1 X138.182 Y116.112 E.06013
G1 X138.899 Y116.829 E.03181
;WIPE_START
G1 F8640
G1 X138.182 Y116.112 E-.23402
G1 X137.12 Y114.517 E-.44242
G1 X137.376 Y114.773 E-.08356
;WIPE_END
G1 E-.04 F2100
G1 Z.6 F10800
G1 X129.369 Y105.698
G1 Z.2
G1 E.8 F2100
G1 F1200
G1 X119.449 Y95.778 E.44024
G1 X119.238 Y96.1 E.0121
G1 X127.627 Y104.489 E.37232
G1 X126.781 Y104.177 E.0283
G1 X119.036 Y96.432 E.34375
G1 X118.834 Y96.764 E.0122
G1 X126.082 Y104.013 E.32169
G1 X125.477 Y103.941 E.01912
G1 X118.633 Y97.097 E.30378
G1 X118.44 Y97.438 E.01229
G1 X124.913 Y103.911 E.28731
G1 X124.407 Y103.938 E.01592
G1 X118.249 Y97.78 E.27332
G1 X118.057 Y98.123 E.01231
G1 X123.948 Y104.014 E.26145
G1 X123.5 Y104.099 E.01432
G1 X117.868 Y98.467 E.24997
G1 X117.687 Y98.82 E.01244
G1 X123.096 Y104.229 E.24007
G1 X122.692 Y104.359 E.01332
G1 X117.506 Y99.173 E.23017
G1 X117.325 Y99.526 E.01244
G1 X122.324 Y104.524 E.22185
G1 X121.956 Y104.69 E.01266
G1 X117.144 Y99.878 E.21357
G1 X116.972 Y100.24 E.01256
G1 X121.608 Y104.876 E.20578
G1 X121.269 Y105.07 E.01227
G1 X116.801 Y100.603 E.19827
G1 X116.631 Y100.967 E.0126
G1 X120.939 Y105.275 E.19121
G1 X120.621 Y105.49 E.01206
M73 Q6 S15
G1 X116.461 Y101.33 E.18465
G1 X116.29 Y101.693 E.0126
M73 P6 R15
G1 X120.316 Y105.719 E.17866
G1 X120.01 Y105.947 E.01197
G1 X116.126 Y102.063 E.17239
G1 X115.967 Y102.437 E.01277
G1 X119.712 Y106.183 E.16623
G1 X119.422 Y106.426 E.01189
G1 X115.807 Y102.811 E.16044
G1 X115.648 Y103.186 E.01277
G1 X119.14 Y106.678 E.155
G1 X118.861 Y106.932 E.01186
G1 X115.488 Y103.56 E.14968
G1 X115.328 Y103.934 E.01277
G1 X118.589 Y107.195 E.14473
G1 X118.32 Y107.46 E.01185
G1 X115.174 Y104.313 E.13965
G1 X115.025 Y104.699 E.01296
G1 X118.057 Y107.73 E.13455
G1 X117.798 Y108.005 E.01185
G1 X114.877 Y105.084 E.12964
G1 X114.729 Y105.469 E.01296
G1 X117.539 Y108.28 E.12473
G1 X117.29 Y108.564 E.01187
G1 X114.58 Y105.855 E.12026
G1 X114.432 Y106.24 E.01296
G1 X117.041 Y108.85 E.1158
G1 X116.793 Y109.135 E.01187
G1 X114.284 Y106.626 E.11135
G1 X114.138 Y107.014 E.01301
G1 X116.552 Y109.428 E.10716
G1 X116.314 Y109.723 E.01191
G1 X113.997 Y107.406 E.10283
G1 X113.859 Y107.802 E.01316
G1 X116.075 Y110.018 E.09835
G1 X115.837 Y110.314 E.01191
G1 X113.726 Y108.203 E.09369
G1 X113.593 Y108.604 E.01325
G1 X115.608 Y110.619 E.08944
G1 X115.379 Y110.924 E.01197
G1 X113.46 Y109.005 E.08519
G1 X113.327 Y109.405 E.01325
G1 X115.151 Y111.229 E.08094
G1 X114.922 Y111.534 E.01197
G1 X113.194 Y109.806 E.07669
G1 X113.061 Y110.207 E.01325
G1 X114.697 Y111.843 E.07264
G1 X114.478 Y112.158 E.01203
G1 X112.928 Y110.607 E.0688
G1 X112.798 Y111.012 E.01332
G1 X114.258 Y112.472 E.0648
G1 X114.039 Y112.786 E.01203
G1 X112.679 Y111.426 E.06034
G1 X112.56 Y111.841 E.01354
G1 X113.819 Y113.1 E.05588
G1 X113.599 Y113.414 E.01203
G1 X112.441 Y112.255 E.05143
G1 X112.321 Y112.67 E.01354
G1 X113.385 Y113.734 E.04721
G1 X113.173 Y114.055 E.01209
G1 X112.202 Y113.085 E.04308
G1 X112.083 Y113.499 E.01354
G1 X112.961 Y114.377 E.03895
G1 X112.748 Y114.698 E.01209
G1 X111.964 Y113.914 E.03482
G1 X111.856 Y114.339 E.01378
G1 X112.536 Y115.02 E.0302
G1 X112.324 Y115.341 E.01209
G1 X111.751 Y114.769 E.0254
G1 X111.647 Y115.198 E.01387
G1 X112.111 Y115.663 E.0206
G1 X111.899 Y115.984 E.01209
G1 X111.543 Y115.628 E.0158
G1 X111.439 Y116.058 E.01387
G1 X111.687 Y116.306 E.011
G1 X111.474 Y116.627 E.01209
G1 X111.2 Y116.352 E.0122
; stop printing object temp_slicing_11102023_105712.stl id:0 copy 0
M106 S84.15
;LAYER_CHANGE
;Z:0.4
;HEIGHT:0.2
;BEFORE_LAYER_CHANGE
G92 E0.0
;0.4


;WIPE_START
G1 F8640
G1 X111.474 Y116.627 E-.08974
G1 X111.687 Y116.306 E-.08895
G1 X111.439 Y116.058 E-.08091
G1 X111.543 Y115.628 E-.10208
G1 X111.899 Y115.984 E-.11623
G1 X112.111 Y115.663 E-.08895
G1 X111.647 Y115.198 E-.15155
G1 X111.69 Y115.023 E-.04159
;WIPE_END
G1 E-.04 F2100
G1 Z.6 F10800
;AFTER_LAYER_CHANGE
;0.4
G1 X107.976 Y114.182
G1 Z.4
G1 E.8 F2100
;TYPE:Skirt/Brim
;WIDTH:0.42
G1 F3000
G1 X108.22 Y113.104 E.03467
G1 X109.193 Y109.719 E.11041
G1 X110.614 Y105.515 E.13914
G1 X111.677 Y102.754 E.09278
G1 X112.748 Y100.241 E.08563
G1 X114.504 Y96.645 E.12549
G1 X115.967 Y94.118 E.09156
G1 X117.223 Y92.275 E.06991
G1 X118.699 Y90.49 E.07264
G1 X120.26 Y89.042 E.06674
G1 X121.897 Y87.99 E.06102
G1 X122.742 Y87.626 E.02886
G1 X123.545 Y87.388 E.02626
G1 X125.105 Y87.22 E.04919
G1 X126.564 Y87.414 E.04616
G1 X127.916 Y87.899 E.04503
G1 X129.248 Y88.677 E.04837
G1 X130.723 Y89.902 E.06013
G1 X132.079 Y91.379 E.06286
G1 X133.779 Y93.722 E.09075
G1 X135.314 Y96.309 E.09434
G1 X136.225 Y98.063 E.06196
G1 X137.288 Y100.321 E.07825
G1 X138.368 Y102.865 E.08664
G1 X139.554 Y105.978 E.10448
G1 X140.733 Y109.482 E.11588
G1 X141.565 Y112.304 E.09225
G1 X142.516 Y116.271 E.12794
G1 X142.822 Y118.204 E.06135
G1 X142.865 Y119.829 E.05098
G1 X142.752 Y120.485 E.02086
G1 X142.546 Y121.06 E.01915
G1 X142.115 Y121.737 E.02517
G1 X141.367 Y122.373 E.03078
