; generated by PrusaSlicer 2.5.2+win64 on 2023-10-24 at 11:20:46 UTC

; 

; external perimeters extrusion width = 0.45mm
; perimeters extrusion width = 0.45mm
; infill extrusion width = 0.45mm
; solid infill extrusion width = 0.45mm
; top infill extrusion width = 0.40mm
; first layer extrusion width = 0.42mm

M73 P0 R48
M73 Q0 S48
M201 X1000 Y1000 Z200 E5000 ; sets maximum accelerations, mm/sec^2
M203 X200 Y200 Z12 E120 ; sets maximum feedrates, mm / sec
M204 S1250 T1250 ; sets acceleration (S) and retract acceleration (R), mm/sec^2
M205 X8.00 Y8.00 Z0.40 E4.50 ; sets the jerk limits, mm/sec
M205 S0 T0 ; sets the minimum extruding and travel feed rate, mm/sec
;TYPE:Custom
M862.3 P "MK3" ; printer model check
M862.1 P0.4 ; nozzle diameter check
M115 U3.13.0 ; tell printer latest fw version
G90 ; use absolute coordinates
M83 ; extruder relative mode
M104 S215 ; set extruder temp
M140 S60 ; set bed temp
M190 S60 ; wait for bed temp
M109 S215 ; wait for extruder temp
G28 W ; home all without mesh bed level
G80 ; mesh bed leveling

G1 Z0.2 F720
G1 Y-3 F1000 ; go outside print area
G92 E0
G1 X60 E9 F1000 ; intro line
G1 X100 E12.5 F1000 ; intro line

G92 E0
M221 S95

; Don't change E values below. Excessive value can damage the printer.
M907 E430 ; set extruder motor current
G21 ; set units to millimeters
G90 ; use absolute coordinates
M83 ; use relative distances for extrusion
M900 K0.05 ; Filament gcode LA 1.5
M900 K30 ; Filament gcode LA 1.0
M107
;LAYER_CHANGE
;Z:0.2
;HEIGHT:0.2
;BEFORE_LAYER_CHANGE
G92 E0.0
;0.2


G1 E-.8 F2100
G1 Z.4 F720
;AFTER_LAYER_CHANGE
;0.2
G1 X99.181 Y85.573
G1 Z.2
G1 E.8 F2100
M204 S800
;TYPE:Skirt/Brim
;WIDTH:0.42
G1 F1200
G1 X110.355 Y76.199 E.45731
G1 X110.843 Y75.883 E.01822
G1 X111.779 Y75.445 E.0324
G1 X114.094 Y74.516 E.07821
G1 X116.327 Y73.806 E.07349
G1 X117.709 Y73.523 E.04422
G1 X132.294 Y73.525 E.45731
G1 X132.871 Y73.596 E.01822
G1 X133.87 Y73.863 E.0324
G1 X136.24 Y74.638 E.07821
G1 X138.408 Y75.531 E.0735
G1 X139.648 Y76.202 E.04422
G1 X150.82 Y85.579 E.45732
G1 X151.216 Y86.004 E.01822
G1 X151.901 Y86.987 E.03756
G1 X153.596 Y89.821 E.10352
G1 X154.527 Y91.722 E.06639
G1 X154.732 Y92.357 E.02092
G1 X157.263 Y106.721 E.45732
G1 X157.211 Y108.252 E.04801
G1 X156.884 Y110.607 E.07454
G1 X156.349 Y113.09 E.07966
G1 X155.903 Y114.428 E.04423
G1 X148.608 Y127.058 E.45731
G1 X148.258 Y127.522 E.01822
G1 X147.029 Y128.725 E.05392
G1 X144.512 Y130.836 E.10298
G1 X143.11 Y131.837 E.05401
G1 X142.612 Y132.088 E.01749
G1 X128.906 Y137.073 E.45731
G1 X128.045 Y137.234 E.02745
G1 X125.737 Y137.368 E.07248
G1 X123.829 Y137.356 E.05982
G1 X121.623 Y137.201 E.06935
G1 X121.08 Y137.072 E.01749
G1 X107.376 Y132.082 E.4573
G1 X106.613 Y131.651 E.02745
G1 X104.759 Y130.271 E.07248
G1 X103.306 Y129.035 E.05982
G1 X101.716 Y127.498 E.06934
G1 X101.382 Y127.051 E.01749
G1 X94.092 Y114.419 E.4573
G1 X93.865 Y113.884 E.01822
G1 X93.597 Y112.886 E.03239
G1 X93.083 Y110.446 E.0782
G1 X92.772 Y108.123 E.07349
G1 X92.733 Y106.713 E.04423
G1 X95.268 Y92.35 E.4573
G1 X95.438 Y91.794 E.01822
G1 X95.874 Y90.857 E.03239
G1 X97.05 Y88.657 E.07821
G1 X98.304 Y86.678 E.07349
G1 X99.144 Y85.62 E.04234
; printing object temp_slicing_24102023_132044.stl id:0 copy 0
;WIPE_START
G1 F8640
G1 X101.664 Y83.502 E-.76
;WIPE_END
G1 E-.04 F2100
G1 Z.6 F10800
G1 X125.392 Y134.327
G1 Z.2
G1 E.8 F2100
M204 S800
;TYPE:Perimeter
;WIDTH:0.567898
G1 F1200
G1 X124.563 Y134.33 E.03619
G1 X124.968 Y133.582 E.03714
G1 X125.281 Y134.028 E.02376
G1 X125.371 Y134.271 E.01134
G1 X126.034 Y134.765 F10800
;TYPE:External perimeter
;WIDTH:0.419999
G1 F1200
G1 X124.885 Y134.789 E.03603
G1 X123.938 Y134.765 E.02972
G1 X124.108 Y134.223 E.01781
G1 X124.709 Y133.114 E.03956
G1 X125.115 Y133.016 E.01309
G1 X125.705 Y133.871 E.03258
G1 X126.013 Y134.709 E.02798
G1 X125.658 Y134.629 F10800
;WIPE_START
G1 F8640
G1 X124.885 Y134.789 E-.26114
G1 X123.938 Y134.765 E-.21885
G1 X124.108 Y134.223 E-.13117
G1 X124.415 Y133.657 E-.14884
;WIPE_END
G1 E-.04 F2100
G1 Z.6 F10800
G1 X143.517 Y127.748
G1 Z.2
G1 E.8 F2100
;TYPE:Perimeter
;WIDTH:0.568125
G1 F1200
G1 X143.347 Y126.914 E.03717
G1 X143.751 Y127.015 E.01819
G1 X144.151 Y127.213 E.01948
G1 X143.563 Y127.71 E.03359
G1 X143.318 Y128.484 F10800
;TYPE:External perimeter
;WIDTH:0.419999
G1 F1200
G1 X143.1 Y127.959 E.01782
G1 X142.847 Y126.722 E.03957
G1 X143.095 Y126.386 E.01309
G1 X144.015 Y126.616 E.02973
G1 X144.924 Y127.136 E.03283
G1 X144.059 Y127.893 E.03604
G1 X143.365 Y128.446 E.02784
G1 X143.329 Y128.084 F10800
;WIPE_START
G1 F8640
G1 X143.1 Y127.959 E-.12814
G1 X142.847 Y126.722 E-.29139
G1 X143.095 Y126.386 E-.09637
M73 P0 R47
G1 X144.015 Y126.616 E-.21896
G1 X144.11 Y126.67 E-.02514
;WIPE_END
G1 E-.04 F2100
G1 Z.6 F10800
G1 X105.813 Y127.189
G1 Z.2
G1 E.8 F2100
;TYPE:Perimeter
;WIDTH:0.56774
G1 F1200
G1 X106.604 Y126.877 E.03712
G1 X106.575 Y127.292 E.01816
G1 X106.449 Y127.72 E.01945
G1 X105.858 Y127.228 E.03355
G1 X105.054 Y127.12 F10800
;TYPE:External perimeter
;WIDTH:0.419999
G1 F1200
G1 X105.532 Y126.815 E.0178
G1 X106.706 Y126.352 E.03955
G1 X107.08 Y126.537 E.01309
G1 X107.013 Y127.483 E.02973
G1 X106.66 Y128.467 E.03279
G1 X105.764 Y127.748 E.03603
G1 X105.099 Y127.16 E.02783
G1 X105.45 Y127.062 F10800
;WIPE_START
G1 F8640
G1 X105.532 Y126.815 E-.12799
G1 X106.706 Y126.352 E-.29127
G1 X107.08 Y126.537 E-.09637
G1 X107.013 Y127.483 E-.21897
G1 X106.976 Y127.587 E-.0254
;WIPE_END
G1 E-.04 F2100
G1 Z.6 F10800
G1 X153.954 Y109.704
G1 Z.2
G1 E.8 F2100
;TYPE:Perimeter
;WIDTH:0.568837
G1 F1200
G1 X153.806 Y110.522 E.03633
G1 X153.14 Y109.993 E.0372
G1 X153.515 Y109.81 E.01824
G1 X153.895 Y109.718 E.0171
G1 X154.495 Y109.148 F10800
;TYPE:External perimeter
;WIDTH:0.419999
G1 F1200
G1 X154.315 Y110.283 E.03605
G1 X154.127 Y111.214 E.02977
G1 X153.622 Y110.952 E.01784
G1 X152.634 Y110.167 E.03957
G1 X152.607 Y109.75 E.01309
G1 X153.46 Y109.335 E.02973
G1 X154.436 Y109.158 E.03109
G1 X154.294 Y109.494 F10800
;WIPE_START
G1 F8640
G1 X154.315 Y110.283 E-.26126
G1 X154.127 Y111.214 E-.21922
G1 X153.622 Y110.952 E-.13135
G1 X153.119 Y110.553 E-.14817
;WIPE_END
G1 E-.04 F2100
G1 Z.6 F10800
G1 X96.846 Y109.935
G1 Z.2
G1 E.8 F2100
;TYPE:Perimeter
;WIDTH:0.567737
G1 F1200
G1 X96.557 Y110.235 E.01816
G1 X96.185 Y110.482 E.01945
G1 X96.039 Y109.666 E.03617
G1 X96.789 Y109.916 E.0345
G1 X97.328 Y109.751 F10800
;TYPE:External perimeter
;WIDTH:0.419999
G1 F1200
G1 X97.428 Y109.981 E.00787
G1 X96.77 Y110.663 E.02973
G1 X95.866 Y111.19 E.03279
G1 X95.643 Y110.063 E.03603
G1 X95.502 Y109.126 E.02971
G1 X96.065 Y109.199 E.0178
G1 X97.261 Y109.599 E.03955
G1 X97.304 Y109.696 E.00334
G1 X97.233 Y109.984 F10800
;WIPE_START
G1 F8640
G1 X97.428 Y109.981 E-.07178
G1 X96.77 Y110.663 E-.21897
G1 X95.866 Y111.19 E-.24145
G1 X95.674 Y110.222 E-.22781
;WIPE_END
G1 E-.04 F2100
G1 Z.6 F10800
G1 X149.765 Y90.735
G1 Z.2
M73 Q0 S47
G1 E.8 F2100
;TYPE:Perimeter
;WIDTH:0.568907
G1 F1200
G1 X149.935 Y90.354 E.01824
G1 X150.203 Y89.991 E.01973
G1 X150.615 Y90.712 E.03634
G1 X149.825 Y90.733 E.03459
G1 X149.201 Y90.892 F10800
;TYPE:External perimeter
;WIDTH:0.419999
G1 F1200
G1 X149.586 Y90.026 E.02973
G1 X150.259 Y89.217 E.03298
G1 X150.857 Y90.213 E.03642
G1 X151.306 Y91.036 E.02941
G1 X150.75 Y91.16 E.01784
G1 X149.488 Y91.194 E.03958
G1 X149.242 Y90.935 E.01121
G1 X149.504 Y90.631 F10800
;WIPE_START
G1 F8640
G1 X149.586 Y90.026 E-.22461
G1 X150.259 Y89.217 E-.24289
G1 X150.857 Y90.213 E-.2682
G1 X150.908 Y90.305 E-.0243
;WIPE_END
G1 E-.04 F2100
G1 Z.6 F10800
G1 X100.26 Y90.685
G1 Z.2
G1 E.8 F2100
;TYPE:Perimeter
;WIDTH:0.567882
G1 F1200
G1 X99.846 Y90.729 E.01817
G1 X99.403 Y90.679 E.01946
G1 X99.815 Y89.96 E.03619
G1 X100.229 Y90.634 E.03452
G1 X100.748 Y90.854 F10800
;TYPE:External perimeter
;WIDTH:0.419999
G1 F1200
G1 X100.677 Y91.095 E.00787
G1 X99.734 Y91.194 E.02973
G1 X98.703 Y91.017 E.0328
G1 X99.256 Y90.009 E.03604
G1 X99.751 Y89.201 E.02971
G1 X100.135 Y89.619 E.01781
G1 X100.795 Y90.695 E.03956
G1 X100.765 Y90.797 E.00334
G1 X100.526 Y90.972 F10800
;WIPE_START
G1 F8640
G1 X100.677 Y91.095 E-.07178
G1 X99.734 Y91.194 E-.21897
G1 X98.703 Y91.017 E-.24155
G1 X99.178 Y90.152 E-.22771
;WIPE_END
G1 E-.04 F2100
G1 Z.6 F10800
G1 X114.596 Y77.578
G1 Z.2
G1 E.8 F2100
;TYPE:Perimeter
;WIDTH:0.568114
G1 F1200
G1 X115.375 Y77.292 E.03621
G1 X115.249 Y78.133 E.03717
G1 X114.904 Y77.9 E.01819
G1 X114.638 Y77.621 E.01686
G1 X113.843 Y77.386 F10800
;TYPE:External perimeter
;WIDTH:0.419999
G1 F1200
G1 X114.915 Y76.97 E.03605
G1 X115.813 Y76.668 E.02972
G1 X115.839 Y77.236 E.01782
G1 X115.653 Y78.485 E.03957
G1 X115.306 Y78.716 E.01309
G1 X114.519 Y78.185 E.02973
G1 X113.882 Y77.432 E.03094
G1 X114.243 Y77.386 F10800
;WIPE_START
G1 F8640
G1 X114.915 Y76.97 E-.26127
G1 X115.813 Y76.668 E-.21884
G1 X115.839 Y77.236 E-.13127
G1 X115.744 Y77.873 E-.14863
;WIPE_END
G1 E-.04 F2100
G1 Z.6 F10800
G1 X134.657 Y77.301
G1 Z.2
G1 E.8 F2100
;TYPE:Perimeter
;WIDTH:0.568824
M73 Q1 S47
G1 F1200
G1 X135.437 Y77.589 E.03633
G1 X134.8 Y78.153 E.0372
G1 X134.685 Y77.752 E.01824
G1 X134.661 Y77.361 E.0171
G1 X134.203 Y76.672 F10800
;TYPE:External perimeter
;WIDTH:0.419999
G1 F1200
G1 X135.291 Y77.046 E.03606
G1 X136.174 Y77.393 E.02976
G1 X135.829 Y77.845 E.01784
G1 X134.884 Y78.682 E.03957
G1 X134.469 Y78.635 E.01309
G1 X134.208 Y77.724 E.02973
G1 X134.204 Y76.732 E.03109
G1 X134.509 Y76.93 F10800
; stop printing object temp_slicing_24102023_132044.stl id:0 copy 0
M106 S84.15
;LAYER_CHANGE
;Z:0.35
;HEIGHT:0.15
;BEFORE_LAYER_CHANGE
G92 E0.0
;0.35


;WIPE_START
G1 F8640
G1 X135.291 Y77.046 E-.26133
G1 X136.174 Y77.393 E-.21915
G1 X135.829 Y77.845 E-.13135
G1 X135.348 Y78.27 E-.14817
;WIPE_END
G1 Z.6 F720
;AFTER_LAYER_CHANGE
;0.4
G1 X136.756 Y74.851
G1 Z.4
G1 E.8 F2100
;TYPE:Skirt/Brim
;WIDTH:0.42
G1 F3000
G1 X138.408 Y75.531 E.05601
G1 X139.648 Y76.202 E.04422
G1 X150.82 Y85.579 E.45732
M73 P1 R47
G1 X151.216 Y86.004 E.01822
G1 X151.901 Y86.987 E.03756
G1 X153.596 Y89.821 E.10352
G1 X154.527 Y91.722 E.06639
G1 X154.732 Y92.357 E.02092
G1 X157.263 Y106.721 E.45732
G1 X157.211 Y108.252 E.04801
G1 X156.884 Y110.607 E.07454
G1 X156.349 Y113.09 E.07966
G1 X155.903 Y114.428 E.04423
G1 X148.608 Y127.058 E.45731
G1 X148.258 Y127.522 E.01822
G1 X147.029 Y128.725 E.05392
G1 X144.512 Y130.836 E.10298
G1 X143.11 Y131.837 E.05401
G1 X142.612 Y132.088 E.01749
G1 X128.906 Y137.073 E.45731
G1 X128.045 Y137.234 E.02745
G1 X125.737 Y137.368 E.07248
G1 X123.829 Y137.356 E.05982
G1 X121.623 Y137.201 E.06935
G1 X121.08 Y137.072 E.01749
G1 X107.376 Y132.082 E.4573
G1 X106.613 Y131.651 E.02745
G1 X104.759 Y130.271 E.07248
G1 X103.306 Y129.035 E.05982
G1 X101.716 Y127.498 E.06934
G1 X101.382 Y127.051 E.01749
G1 X94.092 Y114.419 E.4573
G1 X93.865 Y113.884 E.01822
G1 X93.597 Y112.886 E.03239
G1 X93.083 Y110.446 E.0782
G1 X92.772 Y108.123 E.07349
G1 X92.733 Y106.713 E.04423
G1 X95.268 Y92.35 E.4573
G1 X95.438 Y91.794 E.01822
G1 X95.874 Y90.857 E.03239
G1 X97.05 Y88.657 E.07821
G1 X98.304 Y86.678 E.07349
G1 X99.181 Y85.573 E.04422
G1 X110.355 Y76.199 E.45731
G1 X110.843 Y75.883 E.01822
G1 X111.779 Y75.445 E.0324
G1 X114.094 Y74.516 E.07821
G1 X116.327 Y73.806 E.07349
G1 X117.709 Y73.523 E.04422
G1 X132.294 Y73.525 E.45731
G1 X132.871 Y73.596 E.01822
G1 X133.87 Y73.863 E.0324
G1 X136.24 Y74.638 E.07821
G1 X136.7 Y74.828 E.01561
; printing object temp_slicing_24102023_132044.stl id:0 copy 0
;WIPE_START
G1 F8640
G1 X138.408 Y75.531 E-.42634
G1 X139.648 Y76.202 E-.32566
G1 X139.675 Y76.224 E-.008
;WIPE_END
G1 E-.04 F2100
G1 Z.8 F10800
G1 X106.011 Y127.404
G1 Z.4
G1 E.8 F2100
M204 S800
;TYPE:Perimeter
;WIDTH:0.449999
G1 F1500
G1 X104.927 Y126.437 E.04919
G1 X106.923 Y124.97 E.08386
G1 X108.78 Y123.786 E.07453
G1 X109.436 Y123.525 E.02392
G1 X109.415 Y123.822 E.01009
G1 X108.815 Y125.466 E.05923
G1 X107.377 Y128.486 E.11324
G1 X106.058 Y127.442 E.05695
M204 S1000
G1 X105.748 Y127.715 F10800
M204 S800
;TYPE:External perimeter
G1 F1500
G1 X104.71 Y126.793 E.04699
G1 X104.295 Y126.395 E.01946
G1 X106.693 Y124.634 E.10072
G1 X108.593 Y123.422 E.07629
G1 X109.604 Y123.019 E.03685
G1 X109.87 Y123.151 E.01005
G1 X109.817 Y123.908 E.02567
G1 X109.191 Y125.623 E.06181
G1 X107.819 Y128.519 E.10849
G1 X107.517 Y129.097 E.02206
G1 X106.846 Y128.599 E.02826
G1 X105.795 Y127.752 E.04569
M204 S1000
G1 X105.82 Y127.321 F10800
;WIPE_START
G1 F8640
G1 X104.71 Y126.793 E-.3344
G1 X104.295 Y126.395 E-.13274
G1 X105.317 Y125.645 E-.29286
;WIPE_END
G1 E-.04 F2100
G1 Z.8 F10800
G1 X109.107 Y124.305
G1 Z.4
G1 E.8 F2100
;TYPE:Bridge infill
;WIDTH:0.408289
;HEIGHT:0.389872
G1 F1800
G1 X108.725 Y124.203 E.02152
G1 X108.201 Y124.537 E.03382
G1 X108.758 Y124.686 E.03134
G1 X108.6 Y125.118 E.02504
G1 X107.678 Y124.871 E.05197
G1 X107.154 Y125.205 E.03382
G1 X108.422 Y125.545 E.07146
G1 X108.222 Y125.966 E.02536
G1 X106.676 Y125.551 E.08716
G1 X106.202 Y125.899 E.03197
G1 X108.023 Y126.387 E.1026
G1 X107.823 Y126.808 E.02536
G1 X105.729 Y126.247 E.11803
G1 X105.435 Y126.462 E.01984
G1 X105.726 Y126.72 E.02114
G1 X107.624 Y127.229 E.10698
G1 X107.425 Y127.65 E.02536
G1 X106.064 Y127.285 E.07667
;WIPE_START
G1 F8640
G1 X107.425 Y127.65 E-.32523
G1 X107.624 Y127.229 E-.10757
G1 X106.255 Y126.862 E-.3272
;WIPE_END
G1 E-.04 F2100
G1 Z.8 F10800
G1 X124.854 Y134.367
G1 Z.4
G1 E.8 F2100
M204 S800
;TYPE:Perimeter
;WIDTH:0.449999
;HEIGHT:0.2
G1 F1500
G1 X123.401 Y134.323 E.0492
G1 X123.988 Y131.916 E.08387
G1 X124.649 Y129.816 E.07453
G1 X124.984 Y129.194 E.02392
G1 X125.159 Y129.435 E.01009
G1 X125.756 Y131.079 E.05923
G1 X126.595 Y134.319 E.11326
G1 X124.914 Y134.366 E.05695
M204 S1000
G1 X124.852 Y134.774 F10800
M204 S800
;TYPE:External perimeter
G1 F1500
G1 X123.464 Y134.736 E.04699
G1 X122.89 Y134.698 E.01947
G1 X123.596 Y131.807 E.10073
G1 X124.272 Y129.657 E.07629
G1 X124.788 Y128.698 E.03685
G1 X125.076 Y128.628 E.01005
G1 X125.522 Y129.242 E.02567
G1 X126.145 Y130.958 E.06181
G1 X126.955 Y134.059 E.10849
G1 X127.095 Y134.696 E.02207
G1 X126.262 Y134.746 E.02826
G1 X124.912 Y134.773 E.04569
M204 S1000
G1 X124.654 Y134.427 F10800
;WIPE_START
G1 F8640
G1 X123.464 Y134.736 E-.3344
G1 X122.89 Y134.698 E-.1328
G1 X123.191 Y133.466 E-.2928
;WIPE_END
G1 E-.04 F2100
G1 Z.8 F10800
G1 X124.732 Y129.963
G1 Z.4
G1 E.8 F2100
;TYPE:Bridge infill
;WIDTH:0.402173
;HEIGHT:0.389872
G1 F1800
G1 X125.081 Y130.165 E.02128
G1 X125.321 Y130.825 E.03711
G1 X124.769 Y130.506 E.03368
G1 X124.63 Y130.948 E.02446
G1 X125.524 Y131.464 E.05451
G1 X125.684 Y132.079 E.03357
G1 X124.491 Y131.39 E.0728
G1 X124.352 Y131.832 E.02446
G1 X125.845 Y132.694 E.09108
G1 X126.006 Y133.309 E.03357
G1 X124.229 Y132.283 E.10834
G1 X124.118 Y132.741 E.02488
G1 X126.167 Y133.924 E.12495
G1 X126.19 Y134.015 E.00497
G1 X125.449 Y134.032 E.03916
G1 X124.006 Y133.199 E.088
G1 X123.895 Y133.656 E.02488
G1 X124.909 Y134.242 E.06187
;WIPE_START
G1 F8640
G1 X123.895 Y133.656 E-.27048
G1 X124.006 Y133.199 E-.10878
G1 X125.434 Y134.023 E-.38074
;WIPE_END
G1 E-.04 F2100
G1 Z.8 F10800
G1 X143.764 Y127.59
G1 Z.4
G1 E.8 F2100
M204 S800
;TYPE:Perimeter
;WIDTH:0.449999
;HEIGHT:0.2
G1 F1500
G1 X142.623 Y128.49 E.04921
G1 X141.525 Y126.268 E.08389
G1 X140.681 Y124.234 E.07453
G1 X140.537 Y123.543 E.02392
G1 X140.827 Y123.615 E.01009
G1 X142.341 Y124.491 E.05923
G1 X145.067 Y126.433 E.11328
G1 X143.809 Y127.55 E.05695
M204 S1000
G1 X144.025 Y127.903 F10800
M204 S800
;TYPE:External perimeter
G1 F1500
G1 X142.936 Y128.765 E.04699
G1 X142.472 Y129.105 E.01947
G1 X141.154 Y126.437 E.10075
G1 X140.291 Y124.355 E.07629
G1 X140.069 Y123.289 E.03685
G1 X140.245 Y123.05 E.01005
G1 X140.981 Y123.234 E.02567
G1 X142.561 Y124.148 E.06181
G1 X145.175 Y126.002 E.10849
G1 X145.692 Y126.401 E.0221
G1 X145.086 Y126.975 E.02826
G1 X144.07 Y127.863 E.04569
M204 S1000
G1 X143.65 Y127.763 F10800
;WIPE_START
G1 F8640
G1 X142.936 Y128.765 E-.33442
G1 X142.472 Y129.105 E-.13283
G1 X141.911 Y127.968 E-.29275
;WIPE_END
G1 E-.04 F2100
G1 Z.8 F10800
G1 X141.698 Y124.262
G1 Z.4
G1 E.8 F2100
;TYPE:Bridge infill
;WIDTH:0.439007
;HEIGHT:0.389872
G1 F1800
G1 X144.208 Y126.772 E.22335
