; generated by PrusaSlicer 2.6.1+win64 on 2023-10-25 at 20:21:47 UTC

; 

; external perimeters extrusion width = 0.45mm
; perimeters extrusion width = 0.45mm
; infill extrusion width = 0.45mm
; solid infill extrusion width = 0.45mm
; top infill extrusion width = 0.40mm
; first layer extrusion width = 0.42mm

;TYPE:Custom
; START_GCODE

T0 ; Select Titan extruder
M220 S100 ; Set feedmultiply back to 100percent

G90 ; Absolute positioning
M83; Relative Extruder

G28 ; Home all axes

M190 S50 ; Set and wait - bed temperature
M104 S220

G32 ; Probe Z and calculate Z plane
G29 ; Mesh bed probe

G1009 ; Go ARC to purge end

G92 E0 ; Zero extruder
G21 ; set units to millimeters
G90 ; use absolute coordinates
M83 ; use relative distances for extrusion
; Filament gcode
M107
;LAYER_CHANGE
;Z:0.2
;HEIGHT:0.2
; BEFORE_LAYER_CHANGE
;0.2
G92 E0

G1 E-4.2 F1800
G1 Z.2 F9000
; AFTER_LAYER_CHANGE
;0.2
G1 Z.4
G1 X-13.373 Y-26.083
G1 Z.2
G1 E4.2 F1800
M204 P1000
;TYPE:Perimeter
;WIDTH:0.419999
G1 F1199.899
G1 X-12.061 Y-26.711 E.04561
G1 X-10.704 Y-27.288 E.04623
G1 X-9.794 Y-27.627 E.03045
G1 X-8.87 Y-27.938 E.03057
G1 X-7.937 Y-28.217 E.03053
G1 X-6.995 Y-28.466 E.03055
G1 X-6.044 Y-28.682 E.03058
G1 X-5.088 Y-28.867 E.03053
G1 X-4.126 Y-29.021 E.03055
G1 X-3.159 Y-29.142 E.03056
G1 X-2.188 Y-29.231 E.03057
G1 X-1.216 Y-29.288 E.03053
G1 X-.222 Y-29.312 E.03118
G1 X.733 Y-29.304 E.02994
G1 X1.707 Y-29.263 E.03057
G1 X2.678 Y-29.19 E.03053
G1 X3.666 Y-29.083 E.03116
G1 X4.612 Y-28.948 E.02996
G1 X5.572 Y-28.779 E.03056
G1 X6.525 Y-28.578 E.03054
G1 X7.471 Y-28.345 E.03055
G1 X8.409 Y-28.081 E.03055
G1 X9.338 Y-27.786 E.03056
G1 X10.238 Y-27.467 E.02994
G1 X11.164 Y-27.105 E.03117
G1 X12.058 Y-26.719 E.03053
G1 X12.94 Y-26.303 E.03058
G1 X13.807 Y-25.859 E.03054
G1 X14.659 Y-25.386 E.03055
G1 X15.9 Y-24.622 E.04569
G1 X16.717 Y-24.075 E.03083
G1 X17.506 Y-23.508 E.03046
G1 X18.277 Y-22.914 E.03052
G1 X19.028 Y-22.294 E.03053
G1 X19.758 Y-21.65 E.03052
G1 X20.467 Y-20.981 E.03056
G1 X21.153 Y-20.289 E.03055
G1 X21.816 Y-19.575 E.03055
G1 X22.454 Y-18.839 E.03054
G1 X23.068 Y-18.083 E.03054
G1 X23.656 Y-17.306 E.03055
G1 X24.218 Y-16.51 E.03055
G1 X24.754 Y-15.696 E.03056
G1 X25.262 Y-14.865 E.03054
G1 X25.742 Y-14.017 E.03055
G1 X26.194 Y-13.154 E.03055
G1 X26.616 Y-12.276 E.03054
G1 X27.01 Y-11.384 E.03057
G1 X27.373 Y-10.48 E.03054
G1 X27.706 Y-9.565 E.03053
G1 X28.009 Y-8.639 E.03055
G1 X28.281 Y-7.703 E.03056
G1 X28.521 Y-6.759 E.03054
G1 X28.73 Y-5.807 E.03056
G1 X28.907 Y-4.849 E.03055
G1 X29.052 Y-3.885 E.03057
G1 X29.166 Y-2.917 E.03056
G1 X29.247 Y-1.942 E.03068
G1 X29.295 Y-.979 E.03023
G1 X29.311 Y-.033 E.02967
G1 X29.279 Y1.461 E.04685
G1 X29.214 Y2.433 E.03054
G1 X29.117 Y3.403 E.03057
G1 X28.988 Y4.369 E.03056
G1 X28.826 Y5.33 E.03056
G1 X28.633 Y6.285 E.03055
G1 X28.409 Y7.233 E.03054
G1 X28.153 Y8.173 E.03055
G1 X27.865 Y9.104 E.03056
G1 X27.547 Y10.026 E.03058
G1 X27.199 Y10.936 E.03055
G1 X26.82 Y11.834 E.03056
G1 X26.412 Y12.718 E.03053
G1 X25.975 Y13.589 E.03055
G1 X25.509 Y14.445 E.03056
G1 X25.015 Y15.285 E.03055
G1 X24.493 Y16.108 E.03056
G1 X23.944 Y16.913 E.03055
G1 X23.369 Y17.699 E.03053
G1 X22.767 Y18.466 E.03057
G1 X22.141 Y19.213 E.03056
G1 X21.49 Y19.938 E.03055
G1 X20.829 Y20.627 E.02994
G1 X20.118 Y21.321 E.03115
G1 X19.398 Y21.978 E.03056
G1 X18.657 Y22.611 E.03056
G1 X17.895 Y23.218 E.03055
G1 X17.116 Y23.798 E.03045
G1 X15.912 Y24.614 E.0456
G1 X14.656 Y25.387 E.04624
G1 X13.807 Y25.859 E.03046
G1 X12.94 Y26.303 E.03054
G1 X12.076 Y26.711 E.02996
G1 X11.163 Y27.105 E.03118
G1 X10.256 Y27.461 E.03055
G1 X9.338 Y27.786 E.03053
G1 X8.409 Y28.081 E.03056
G1 X7.471 Y28.345 E.03055
G1 X6.525 Y28.578 E.03055
G1 X5.572 Y28.779 E.03054
G1 X4.612 Y28.948 E.03056
G1 X3.647 Y29.085 E.03056
G1 X2.678 Y29.19 E.03056
G1 X1.707 Y29.263 E.03053
G1 X.733 Y29.304 E.03057
G1 X-.241 Y29.312 E.03054
G1 X-1.215 Y29.288 E.03055
G1 X-2.188 Y29.231 E.03056
G1 X-3.159 Y29.142 E.03057
G1 X-4.126 Y29.021 E.03056
G1 X-5.088 Y28.868 E.03054
G1 X-6.045 Y28.682 E.03057
G1 X-6.995 Y28.466 E.03055
G1 X-7.937 Y28.217 E.03055
G1 X-8.87 Y27.938 E.03053
G1 X-9.794 Y27.627 E.03057
G1 X-10.707 Y27.287 E.03055
G1 X-11.608 Y26.916 E.03055
G1 X-12.496 Y26.515 E.03055
G1 X-13.371 Y26.085 E.03057
G1 X-14.23 Y25.626 E.03054
G1 X-15.074 Y25.139 E.03055
G1 X-15.885 Y24.634 E.02996
G1 X-16.711 Y24.081 E.03117
G1 X-17.502 Y23.513 E.03053
G1 X-18.274 Y22.918 E.03056
G1 X-19.026 Y22.298 E.03056
G1 X-19.756 Y21.653 E.03054
G1 X-20.465 Y20.984 E.03056
G1 X-21.138 Y20.306 E.02995
G1 X-21.814 Y19.578 E.03115
G1 X-22.453 Y18.842 E.03056
G1 X-23.067 Y18.085 E.03056
G1 X-23.655 Y17.308 E.03055
G1 X-24.217 Y16.512 E.03055
G1 X-24.753 Y15.698 E.03056
G1 X-25.261 Y14.867 E.03054
G1 X-25.741 Y14.019 E.03055
G1 X-26.193 Y13.156 E.03055
G1 X-26.615 Y12.278 E.03054
G1 X-27.009 Y11.386 E.03057
G1 X-27.372 Y10.482 E.03054
G1 X-27.706 Y9.566 E.03057
G1 X-28.008 Y8.64 E.03054
G1 X-28.28 Y7.704 E.03056
G1 X-28.516 Y6.779 E.02993
G1 X-28.729 Y5.808 E.03117
G1 X-28.907 Y4.85 E.03055
G1 X-29.049 Y3.905 E.02996
G1 X-29.165 Y2.918 E.03116
G1 X-29.246 Y1.947 E.03055
G1 X-29.294 Y.974 E.03054
G1 X-29.311 Y0 E.03054
G1 X-29.294 Y-.974 E.03054
G1 X-29.247 Y-1.928 E.02995
G1 X-29.165 Y-2.919 E.03118
G1 X-29.052 Y-3.886 E.03053
G1 X-28.907 Y-4.85 E.03057
G1 X-28.729 Y-5.808 E.03055
G1 X-28.52 Y-6.76 E.03056
G1 X-28.28 Y-7.704 E.03054
G1 X-28.008 Y-8.64 E.03056
G1 X-27.706 Y-9.566 E.03054
G1 X-27.372 Y-10.482 E.03057
G1 X-27.009 Y-11.386 E.03054
G1 X-26.615 Y-12.278 E.03057
G1 X-26.201 Y-13.138 E.02993
G1 X-25.741 Y-14.019 E.03116
G1 X-25.261 Y-14.867 E.03055
G1 X-24.753 Y-15.698 E.03054
G1 X-24.217 Y-16.512 E.03056
G1 X-23.655 Y-17.308 E.03055
G1 X-23.078 Y-18.07 E.02997
G1 X-22.453 Y-18.842 E.03114
G1 X-21.814 Y-19.578 E.03056
G1 X-21.164 Y-20.278 E.02995
G1 X-20.465 Y-20.984 E.03115
G1 X-19.756 Y-21.653 E.03056
G1 X-19.04 Y-22.285 E.02994
G1 X-18.274 Y-22.918 E.03116
G1 X-17.502 Y-23.513 E.03056
G1 X-16.711 Y-24.081 E.03053
G1 X-15.901 Y-24.624 E.03058
G1 X-15.074 Y-25.139 E.03055
G1 X-14.247 Y-25.616 E.02993
G1 X-13.426 Y-26.055 E.02919
M204 P2000
G1 X-13.544 Y-26.42 F9000
M204 P1000
;TYPE:External perimeter
G1 F1200
G1 X-12.217 Y-27.054 E.04611
G1 X-10.844 Y-27.638 E.04678
G1 X-9.92 Y-27.983 E.03092
G1 X-8.984 Y-28.297 E.03095
G1 X-8.039 Y-28.58 E.03093
G1 X-7.085 Y-28.832 E.03094
G1 X-6.122 Y-29.051 E.03097
G1 X-5.153 Y-29.239 E.03095
G1 X-4.179 Y-29.394 E.03092
G1 X-3.199 Y-29.517 E.03097
G1 X-2.217 Y-29.607 E.03092
G1 X-1.231 Y-29.664 E.03097
G1 X-.225 Y-29.689 E.03155
G1 X.742 Y-29.681 E.03032
G1 X1.729 Y-29.64 E.03097
G1 X2.713 Y-29.566 E.03094
G1 X3.713 Y-29.457 E.03154
G1 X4.671 Y-29.321 E.03034
G1 X5.643 Y-29.149 E.03095
G1 X6.609 Y-28.946 E.03095
G1 X7.567 Y-28.71 E.03094
G1 X8.517 Y-28.443 E.03094
G1 X9.458 Y-28.144 E.03096
G1 X10.37 Y-27.821 E.03034
G1 X11.307 Y-27.453 E.03156
G1 X12.213 Y-27.063 E.03093
G1 X13.106 Y-26.642 E.03095
G1 X13.984 Y-26.191 E.03095
G1 X14.847 Y-25.712 E.03095
G1 X16.104 Y-24.939 E.04627
G1 X16.932 Y-24.385 E.03124
G1 X17.731 Y-23.811 E.03085
G1 X18.512 Y-23.209 E.03092
G1 X19.273 Y-22.581 E.03094
G1 X20.013 Y-21.928 E.03094
G1 X20.73 Y-21.251 E.03092
G1 X21.425 Y-20.55 E.03095
G1 X22.096 Y-19.827 E.03093
G1 X22.743 Y-19.081 E.03096
G1 X23.365 Y-18.315 E.03094
G1 X23.961 Y-17.528 E.03095
G1 X24.53 Y-16.722 E.03093
G1 X25.072 Y-15.898 E.03092
G1 X25.587 Y-15.056 E.03095
G1 X26.073 Y-14.197 E.03095
G1 X26.531 Y-13.323 E.03094
G1 X26.959 Y-12.434 E.03094
G1 X27.357 Y-11.531 E.03094
G1 X27.725 Y-10.615 E.03095
G1 X28.063 Y-9.688 E.03094
G1 X28.369 Y-8.75 E.03094
G1 X28.645 Y-7.802 E.03096
G1 X28.888 Y-6.846 E.03093
G1 X29.1 Y-5.882 E.03095
G1 X29.279 Y-4.911 E.03096
G1 X29.426 Y-3.935 E.03095
G1 X29.541 Y-2.954 E.03097
G1 X29.623 Y-1.967 E.03105
G1 X29.672 Y-.992 E.03061
G1 X29.688 Y-.033 E.03007
G1 X29.655 Y1.48 E.04745
G1 X29.59 Y2.465 E.03095
G1 X29.491 Y3.447 E.03095
G1 X29.361 Y4.425 E.03093
G1 X29.197 Y5.398 E.03094
G1 X29.002 Y6.366 E.03096
G1 X28.774 Y7.326 E.03094
G1 X28.515 Y8.279 E.03096
G1 X28.224 Y9.222 E.03094
G1 X27.902 Y10.155 E.03095
G1 X27.549 Y11.076 E.03093
G1 X27.165 Y11.986 E.03097
G1 X26.752 Y12.882 E.03093
G1 X26.309 Y13.764 E.03095
G1 X25.837 Y14.631 E.03095
G1 X25.336 Y15.481 E.03094
G1 X24.808 Y16.315 E.03095
G1 X24.252 Y17.13 E.03093
G1 X23.669 Y17.927 E.03096
G1 X23.06 Y18.704 E.03095
G1 X22.426 Y19.46 E.03094
G1 X21.767 Y20.194 E.03093
G1 X21.097 Y20.893 E.03036
G1 X20.377 Y21.596 E.03155
G1 X19.648 Y22.261 E.03094
G1 X18.897 Y22.902 E.03096
G1 X18.125 Y23.517 E.03095
G1 X17.335 Y24.106 E.0309
G1 X16.117 Y24.931 E.04613
G1 X14.846 Y25.713 E.04679
G1 X13.984 Y26.191 E.0309
G1 X13.106 Y26.642 E.03095
G1 X12.231 Y27.054 E.03032
G1 X11.307 Y27.454 E.03157
G1 X10.388 Y27.814 E.03095
G1 X9.458 Y28.144 E.03094
G1 X8.517 Y28.443 E.03096
G1 X7.567 Y28.71 E.03094
G1 X6.609 Y28.946 E.03094
G1 X5.643 Y29.149 E.03095
G1 X4.671 Y29.321 E.03095
G1 X3.694 Y29.46 E.03094
G1 X2.713 Y29.566 E.03094
G1 X1.729 Y29.64 E.03094
G1 X.742 Y29.681 E.03097
G1 X-.245 Y29.689 E.03095
G1 X-1.231 Y29.664 E.03093
G1 X-2.216 Y29.607 E.03094
G1 X-3.199 Y29.517 E.03095
G1 X-4.179 Y29.394 E.03097
G1 X-5.153 Y29.239 E.03092
G1 X-6.122 Y29.051 E.03095
G1 X-7.085 Y28.832 E.03097
G1 X-8.039 Y28.58 E.03094
G1 X-8.984 Y28.297 E.03093
G1 X-9.92 Y27.983 E.03095
G1 X-10.845 Y27.638 E.03095
G1 X-11.757 Y27.262 E.03093
G1 X-12.657 Y26.856 E.03096
G1 X-13.543 Y26.42 E.03096
G1 X-14.413 Y25.955 E.03093
G1 X-15.268 Y25.462 E.03095
G1 X-16.09 Y24.95 E.03036
G1 X-16.926 Y24.391 E.03153
G1 X-17.727 Y23.815 E.03093
G1 X-18.509 Y23.213 E.03094
G1 X-19.27 Y22.584 E.03096
G1 X-20.01 Y21.931 E.03094
G1 X-20.728 Y21.254 E.03094
G1 X-21.41 Y20.567 E.03035
G1 X-22.095 Y19.83 E.03155
G1 X-22.742 Y19.084 E.03096
G1 X-23.363 Y18.318 E.03092
G1 X-23.959 Y17.531 E.03095
G1 X-24.529 Y16.725 E.03095
G1 X-25.071 Y15.9 E.03095
G1 X-25.586 Y15.058 E.03095
G1 X-26.072 Y14.199 E.03095
G1 X-26.53 Y13.325 E.03094
G1 X-26.958 Y12.436 E.03094
G1 X-27.356 Y11.533 E.03094
G1 X-27.725 Y10.617 E.03096
G1 X-28.062 Y9.689 E.03096
G1 X-28.369 Y8.751 E.03095
G1 X-28.644 Y7.803 E.03095
G1 X-28.883 Y6.866 E.03032
G1 X-29.099 Y5.883 E.03156
G1 X-29.278 Y4.912 E.03096
G1 X-29.423 Y3.956 E.03032
G1 X-29.54 Y2.956 E.03157
G1 X-29.622 Y1.973 E.03093
G1 X-29.671 Y.987 E.03095
G1 X-29.688 Y0 E.03095
G1 X-29.671 Y-.987 E.03095
G1 X-29.623 Y-1.953 E.03033
G1 X-29.54 Y-2.956 E.03156
G1 X-29.426 Y-3.936 E.03093
G1 X-29.278 Y-4.912 E.03095
G1 X-29.099 Y-5.883 E.03096
G1 X-28.887 Y-6.847 E.03095
G1 X-28.644 Y-7.803 E.03093
G1 X-28.369 Y-8.751 E.03095
G1 X-28.062 Y-9.689 E.03095
G1 X-27.725 Y-10.617 E.03096
G1 X-27.356 Y-11.533 E.03096
G1 X-26.958 Y-12.436 E.03094
G1 X-26.538 Y-13.308 E.03035
G1 X-26.072 Y-14.199 E.03153
G1 X-25.586 Y-15.058 E.03095
G1 X-25.071 Y-15.9 E.03095
G1 X-24.529 Y-16.725 E.03095
G1 X-23.959 Y-17.531 E.03095
G1 X-23.375 Y-18.302 E.03033
G1 X-22.742 Y-19.084 E.03155
G1 X-22.095 Y-19.83 E.03096
G1 X-21.436 Y-20.539 E.03035
G1 X-20.728 Y-21.254 E.03155
G1 X-20.01 Y-21.931 E.03094
G1 X-19.285 Y-22.572 E.03034
G1 X-18.509 Y-23.213 E.03156
G1 X-17.727 Y-23.815 E.03094
G1 X-16.926 Y-24.391 E.03093
G1 X-16.106 Y-24.94 E.03094
G1 X-15.268 Y-25.462 E.03096
G1 X-14.43 Y-25.946 E.03034
G1 X-13.596 Y-26.391 E.02964
M204 P2000
G1 X-13.209 Y-26.2 F9000
G1 E-3.78 F1800
;WIPE_START
G1 F7200
G1 X-12.217 Y-27.054 E-.3634
G1 X-11.998 Y-27.147 E-.0566
;WIPE_END
G1 Z.4 F9000
G1 X18.32 Y-22.735
G1 Z.2
G1 E4.2 F1800
M204 P1000
;TYPE:Solid infill
;WIDTH:0.422365
G1 F1199.992
G1 X20.655 Y-20.4 E.10419
G1 X21.283 Y-19.745 E.02863
G1 X21.927 Y-19.027 E.03043
G1 X22.548 Y-18.288 E.03046
G1 X23.143 Y-17.528 E.03045
G1 X23.561 Y-16.957 E.02233
G1 X20.253 Y-20.264 Z.2 E.14758
G1 X16.946 Y-23.572 Z.2 E.14758
G1 X16.156 Y-24.121 E.03035
G1 X15.326 Y-24.656 E.03116
G1 X18.434 Y-21.548 Z.2 E.13869
G1 X21.542 Y-18.439 Z.2 E.13869
G1 X24.65 Y-15.331 Z.2 E.13869
G1 X25.41 Y-14.035 E.0474
G1 X22.567 Y-16.878 Z.2 E.12685
G1 X19.724 Y-19.721 Z.2 E.12685
G1 X16.881 Y-22.564 Z.2 E.12685
G1 X14.038 Y-25.407 Z.2 E.12685
G1 X12.905 Y-26.003 E.04039
G1 X26.001 Y-12.908 E.58432
G1 X26.484 Y-11.888 E.03561
G1 X23.565 Y-14.807 Z.2 E.13026
G1 X20.645 Y-17.727 Z.2 E.13026
G1 X17.726 Y-20.646 Z.2 E.13026
G1 X14.806 Y-23.566 Z.2 E.13026
G1 X11.887 Y-26.485 Z.2 E.13026
G1 X10.951 Y-26.884 E.0321
G1 X26.886 Y-10.949 E.71102
G1 X27.227 Y-10.072 E.02969
G1 X23.796 Y-13.503 Z.2 E.15308
G1 X20.365 Y-16.934 Z.2 E.15308
G1 X16.935 Y-20.364 Z.2 E.15308
G1 X13.504 Y-23.795 Z.2 E.15308
G1 X10.073 Y-27.226 Z.2 E.15308
G1 X9.242 Y-27.52 E.02781
G1 X12.288 Y-24.474 Z.2 E.13591
G1 X15.334 Y-21.428 Z.2 E.13591
G1 X18.38 Y-18.382 Z.2 E.13591
G1 X21.426 Y-15.336 Z.2 E.13591
G1 X24.472 Y-12.29 Z.2 E.13591
G1 X27.518 Y-9.244 Z.2 E.13591
G1 X27.769 Y-8.456 E.02609
G1 F1200
G1 X24.963 Y-11.262 Z.2 E.12522
G1 F1199.973
G1 X21.661 Y-14.564 Z.2 E.14731
G1 X18.36 Y-17.865 Z.2 E.14731
G1 X15.058 Y-21.167 Z.2 E.14731
G1 X11.757 Y-24.468 Z.2 E.14731
G1 X8.455 Y-27.77 Z.2 E.14731
G1 X7.702 Y-27.987 E.02472
G1 F1200
G1 X11.48 Y-24.209 Z.2 E.16858
G1 F1199.979
G1 X14.782 Y-20.907 Z.2 E.14732
G1 X18.083 Y-17.605 Z.2 E.14732
G1 X21.385 Y-14.304 Z.2 E.14732
G1 X24.686 Y-11.002 Z.2 E.14732
G1 X27.988 Y-7.7 Z.2 E.14732
G1 X28.18 Y-6.972 E.02375
G1 X6.976 Y-28.176 E.94612
G1 X6.274 Y-28.342 E.02276
G1 F1200
G1 X11.836 Y-22.78 Z.2 E.24819
G1 F1199.996
G1 X15.138 Y-19.478 Z.2 E.14734
G1 X18.441 Y-16.175 Z.2 E.14734
G1 X21.743 Y-12.873 Z.2 E.14734
G1 X25.045 Y-9.571 Z.2 E.14734
G1 X28.347 Y-6.269 Z.2 E.14734
G1 X28.484 Y-5.594 E.02173
G1 X5.594 Y-28.485 E1.02137
G1 X4.939 Y-28.603 E.021
G1 X28.606 Y-4.936 E1.05602
G1 X28.713 Y-4.293 E.02057
G1 X4.299 Y-28.707 E1.08935
G1 X3.673 Y-28.796 E.01995
G1 F1200
G1 X12.287 Y-20.182 Z.2 E.38434
G1 F1199.979
G1 X15.588 Y-16.881 Z.2 E.14732
G1 X18.89 Y-13.579 Z.2 E.14732
G1 X22.192 Y-10.277 Z.2 E.14732
G1 X25.493 Y-6.976 Z.2 E.14732
G1 X28.795 Y-3.674 Z.2 E.14732
G1 X28.866 Y-3.066 E.01931
G1 F1200
G1 X19.576 Y-12.356 Z.2 E.41453
G1 F1199.968
G1 X16.274 Y-15.658 Z.2 E.14731
G1 X12.973 Y-18.959 Z.2 E.14731
G1 X9.672 Y-22.26 Z.2 E.14731
G1 X6.37 Y-25.562 Z.2 E.14731
G1 X3.069 Y-28.863 Z.2 E.14731
G1 X2.474 Y-28.922 E.01886
G1 F1200
G1 X12.416 Y-18.98 Z.2 E.44361
G1 F1199.992
G1 X15.718 Y-15.678 Z.2 E.14734
G1 X19.02 Y-12.376 Z.2 E.14734
G1 X22.322 Y-9.074 Z.2 E.14734
G1 X25.624 Y-5.772 Z.2 E.14734
G1 X28.926 Y-2.47 Z.2 E.14734
G1 X28.967 Y-1.893 E.01825
G1 F1200
G1 X18.404 Y-12.456 Z.2 E.47132
G1 F1199.995
G1 X15.102 Y-15.758 Z.2 E.14734
G1 X11.799 Y-19.06 Z.2 E.14734
G1 X8.497 Y-22.362 Z.2 E.14734
G1 X5.195 Y-25.664 Z.2 E.14734
G1 X1.893 Y-28.966 Z.2 E.14734
G1 X1.331 Y-28.992 E.01775
G1 F1200
G1 X12.489 Y-17.833 Z.2 E.49788
G1 F1199.999
G1 X15.791 Y-14.531 Z.2 E.14734
G1 X19.094 Y-11.229 Z.2 E.14734
G1 X22.396 Y-7.927 Z.2 E.14735
G1 X25.698 Y-4.624 Z.2 E.14734
G1 X29 Y-1.322 Z.2 E.14734
G1 X29.019 Y-.767 E.01752
G1 F1200
G1 X17.285 Y-12.501 Z.2 E.52357
G1 F1199.975
G1 X13.983 Y-15.803 Z.2 E.14731
G1 X10.682 Y-19.104 Z.2 E.14732
G1 X7.38 Y-22.406 Z.2 E.14731
G1 X4.079 Y-25.707 Z.2 E.14732
G1 X.777 Y-29.009 Z.2 E.14731
G1 X.225 Y-29.025 E.01742
G1 F1200
G1 X12.519 Y-16.731 Z.2 E.54856
G1 F1199.987
G1 X15.821 Y-13.429 Z.2 E.14733
G1 X19.122 Y-10.127 Z.2 E.14733
G1 X22.424 Y-6.825 Z.2 E.14733
G1 X25.726 Y-3.523 Z.2 E.14733
G1 X29.028 Y-.221 Z.2 E.14733
G1 X29.028 Y.316 E.01694
G1 F1200
G1 X16.204 Y-12.508 Z.2 E.57222
G1 F1199.981
G1 X12.902 Y-15.81 Z.2 E.14732
G1 X9.6 Y-19.112 Z.2 E.14732
G1 X6.298 Y-22.414 Z.2 E.14732
G1 X2.997 Y-25.715 Z.2 E.14732
G1 X-.305 Y-29.017 Z.2 E.14732
G1 X-.834 Y-29.01 E.01669
G1 X29.016 Y.84 E1.3319
G1 X28.999 Y1.36 E.01642
G1 F1200
G1 X15.152 Y-12.487 Z.2 E.61787
G1 F1199.98
G1 X11.85 Y-15.789 Z.2 E.14732
G1 X8.548 Y-19.091 Z.2 E.14732
G1 X5.246 Y-22.393 Z.2 E.14732
G1 X1.945 Y-25.694 Z.2 E.14732
G1 X-1.357 Y-28.996 Z.2 E.14732
G1 X-1.864 Y-28.966 E.01602
G1 F1200
G1 X12.462 Y-14.64 Z.2 E.6392
G1 F1199.965
G1 X15.763 Y-11.339 Z.2 E.1473
G1 X19.064 Y-8.038 Z.2 E.1473
