; generated by PrusaSlicer 2.6.1+win64 on 2023-10-20 at 20:40:52 UTC

; 

; external perimeters extrusion width = 0.45mm
; perimeters extrusion width = 0.45mm
; infill extrusion width = 0.45mm
; solid infill extrusion width = 0.45mm
; top infill extrusion width = 0.40mm
; first layer extrusion width = 0.42mm

M73 P0 R38
M73 Q0 S38
M201 X1000 Y1000 Z200 E5000 ; sets maximum accelerations, mm/sec^2
M203 X200 Y200 Z12 E120 ; sets maximum feedrates, mm / sec
M204 S1250 T1250 ; sets acceleration (S) and retract acceleration (R), mm/sec^2
M205 X8.00 Y8.00 Z0.40 E4.50 ; sets the jerk limits, mm/sec
M205 S0 T0 ; sets the minimum extruding and travel feed rate, mm/sec
;TYPE:Custom
M862.3 P "MK3" ; printer model check
M862.1 P0.4 ; nozzle diameter check
M115 U3.13.0 ; tell printer latest fw version
G90 ; use absolute coordinates
M83 ; extruder relative mode
M104 S215 ; set extruder temp
M140 S60 ; set bed temp
M190 S60 ; wait for bed temp
M109 S215 ; wait for extruder temp
G28 W ; home all without mesh bed level
G80 ; mesh bed leveling

G1 Z0.2 F720
G1 Y-3 F1000 ; go outside print area
G92 E0
G1 X60 E9 F1000 ; intro line
G1 X100 E12.5 F1000 ; intro line

G92 E0
M221 S95

; Don't change E values below. Excessive value can damage the printer.
M907 E430 ; set extruder motor current
G21 ; set units to millimeters
G90 ; use absolute coordinates
M83 ; use relative distances for extrusion
M900 K0.05 ; Filament gcode LA 1.5
M900 K30 ; Filament gcode LA 1.0
M107
;LAYER_CHANGE
;Z:0.2
;HEIGHT:0.2
;BEFORE_LAYER_CHANGE
G92 E0.0
;0.2


G1 E-.8 F2100
G1 Z.4 F720
;AFTER_LAYER_CHANGE
;0.2
G1 X100.175 Y84.219 F10800
G1 Z.2 F720
G1 E.8 F2100
M204 S800
;TYPE:Skirt/Brim
;WIDTH:0.42
G1 F1200
G1 X102.367 Y81.85 E.1012
G1 X104.785 Y79.711 E.10122
G1 X107.403 Y77.824 E.10119
G1 X110.197 Y76.207 E.10122
G1 X113.137 Y74.876 E.10119
G1 X116.195 Y73.844 E.10119
G1 X119.341 Y73.122 E.1012
G1 X122.543 Y72.717 E.1012
G1 X124.83 Y72.625 E.07177
G1 X127.997 Y72.762 E.09939
G1 X131.192 Y73.22 E.1012
G1 X134.326 Y73.995 E.10122
G1 X137.367 Y75.077 E.1012
G1 X140.285 Y76.457 E.10121
G1 X143.051 Y78.12 E.10119
G1 X145.637 Y80.051 E.10119
G1 X148.019 Y82.23 E.10122
G1 X150.172 Y84.634 E.10119
G1 X152.074 Y87.242 E.10121
G1 X153.708 Y90.025 E.10119
G1 X155.056 Y92.958 E.10121
G1 X156.084 Y95.934 E.09872
G1 X156.832 Y99.074 E.10121
G1 X157.264 Y102.273 E.10121
G1 X157.375 Y105.499 E.10121
G1 X157.264 Y107.727 E.06994
G1 X156.832 Y110.926 E.10121
G1 X156.084 Y114.066 E.10121
G1 X155.027 Y117.115 E.10118
G1 X153.671 Y120.045 E.10123
G1 X152.031 Y122.824 E.10118
G1 X150.122 Y125.427 E.10121
G1 X147.963 Y127.827 E.10122
G1 X145.637 Y129.949 E.09872
G1 X143.051 Y131.88 E.10119
G1 X140.285 Y133.543 E.10119
G1 X137.367 Y134.923 E.10121
G1 X134.326 Y136.005 E.1012
G1 X131.192 Y136.78 E.10122
G1 X127.997 Y137.238 E.1012
G1 X124.773 Y137.376 E.10118
G1 X121.55 Y137.192 E.10122
G1 X118.362 Y136.689 E.10119
G1 X115.24 Y135.87 E.1012
G1 X112.215 Y134.744 E.1012
G1 X109.317 Y133.323 E.1012
G1 X106.575 Y131.621 E.10119
G1 X104.016 Y129.654 E.1012
G1 X101.665 Y127.442 E.10121
G1 X99.547 Y125.007 E.10119
G1 X97.681 Y122.373 E.10121
G1 X96.087 Y119.566 E.10121
G1 X94.802 Y116.668 E.0994
G1 X94.052 Y114.505 E.07178
G1 X93.26 Y111.377 E.10117
G1 X92.782 Y108.184 E.10123
G1 X92.626 Y104.96 E.1012
G1 X92.782 Y101.816 E.0987
G1 X93.26 Y98.623 E.10123
G1 X94.052 Y95.495 E.10117
G1 X95.153 Y92.46 E.10123
G1 X96.549 Y89.55 E.1012
G1 X98.229 Y86.794 E.1012
G1 X100.139 Y84.267 E.09932
M204 S1000
; printing object temp_slicing_20102023_224050.stl id:0 copy 0
;WIPE_START
G1 F8640
G1 X102.367 Y81.85 E-.75903
G1 X102.5 Y81.732 E-.04097
;WIPE_END
G1 Z.6 F720
G1 X104.605 Y84.087 F10800
G1 Z.2 F720
G1 E.8 F2100
M204 S800
;TYPE:Perimeter
;WIDTH:0.419999
G1 F1200
G1 X105.311 Y83.421 E.03043
G1 X106.026 Y82.79 E.0299
G1 X106.789 Y82.16 E.03102
G1 X107.558 Y81.568 E.03043
G1 X108.346 Y81.001 E.03044
G1 X109.153 Y80.46 E.03046
G1 X109.977 Y79.947 E.03043
G1 X110.803 Y79.47 E.02991
G1 X111.675 Y79.004 E.031
G1 X112.546 Y78.576 E.03043
G1 X113.416 Y78.184 E.02992
G1 X114.33 Y77.806 E.03101
G1 X115.239 Y77.467 E.03042
G1 X116.16 Y77.158 E.03046
G1 X117.09 Y76.879 E.03044
G1 X118.029 Y76.632 E.03044
G1 X118.976 Y76.415 E.03046
G1 X119.93 Y76.231 E.03046
G1 X120.889 Y76.078 E.03045
G1 X121.852 Y75.958 E.03043
G1 X122.819 Y75.869 E.03045
G1 X123.789 Y75.812 E.03047
G1 X124.777 Y75.788 E.03099
G1 X125.731 Y75.796 E.02991
M73 P0 R37
G1 X126.701 Y75.837 E.03044
G1 X127.669 Y75.909 E.03043
G1 X129.12 Y76.083 E.04582
G1 X130.076 Y76.235 E.03035
G1 X131.028 Y76.42 E.03041
G1 X131.975 Y76.636 E.03046
G1 X132.915 Y76.883 E.03047
G1 X133.848 Y77.163 E.03054
G1 X134.76 Y77.469 E.03016
G1 X135.67 Y77.809 E.03046
G1 X136.575 Y78.182 E.03069
G1 X137.458 Y78.58 E.03037
G1 X138.329 Y79.009 E.03044
G1 X139.188 Y79.467 E.03052
G1 X140.021 Y79.948 E.03016
G1 X140.846 Y80.462 E.03048
G1 X141.66 Y81.007 E.03071
G1 X142.446 Y81.572 E.03035
G1 X143.214 Y82.164 E.0304
G1 X143.963 Y82.782 E.03045
G1 X144.691 Y83.424 E.03043
G1 X145.397 Y84.091 E.03045
G1 X146.081 Y84.78 E.03044
G1 X146.741 Y85.492 E.03044
G1 X147.378 Y86.225 E.03045
G1 X147.989 Y86.979 E.03043
G1 X148.576 Y87.753 E.03046
G1 X149.136 Y88.546 E.03044
G1 X149.669 Y89.357 E.03043
G1 X150.176 Y90.186 E.03047
G1 X150.654 Y91.031 E.03044
G1 X151.104 Y91.891 E.03043
G1 X151.526 Y92.766 E.03046
G1 X151.918 Y93.654 E.03043
G1 X152.28 Y94.555 E.03045
G1 X152.612 Y95.468 E.03046
G1 X152.914 Y96.391 E.03045
G1 X153.184 Y97.324 E.03045
G1 X153.424 Y98.265 E.03045
G1 X153.632 Y99.214 E.03046
G1 X153.809 Y100.172 E.03055
G1 X153.953 Y101.123 E.03016
G1 X154.065 Y102.088 E.03046
G1 X154.147 Y103.064 E.03071
G1 X154.195 Y104.025 E.03017
G1 X154.211 Y104.97 E.02963
G1 X154.179 Y106.456 E.0466
G1 X154.114 Y107.425 E.03045
G1 X154.018 Y108.391 E.03044
G1 X153.889 Y109.354 E.03046
G1 X153.728 Y110.312 E.03046
G1 X153.536 Y111.263 E.03042
G1 X153.312 Y112.208 E.03045
G1 X153.057 Y113.145 E.03045
G1 X152.77 Y114.073 E.03046
G1 X152.453 Y114.991 E.03045
G1 X152.106 Y115.898 E.03045
G1 X151.729 Y116.793 E.03045
G1 X151.322 Y117.675 E.03046
G1 X150.886 Y118.543 E.03046
G1 X150.422 Y119.396 E.03045
G1 X149.929 Y120.233 E.03046
G1 X149.409 Y121.053 E.03044
G1 X148.862 Y121.855 E.03044
G1 X148.289 Y122.639 E.03045
G1 X147.69 Y123.403 E.03044
G1 X147.065 Y124.147 E.03047
G1 X146.417 Y124.87 E.03044
G1 X145.757 Y125.558 E.02989
G1 X145.049 Y126.249 E.03102
G1 X144.332 Y126.903 E.03043
G1 X143.593 Y127.534 E.03047
G1 X142.834 Y128.139 E.03043
G1 X142.055 Y128.719 E.03045
G1 X141.257 Y129.273 E.03046
G1 X140.456 Y129.79 E.02989
G1 X139.609 Y130.299 E.03098
G1 X138.76 Y130.771 E.03046
G1 X137.896 Y131.214 E.03044
G1 X137.033 Y131.62 E.0299
G1 X136.125 Y132.012 E.03101
M73 Q1 S38
G1 X135.221 Y132.367 E.03045
G1 X134.306 Y132.692 E.03045
G1 X133.381 Y132.986 E.03043
G1 X132.446 Y133.249 E.03045
G1 X131.503 Y133.48 E.03044
M73 P1 R37
G1 X130.553 Y133.681 E.03045
G1 X129.596 Y133.849 E.03046
G1 X128.635 Y133.986 E.03044
M73 Q1 S37
G1 X127.669 Y134.091 E.03047
G1 X126.701 Y134.163 E.03043
G1 X125.731 Y134.204 E.03044
G1 X124.759 Y134.212 E.03048
G1 X123.789 Y134.188 E.03042
G1 X122.819 Y134.131 E.03047
G1 X121.852 Y134.042 E.03045
G1 X120.889 Y133.922 E.03043
G1 X119.93 Y133.769 E.03045
G1 X118.976 Y133.585 E.03046
G1 X118.029 Y133.368 E.03046
G1 X117.09 Y133.121 E.03044
G1 X116.16 Y132.842 E.03044
G1 X115.239 Y132.533 E.03046
G1 X114.33 Y132.193 E.03043
G1 X113.432 Y131.824 E.03044
G1 X112.547 Y131.424 E.03045
G1 X111.675 Y130.996 E.03046
G1 X110.818 Y130.538 E.03047
G1 X109.977 Y130.053 E.03044
G1 X109.168 Y129.549 E.02989
G1 X108.346 Y128.999 E.03101
G1 X107.558 Y128.432 E.03044
G1 X106.788 Y127.839 E.03047
G1 X106.039 Y127.222 E.03043
G1 X105.311 Y126.579 E.03045
G1 X104.605 Y125.913 E.03043
G1 X103.933 Y125.235 E.02993
G1 X103.26 Y124.511 E.03099
G1 X102.624 Y123.778 E.03043
G1 X102.012 Y123.023 E.03047
G1 X101.426 Y122.249 E.03044
G1 X100.866 Y121.456 E.03044
G1 X100.332 Y120.645 E.03045
G1 X99.826 Y119.816 E.03045
G1 X99.347 Y118.971 E.03046
G1 X98.897 Y118.111 E.03043
G1 X98.475 Y117.236 E.03046
G1 X98.083 Y116.347 E.03046
G1 X97.721 Y115.446 E.03045
G1 X97.389 Y114.534 E.03043
G1 X97.087 Y113.611 E.03045
G1 X96.817 Y112.678 E.03045
G1 X96.577 Y111.737 E.03045
G1 X96.369 Y110.788 E.03046
G1 X96.192 Y109.833 E.03045
G1 X96.05 Y108.891 E.02987
G1 X95.935 Y107.908 E.03103
G1 X95.854 Y106.941 E.03043
G1 X95.806 Y105.971 E.03045
G1 X95.789 Y105 E.03045
G1 X95.806 Y104.029 E.03045
G1 X95.853 Y103.077 E.02989
G1 X95.935 Y102.091 E.03102
G1 X96.047 Y101.127 E.03043
G1 X96.192 Y100.167 E.03044
G1 X96.369 Y99.212 E.03045
G1 X96.577 Y98.263 E.03046
G1 X96.817 Y97.322 E.03045
G1 X97.087 Y96.389 E.03045
G1 X97.389 Y95.466 E.03045
G1 X97.721 Y94.554 E.03043
G1 X98.083 Y93.653 E.03045
G1 X98.475 Y92.764 E.03046
G1 X98.889 Y91.905 E.0299
G1 X99.347 Y91.029 E.03099
G1 X99.826 Y90.184 E.03046
G1 X100.332 Y89.355 E.03045
G1 X100.866 Y88.544 E.03045
G1 X101.426 Y87.751 E.03044
G1 X102.012 Y86.977 E.03044
G1 X102.624 Y86.222 E.03047
G1 X103.261 Y85.489 E.03045
G1 X103.909 Y84.79 E.02989
G1 X104.563 Y84.13 E.02913
M204 S1000
G1 X104.342 Y83.817 F10800
M204 S800
;TYPE:External perimeter
G1 F1200
G1 X105.057 Y83.143 E.03081
G1 X105.781 Y82.503 E.0303
G1 X106.553 Y81.866 E.03138
G1 X107.332 Y81.265 E.03085
G1 X108.131 Y80.691 E.03085
G1 X108.948 Y80.144 E.03083
G1 X109.783 Y79.624 E.03084
G1 X110.62 Y79.141 E.0303
G1 X111.503 Y78.669 E.03139
G1 X112.386 Y78.235 E.03085
G1 X113.266 Y77.837 E.03028
G1 X114.192 Y77.455 E.03141
G1 X115.113 Y77.111 E.03083
G1 X116.046 Y76.798 E.03086
G1 X116.988 Y76.516 E.03083
G1 X117.939 Y76.265 E.03084
G1 X118.898 Y76.046 E.03084
G1 X119.864 Y75.86 E.03084
G1 X120.835 Y75.705 E.03083
G1 X121.811 Y75.583 E.03084
G1 X122.791 Y75.493 E.03086
G1 X123.773 Y75.436 E.03084
G1 X124.774 Y75.411 E.0314
G1 X125.74 Y75.419 E.03029
G1 X126.723 Y75.46 E.03085
G1 X127.704 Y75.534 E.03085
G1 X128.699 Y75.642 E.03138
G1 X129.655 Y75.778 E.03028
G1 X130.624 Y75.949 E.03085
G1 X131.587 Y76.152 E.03086
G1 X132.542 Y76.387 E.03084
G1 X133.489 Y76.653 E.03084
G1 X134.426 Y76.951 E.03083
G1 X135.337 Y77.274 E.03031
G1 X136.269 Y77.639 E.03138
G1 X137.172 Y78.029 E.03084
G1 X138.062 Y78.448 E.03084
G1 X138.937 Y78.897 E.03084
G1 X139.797 Y79.374 E.03083
G1 X140.626 Y79.871 E.03031
G1 X141.467 Y80.414 E.03139
G1 X142.275 Y80.975 E.03084
G1 X143.064 Y81.562 E.03083
G1 X143.833 Y82.175 E.03083
G1 X144.582 Y82.814 E.03087
G1 X145.308 Y83.477 E.03083
G1 X146.012 Y84.164 E.03084
G1 X146.693 Y84.874 E.03085
G1 X147.35 Y85.606 E.03084
G1 X147.982 Y86.359 E.03082
G1 X148.589 Y87.134 E.03087
G1 X149.17 Y87.927 E.03082
G1 X149.724 Y88.74 E.03085
G1 X150.251 Y89.571 E.03085
G1 X150.75 Y90.418 E.03082
G1 X151.22 Y91.282 E.03084
G1 X151.662 Y92.161 E.03085
G1 X152.074 Y93.055 E.03086
G1 X152.456 Y93.961 E.03083
G1 X152.808 Y94.88 E.03086
G1 X153.129 Y95.809 E.03082
G1 X153.419 Y96.749 E.03084
G1 X153.677 Y97.698 E.03084
G1 X153.904 Y98.656 E.03087
G1 X154.099 Y99.62 E.03084
G1 X154.262 Y100.59 E.03084
G1 X154.39 Y101.547 E.03027
G1 X154.523 Y103.039 E.04697
G1 X154.572 Y104.012 E.03055
G1 X154.588 Y105.492 E.04641
G1 X154.555 Y106.475 E.03084
G1 X154.49 Y107.456 E.03083
G1 X154.392 Y108.435 E.03085
G1 X154.262 Y109.41 E.03084
G1 X154.099 Y110.38 E.03084
G1 X153.904 Y111.344 E.03084
G1 X153.677 Y112.302 E.03087
G1 X153.419 Y113.251 E.03084
G1 X153.129 Y114.191 E.03084
G1 X152.808 Y115.12 E.03082
G1 X152.456 Y116.039 E.03086
G1 X152.074 Y116.945 E.03083
G1 X151.662 Y117.839 E.03086
G1 X151.22 Y118.718 E.03085
G1 X150.75 Y119.582 E.03084
G1 X150.251 Y120.429 E.03082
G1 X149.724 Y121.26 E.03085
G1 X149.17 Y122.073 E.03085
G1 X148.589 Y122.866 E.03082
G1 X147.982 Y123.641 E.03087
G1 X147.35 Y124.394 E.03082
G1 X146.693 Y125.126 E.03084
G1 X146.024 Y125.823 E.03029
G1 X145.308 Y126.523 E.0314
G1 X144.582 Y127.186 E.03083
G1 X143.833 Y127.825 E.03087
G1 X143.064 Y128.438 E.03083
G1 X142.275 Y129.025 E.03083
G1 X141.467 Y129.586 E.03084
G1 X140.656 Y130.11 E.03027
G1 X139.797 Y130.626 E.03142
G1 X138.937 Y131.103 E.03083
G1 X138.062 Y131.552 E.03084
G1 X137.188 Y131.964 E.0303
G1 X136.269 Y132.361 E.03139
G1 X135.353 Y132.72 E.03085
G1 X134.426 Y133.049 E.03084
G1 X133.489 Y133.347 E.03083
G1 X132.542 Y133.613 E.03084
G1 X131.587 Y133.848 E.03084
G1 X130.624 Y134.051 E.03086
G1 X129.655 Y134.222 E.03085
G1 X128.682 Y134.36 E.03081
G1 X127.704 Y134.466 E.03084
G1 X126.723 Y134.54 E.03085
G1 X125.74 Y134.581 E.03085
G1 X124.756 Y134.589 E.03085
G1 X123.773 Y134.564 E.03083
G1 X122.791 Y134.507 E.03084
G1 X121.811 Y134.417 E.03086
G1 X120.835 Y134.295 E.03084
G1 X119.864 Y134.14 E.03083
G1 X118.898 Y133.954 E.03084
G1 X117.939 Y133.735 E.03084
G1 X116.988 Y133.484 E.03084
G1 X116.046 Y133.202 E.03083
G1 X115.113 Y132.889 E.03086
G1 X114.192 Y132.544 E.03084
G1 X113.282 Y132.17 E.03085
G1 X112.386 Y131.765 E.03083
G1 X111.503 Y131.331 E.03085
G1 X110.635 Y130.868 E.03085
G1 X109.783 Y130.376 E.03085
G1 X108.963 Y129.866 E.03028
G1 X108.131 Y129.309 E.03139
G1 X107.332 Y128.735 E.03085
G1 X106.553 Y128.134 E.03085
G1 X105.795 Y127.508 E.03082
G1 X105.057 Y126.857 E.03086
G1 X104.342 Y126.182 E.03083
G1 X103.661 Y125.497 E.03029
G1 X102.98 Y124.763 E.03139
G1 X102.335 Y124.02 E.03085
G1 X101.715 Y123.256 E.03085
G1 X101.121 Y122.472 E.03084
G1 X100.554 Y121.669 E.03082
G1 X100.013 Y120.847 E.03085
G1 X99.5 Y120.007 E.03086
G1 X99.016 Y119.152 E.03081
G1 X98.56 Y118.28 E.03085
G1 X98.133 Y117.394 E.03084
G1 X97.736 Y116.494 E.03084
G1 X97.369 Y115.581 E.03085
G1 X97.032 Y114.657 E.03084
G1 X96.727 Y113.722 E.03084
G1 X96.453 Y112.777 E.03085
G1 X96.21 Y111.824 E.03084
G1 X95.999 Y110.863 E.03085
G1 X95.82 Y109.896 E.03083
G1 X95.676 Y108.941 E.03028
G1 X95.559 Y107.946 E.03141
G1 X95.478 Y106.966 E.03083
G1 X95.429 Y105.984 E.03083
G1 X95.412 Y105 E.03086
G1 X95.429 Y104.016 E.03086
G1 X95.477 Y103.052 E.03026
G1 X95.559 Y102.054 E.0314
G1 X95.674 Y101.077 E.03084
G1 X95.82 Y100.104 E.03085
G1 X95.999 Y99.137 E.03083
G1 X96.21 Y98.176 E.03085
G1 X96.453 Y97.223 E.03084
G1 X96.727 Y96.278 E.03085
G1 X97.032 Y95.343 E.03084
G1 X97.369 Y94.419 E.03084
G1 X97.736 Y93.506 E.03085
G1 X98.133 Y92.606 E.03084
G1 X98.552 Y91.736 E.03028
G1 X99.016 Y90.848 E.03141
G1 X99.5 Y89.993 E.03081
G1 X100.013 Y89.153 E.03086
G1 X100.554 Y88.331 E.03085
G1 X101.121 Y87.528 E.03082
G1 X101.715 Y86.744 E.03084
G1 X102.335 Y85.98 E.03085
G1 X102.98 Y85.237 E.03085
G1 X103.637 Y84.529 E.03028
G1 X104.299 Y83.86 E.02951
M204 S1000
G1 X104.727 Y83.926 F10800
;WIPE_START
G1 F8640
G1 X105.057 Y83.143 E-.24092
G1 X105.781 Y82.503 E-.22313
G1 X106.553 Y81.866 E-.23111
G1 X106.912 Y81.589 E-.10484
;WIPE_END
G1 Z.6 F720
G1 X143.223 Y82.388 F10800
G1 Z.2 F720
G1 E.8 F2100
M204 S800
;TYPE:Solid infill
;WIDTH:0.420331
G1 F1200
G1 X145.51 Y84.675 E.1015
G1 X146.168 Y85.361 E.02983
G1 X146.809 Y86.075 E.03011
G1 X147.426 Y86.811 E.03014
G1 X148.018 Y87.566 E.03011
G1 X148.43 Y88.129 E.02189
G1 X141.86 Y81.559 E.29158
G1 X141.069 Y81.009 E.03023
G1 X140.247 Y80.479 E.03069
G1 X149.515 Y89.747 E.41132
G1 X150.272 Y91.038 E.04697
G1 X138.966 Y79.732 E.50177
G1 X137.838 Y79.138 E.04001
G1 X150.859 Y92.159 E.57788
G1 X151.34 Y93.174 E.03525
G1 X136.825 Y78.659 E.64419
G1 X135.894 Y78.261 E.03177
G1 X151.74 Y94.108 E.70328
G1 X152.064 Y94.965 E.02875
G1 X135.02 Y77.922 E.7564
G1 X134.194 Y77.629 E.0275
G1 X152.361 Y95.796 E.80626
G1 X152.613 Y96.581 E.02587
G1 X133.411 Y77.38 E.85217
G1 X132.662 Y77.165 E.02445
M73 P2 R37
M73 Q2 S37
G1 X152.837 Y97.339 E.89536
G1 X153.028 Y98.064 E.02353
G1 X131.94 Y76.977 E.93588
G1 X131.241 Y76.811 E.02255
G1 X153.193 Y98.763 E.97424
G1 X153.331 Y99.434 E.0215
G1 X130.565 Y76.669 E1.01035
G1 X129.914 Y76.551 E.02076
G1 X153.451 Y100.089 E1.04461
G1 X153.557 Y100.729 E.02036
G1 X129.277 Y76.448 E1.07758
G1 X128.654 Y76.359 E.01975
G1 X153.64 Y101.345 E1.10889
G1 X153.71 Y101.949 E.01908
G1 X128.054 Y76.292 E1.13865
G1 X127.461 Y76.234 E.0187
G1 X153.77 Y102.542 E1.16759
G1 X153.81 Y103.116 E.01806
G1 X126.884 Y76.191 E1.19497
