; generated by PrusaSlicer 2.6.0+MacOS-arm64 on 2023-07-19 at 13:50:05 UTC


;
;

;
;
; 

; external perimeters extrusion width = 0.45mm
; perimeters extrusion width = 0.45mm
; infill extrusion width = 0.45mm
; solid infill extrusion width = 0.45mm
; top infill extrusion width = 0.40mm
; first layer extrusion width = 0.42mm

M73 P0 R29
M201 X2500 Y2500 Z400 E5000 ; sets maximum accelerations, mm/sec^2
M203 X180 Y180 Z12 E80 ; sets maximum feedrates, mm / sec
M204 P2000 R1250 T1500 ; sets acceleration (P, T) and retract acceleration (R), mm/sec^2
M205 X8.00 Y8.00 Z2.00 E10.00 ; sets the jerk limits, mm/sec
M205 S0 T0 ; sets the minimum extruding and travel feed rate, mm/sec
;TYPE:Custom
M862.3 P "MINI" ; printer model check
G90 ; use absolute coordinates
M83 ; extruder relative mode
M104 S170 ; set extruder temp for bed leveling
M140 S60 ; set bed temp
M109 R170 ; wait for bed leveling temp
M190 S60 ; wait for bed temp
M204 T1250 ; set travel acceleration
G28 ; home all without mesh bed level
G29 ; mesh bed leveling
M204 T1500 ; restore travel acceleration
M104 S215 ; set extruder temp
G92 E0
G0 Y-2 X179 F2400
G0 Z3 F720
M109 S215 ; wait for extruder temp

; intro line
G0 X170 F1000
G0 Z0.2 F720
G0 X110 E8 F900
G0 X40 E10 F700
G92 E0

M221 S95 ; set flow
G21 ; set units to millimeters
G90 ; use absolute coordinates
M83 ; use relative distances for extrusion
M900 K0.2 ; Filament gcode LA 1.5
; ; Filament gcode LA 1.0
M107
;LAYER_CHANGE
;Z:0.2
;HEIGHT:0.2
;BEFORE_LAYER_CHANGE
G92 E0.0
;0.2


G1 E-3.2 F4200
G1 Z1 F9000
;AFTER_LAYER_CHANGE
;0.2
; printing object Scheibe.stl id:0 copy 0
G1 X10.957 Y-27.073
G1 Z.2
G1 E3.2 F2400
M204 P600
;TYPE:Perimeter
;WIDTH:0.419999
G1 F1200
G1 X11.264 Y-26.954 E.01032
G1 X12.597 Y-26.357 E.0458
G1 X13.899 Y-25.695 E.0458
G1 X15.165 Y-24.968 E.04577
G1 X16.394 Y-24.179 E.04579
G1 X17.582 Y-23.329 E.0458
G1 X18.726 Y-22.422 E.04577
G1 X19.823 Y-21.458 E.04579
G1 X20.871 Y-20.44 E.04581
G1 X21.867 Y-19.372 E.04579
G1 X22.807 Y-18.255 E.04577
G1 X23.691 Y-17.092 E.0458
G1 X24.516 Y-15.887 E.04579
G1 X25.279 Y-14.641 E.04581
G1 X25.979 Y-13.36 E.04577
G1 X26.615 Y-12.045 E.0458
G1 X27.183 Y-10.7 E.04578
G1 X27.684 Y-9.328 E.0458
G1 X28.116 Y-7.932 E.04582
G1 X28.477 Y-6.517 E.04579
G1 X28.767 Y-5.086 E.04578
G1 X28.985 Y-3.642 E.04579
G1 X29.131 Y-2.189 E.04579
G1 X29.18 Y-1.21 E.03073
G1 X29.212 Y.24 E.04547
G1 X29.164 Y1.703 E.0459
G1 X29.042 Y3.162 E.04591
G1 X28.921 Y4.121 E.03031
G1 X28.678 Y5.565 E.04591
M73 P1 R29
G1 X28.364 Y6.991 E.04578
G1 X27.979 Y8.4 E.0458
G1 X27.525 Y9.788 E.04579
G1 X27.001 Y11.151 E.04579
G1 X26.41 Y12.487 E.0458
G1 X25.753 Y13.791 E.04578
G1 X25.032 Y15.061 E.04579
G1 X24.248 Y16.293 E.04579
G1 X23.403 Y17.484 E.04579
G1 X22.5 Y18.632 E.0458
G1 X21.541 Y19.733 E.04578
G1 X20.527 Y20.785 E.04581
G1 X19.463 Y21.785 E.04578
G1 X18.35 Y22.731 E.0458
G1 X17.191 Y23.619 E.04578
G1 X15.989 Y24.449 E.0458
G1 X14.747 Y25.217 E.04579
G1 X13.468 Y25.923 E.04581
G1 X12.156 Y26.564 E.04578
G1 X10.813 Y27.138 E.04579
G1 X9.443 Y27.644 E.04579
G1 X8.05 Y28.082 E.04578
G1 X6.636 Y28.449 E.0458
G1 X5.203 Y28.746 E.04589
G1 X4.249 Y28.902 E.03031
G1 X2.796 Y29.079 E.04589
G1 X1.339 Y29.182 E.0458
G1 X-.121 Y29.212 E.04579
G1 X-1.581 Y29.17 E.0458
G1 X-3.037 Y29.054 E.0458
G1 X-4.485 Y28.866 E.04578
G1 X-5.922 Y28.606 E.04579
G1 X-7.345 Y28.274 E.04582
G1 X-8.748 Y27.872 E.04576
G1 X-10.13 Y27.4 E.04579
G1 X-11.487 Y26.859 E.0458
G1 X-12.815 Y26.251 E.04579
G1 X-14.111 Y25.578 E.04579
G1 X-15.372 Y24.841 E.0458
G1 X-16.597 Y24.04 E.04589
G1 X-17.384 Y23.477 E.03034
G1 X-18.538 Y22.577 E.04589
G1 X-19.643 Y21.622 E.04579
G1 X-20.699 Y20.613 E.04579
G1 X-21.703 Y19.553 E.04578
G1 X-22.653 Y18.444 E.04579
G1 X-23.547 Y17.289 E.0458
G1 X-24.381 Y16.09 E.04579
G1 X-25.155 Y14.852 E.04578
G1 X-25.866 Y13.576 E.0458
G1 X-26.513 Y12.264 E.04587
G1 X-26.943 Y11.288 E.03344
G1 X-27.441 Y10.017 E.0428
G1 X-27.907 Y8.633 E.04579
G1 X-28.304 Y7.227 E.04581
G1 X-28.63 Y5.804 E.04577
G1 X-28.884 Y4.365 E.04582
G1 X-29.066 Y2.916 E.04579
G1 X-29.176 Y1.46 E.04578
G1 X-29.212 Y0 E.04579
G1 X-29.176 Y-1.46 E.04579
G1 X-29.066 Y-2.916 E.04578
G1 X-28.884 Y-4.365 E.04579
G1 X-28.63 Y-5.804 E.04582
G1 X-28.304 Y-7.227 E.04577
G1 X-27.907 Y-8.633 E.04581
G1 X-27.441 Y-10.017 E.04579
G1 X-26.906 Y-11.376 E.04579
G1 X-26.304 Y-12.706 E.04577
G1 X-25.636 Y-14.005 E.0458
G1 X-24.903 Y-15.271 E.04587
G1 X-24.328 Y-16.169 E.03343
G1 X-23.547 Y-17.288 E.04279
G1 X-22.653 Y-18.444 E.04582
G1 X-21.703 Y-19.553 E.04579
G1 X-20.699 Y-20.613 E.04578
G1 X-19.643 Y-21.622 E.04579
G1 X-18.538 Y-22.577 E.04579
G1 X-17.386 Y-23.475 E.0458
G1 X-16.191 Y-24.315 E.0458
G1 X-14.956 Y-25.094 E.04578
G1 X-13.683 Y-25.81 E.04579
G1 X-12.376 Y-26.461 E.04578
G1 X-11.038 Y-27.047 E.0458
G1 X-9.672 Y-27.565 E.04581
G1 X-8.283 Y-28.014 E.04577
G1 X-6.872 Y-28.393 E.04581
G1 X-5.445 Y-28.701 E.04577
G1 X-4.003 Y-28.937 E.04581
G1 X-2.552 Y-29.101 E.04578
G1 X-1.092 Y-29.192 E.04587
G1 X-.026 Y-29.212 E.03343
G1 X1.339 Y-29.182 E.04281
G1 X2.796 Y-29.079 E.0458
G1 X4.246 Y-28.903 E.0458
G1 X5.685 Y-28.654 E.04579
G1 X7.11 Y-28.334 E.04579
G1 X8.517 Y-27.944 E.04578
G1 X9.903 Y-27.483 E.0458
G1 X10.901 Y-27.095 E.03357
M204 P1000
G1 X11.093 Y-27.425 F9000
M204 P600
;TYPE:External perimeter
G1 F1200
G1 X11.409 Y-27.302 E.01063
G1 X12.76 Y-26.698 E.0464
G1 X14.078 Y-26.027 E.04637
G1 X15.361 Y-25.291 E.04638
G1 X16.606 Y-24.491 E.0464
G1 X17.809 Y-23.631 E.04637
G1 X18.968 Y-22.711 E.0464
G1 X20.079 Y-21.735 E.04637
G1 X21.14 Y-20.704 E.04639
G1 X22.149 Y-19.622 E.04639
G1 X23.102 Y-18.49 E.0464
G1 X23.997 Y-17.313 E.04636
G1 X24.832 Y-16.092 E.04638
G1 X25.606 Y-14.83 E.04642
G1 X26.315 Y-13.532 E.04637
G1 X26.958 Y-12.2 E.04638
G1 X27.534 Y-10.838 E.04637
G1 X28.041 Y-9.448 E.04639
G1 X28.479 Y-8.035 E.04638
G1 X28.845 Y-6.602 E.04637
G1 X29.138 Y-5.152 E.04638
G1 X29.36 Y-3.689 E.0464
G1 X29.507 Y-2.217 E.04638
G1 X29.557 Y-1.229 E.03102
G1 X29.589 Y.245 E.04623
G1 X29.54 Y1.725 E.04643
G1 X29.417 Y3.201 E.04644
G1 X29.294 Y4.176 E.03081
G1 X29.049 Y5.637 E.04645
G1 X28.731 Y7.081 E.04636
G1 X28.341 Y8.508 E.04638
G1 X27.88 Y9.914 E.04639
G1 X27.35 Y11.295 E.04638
G1 X26.751 Y12.648 E.04639
G1 X26.086 Y13.969 E.04637
G1 X25.355 Y15.255 E.04638
G1 X24.561 Y16.503 E.04638
G1 X23.705 Y17.71 E.0464
G1 X22.79 Y18.873 E.0464
G1 X21.819 Y19.988 E.04636
G1 X20.793 Y21.054 E.04639
G1 X19.714 Y22.066 E.04638
G1 X18.587 Y23.024 E.04638
G1 X17.413 Y23.924 E.04638
G1 X16.196 Y24.765 E.04638
G1 X14.938 Y25.543 E.04638
G1 X13.642 Y26.258 E.04641
G1 X12.313 Y26.907 E.04637
G1 X10.953 Y27.488 E.04637
G1 X9.565 Y28.001 E.0464
G1 X8.154 Y28.444 E.04637
G1 X6.722 Y28.816 E.04639
G1 X5.272 Y29.117 E.04643
G1 X4.302 Y29.276 E.03082
G1 X2.832 Y29.454 E.04643
G1 X1.356 Y29.559 E.0464
G1 X-.123 Y29.59 E.04638
G1 X-1.601 Y29.546 E.04636
G1 X-3.076 Y29.429 E.04639
G1 X-4.543 Y29.239 E.04638
G1 X-5.999 Y28.975 E.0464
G1 X-7.439 Y28.639 E.04636
G1 X-8.861 Y28.232 E.04638
G1 X-10.261 Y27.753 E.04639
G1 X-11.635 Y27.206 E.04637
G1 X-12.981 Y26.59 E.04641
G1 X-14.293 Y25.908 E.04636
G1 X-15.57 Y25.162 E.04637
G1 X-16.81 Y24.351 E.04646
G1 X-17.609 Y23.779 E.03081
G1 X-18.777 Y22.868 E.04644
G1 X-19.897 Y21.901 E.04639
G1 X-20.966 Y20.88 E.04635
G1 X-21.984 Y19.806 E.0464
G1 X-22.946 Y18.682 E.04639
G1 X-23.851 Y17.512 E.04638
G1 X-24.696 Y16.298 E.04638
G1 X-25.48 Y15.043 E.0464
G1 X-26.2 Y13.751 E.04638
G1 X-26.855 Y12.423 E.04643
G1 X-27.291 Y11.432 E.03395
G1 X-27.795 Y10.146 E.04331
G1 X-28.268 Y8.744 E.04639
G1 X-28.67 Y7.321 E.04636
G1 X-29 Y5.878 E.04641
G1 X-29.257 Y4.422 E.04636
G1 X-29.442 Y2.954 E.04639
G1 X-29.552 Y1.479 E.04638
G1 X-29.589 Y0 E.04639
G1 X-29.552 Y-1.479 E.04639
G1 X-29.442 Y-2.954 E.04638
G1 X-29.257 Y-4.422 E.04639
G1 X-29 Y-5.878 E.04636
G1 X-28.67 Y-7.32 E.04638
G1 X-28.268 Y-8.744 E.04639
G1 X-27.795 Y-10.146 E.04639
G1 X-27.254 Y-11.523 E.04639
G1 X-26.644 Y-12.87 E.04636
G1 X-25.967 Y-14.186 E.0464
G1 X-25.225 Y-15.467 E.04642
G1 X-24.642 Y-16.379 E.03394
G1 X-23.851 Y-17.512 E.04333
G1 X-22.946 Y-18.682 E.04638
G1 X-21.984 Y-19.806 E.04639
G1 X-20.966 Y-20.88 E.0464
G1 X-19.897 Y-21.901 E.04635
G1 X-18.777 Y-22.868 E.04639
G1 X-17.611 Y-23.778 E.04638
G1 X-16.4 Y-24.629 E.04641
G1 X-15.149 Y-25.418 E.04637
G1 X-13.86 Y-26.143 E.04637
G1 X-12.536 Y-26.803 E.04638
G1 X-11.18 Y-27.396 E.0464
G1 X-9.797 Y-27.921 E.04638
G1 X-8.39 Y-28.375 E.04636
G1 X-6.961 Y-28.759 E.04639
G1 X-5.515 Y-29.071 E.04638
M73 P1 R28
G1 X-4.055 Y-29.311 E.04639
G1 X-2.585 Y-29.477 E.04638
G1 X-1.108 Y-29.569 E.0464
G1 X-.025 Y-29.589 E.03396
G1 X1.356 Y-29.559 E.04331
G1 X2.832 Y-29.454 E.0464
G1 X4.3 Y-29.276 E.04637
G1 X5.758 Y-29.024 E.04639
G1 X7.201 Y-28.7 E.04637
G1 X8.627 Y-28.305 E.04639
G1 X10.031 Y-27.838 E.04639
G1 X11.037 Y-27.447 E.03384
M204 P1000
G1 X11.148 Y-27.09 F9000
G1 E-2.24 F4200
;WIPE_START
G1 F7200
G1 X11.409 Y-27.302 E-.22126
G1 X12.626 Y-26.758 E-.73874
;WIPE_END
G1 Z1.2 F9000
G1 X18.24 Y-22.591
G1 Z.2
G1 E3.2 F2400
M204 P600
;TYPE:Solid infill
;WIDTH:0.420335
G1 F1200
G1 X20.632 Y-20.199 E.10616
G1 X21.612 Y-19.146 E.04514
G1 X22.542 Y-18.042 E.0453
G1 X23.442 Y-16.855 E.04675
G1 X16.89 Y-23.408 E.29081
G1 X16.204 Y-23.898 E.02646
G1 X15.258 Y-24.505 E.03527
G1 X24.499 Y-15.264 E.41013
M73 P2 R28
G1 X24.985 Y-14.471 E.02919
G1 X25.259 Y-13.971 E.01789
G1 X13.963 Y-25.267 E.50133
G1 X12.846 Y-25.85 E.03954
G1 X25.851 Y-12.845 E.57718
G1 X26.34 Y-11.822 E.03558
G1 X11.836 Y-26.326 E.6437
G1 X10.895 Y-26.733 E.03217
G1 X26.731 Y-10.897 E.70282
G1 X27.067 Y-10.027 E.02927
G1 X10.022 Y-27.073 E.7565
G1 X9.203 Y-27.358 E.02721
G1 X27.372 Y-9.189 E.80636
G1 X27.611 Y-8.417 E.02536
G1 X8.404 Y-27.623 E.85241
G1 X7.666 Y-27.828 E.02404
G1 X27.835 Y-7.658 E.89514
G1 X28.018 Y-6.941 E.02322
G1 X6.934 Y-28.026 E.93575
G1 X6.245 Y-28.181 E.02216
G1 X28.187 Y-6.239 E.97381
G1 X28.323 Y-5.569 E.02145
G1 X5.561 Y-28.331 E1.0102
G1 X4.916 Y-28.443 E.02054
G1 X28.451 Y-4.908 E1.04451
G1 X28.546 Y-4.279 E.01996
G1 X4.271 Y-28.554 E1.07735
G1 X3.659 Y-28.632 E.01936
G1 X28.641 Y-3.65 E1.10873
G1 X28.703 Y-3.054 E.0188
G1 X3.052 Y-28.706 E1.13844
G1 X2.461 Y-28.762 E.01863
G1 X28.763 Y-2.461 E1.16729
G1 X28.807 Y-1.883 E.01819
M73 P3 R28
G1 X1.887 Y-28.803 E1.19474
G1 X1.313 Y-28.843 E.01806
G1 X28.835 Y-1.321 E1.22146
G1 X28.863 Y-.759 E.01766
G1 X.767 Y-28.855 E1.24693
G1 X.221 Y-28.867 E.01714
G1 X28.869 Y-.219 E1.27143
G1 X28.87 Y.315 E.01676
G1 X-.313 Y-28.867 E1.29515
G1 X-.837 Y-28.858 E.01645
G1 X28.853 Y.832 E1.31768
G1 X28.836 Y1.348 E.0162
G1 X-1.349 Y-28.836 E1.33962
G1 X-1.851 Y-28.805 E.01578
G1 X28.81 Y1.857 E1.36079
G1 X28.769 Y2.349 E.01549
G1 X-2.354 Y-28.773 E1.38125
G1 X-2.841 Y-28.727 E.01535
M73 P4 R28
G1 X28.728 Y2.842 E1.40107
G1 X28.679 Y3.327 E.0153
G1 X-3.32 Y-28.673 E1.42017
G1 X-3.8 Y-28.618 E.01516
G1 X28.619 Y3.801 E1.43879
G1 X28.552 Y4.268 E.01481
G1 X-4.265 Y-28.55 E1.45648
G1 X-4.724 Y-28.475 E.0146
G1 X28.476 Y4.724 E1.47343
G1 X28.399 Y5.181 E.01454
G1 X-5.182 Y-28.4 E1.49036
G1 X-5.63 Y-28.314 E.01432
G1 X28.316 Y5.632 E1.50656
G1 X28.22 Y6.07 E.01407
M73 P5 R28
G1 X-6.069 Y-28.219 E1.52178
G1 X-6.508 Y-28.124 E.0141
G1 X28.123 Y6.507 E1.53696
G1 X28.026 Y6.943 E.01402
M73 P5 R27
G1 X-6.941 Y-28.023 E1.55185
G1 X-7.361 Y-27.91 E.01365
G1 X27.911 Y7.362 E1.56541
G1 X27.797 Y7.782 E.01366
G1 X-7.782 Y-27.797 E1.57904
G1 X-8.202 Y-27.683 E.01366
G1 X27.682 Y8.201 E1.59257
G1 X27.554 Y8.607 E.01336
G1 X-8.605 Y-27.553 E1.6048
G1 X-9.009 Y-27.422 E.01333
G1 X27.423 Y9.009 E1.61687
G1 X27.291 Y9.411 E.01328
M73 P6 R27
G1 X-9.412 Y-27.292 E1.62892
G1 X-9.805 Y-27.151 E.0131
G1 X27.154 Y9.807 E1.64026
G1 X27.005 Y10.193 E.01298
G1 X-10.192 Y-27.005 E1.65087
G1 X-10.579 Y-26.858 E.01299
G1 X26.857 Y10.579 E1.66147
G1 X26.709 Y10.964 E.01294
G1 X-10.964 Y-26.709 E1.67197
G1 X-11.335 Y-26.546 E.01272
G1 X26.548 Y11.337 E1.68129
G1 X26.384 Y11.707 E.0127
M73 P7 R27
G1 X-11.706 Y-26.384 E1.6905
G1 X-12.078 Y-26.221 E.01275
G1 X26.22 Y12.077 E1.69971
G1 X26.052 Y12.442 E.01261
G1 X-12.44 Y-26.05 E1.70832
G1 X-12.796 Y-25.873 E.01248
G1 X25.874 Y12.797 E1.71622
G1 X25.695 Y13.152 E.01248
G1 X-13.153 Y-25.695 E1.7241
G1 X-13.509 Y-25.517 E.01249
G1 X25.516 Y13.507 E1.73195
G1 X25.328 Y13.853 E.01236
G1 X-13.851 Y-25.326 E1.73881
G1 X-14.192 Y-25.134 E.01228
M73 P8 R27
G1 X25.134 Y14.193 E1.74535
G1 X24.941 Y14.533 E.01227
G1 X-14.534 Y-24.941 E1.75192
G1 X-14.872 Y-24.745 E.01226
G1 X24.747 Y14.874 E1.75834
G1 X24.54 Y15.2 E.01212
G1 X-15.199 Y-24.539 E1.76366
G1 X-15.526 Y-24.333 E.01213
M73 P8 R26
G1 X24.333 Y15.527 E1.76901
G1 X24.125 Y15.853 E.01214
G1 X-15.854 Y-24.126 E1.77431
G1 X-16.174 Y-23.912 E.01208
M73 P9 R26
G1 X23.915 Y16.176 E1.77917
G1 X23.693 Y16.488 E.01202
G1 X-16.487 Y-23.692 E1.78323
G1 X-16.801 Y-23.472 E.01203
G1 X23.472 Y16.801 E1.78736
G1 X23.25 Y17.113 E.01202
G1 X-17.114 Y-23.252 E1.79142
G1 X-17.417 Y-23.021 E.01196
G1 X23.023 Y17.419 E1.79477
G1 X22.788 Y17.718 E.01193
G1 X-17.717 Y-22.787 E1.79766
G1 X-18.017 Y-22.553 E.01194
M73 P10 R26
G1 X22.553 Y18.016 E1.80052
G1 X22.318 Y18.315 E.01193
G1 X-18.317 Y-22.319 E1.8034
G1 X-18.603 Y-22.072 E.01186
G1 X22.074 Y18.605 E1.80529
G1 X21.825 Y18.89 E.01188
G1 X-18.889 Y-21.824 E1.80693
G1 X-19.176 Y-21.577 E.01188
G1 X21.577 Y19.175 E1.80864
G1 X21.328 Y19.461 E.0119
G1 X-19.46 Y-21.328 E1.81024
G1 X-19.733 Y-21.067 E.01185
G1 X21.068 Y19.735 E1.81082
G1 X20.806 Y20.006 E.01183
M73 P11 R26
G1 X-20.006 Y-20.806 E1.81128
G1 X-20.279 Y-20.545 E.01185
G1 X20.545 Y20.278 E1.81179
G1 X20.289 Y20.544 E.01159
G1 X-20.547 Y-20.28 E1.81208
G1 X-20.807 Y-20.006 E.01185
G1 X20.007 Y20.808 E1.81137
G1 X19.732 Y21.067 E.01186
G1 X-21.067 Y-19.732 E1.8107
G1 X-21.326 Y-19.458 E.01183
G1 X19.457 Y21.325 E1.80999
G1 X19.179 Y21.581 E.01186
M73 P12 R25
G1 X-21.579 Y-19.177 E1.80889
G1 X-21.825 Y-18.889 E.01189
G1 X18.89 Y21.826 E1.80698
G1 X18.602 Y22.072 E.01189
G1 X-22.072 Y-18.602 E1.80516
G1 X-22.318 Y-18.314 E.01189
G1 X18.313 Y22.317 E1.80325
G1 X18.019 Y22.557 E.01191
G1 X-22.555 Y-18.017 E1.80072
G1 X-22.787 Y-17.716 E.01193
G1 X17.717 Y22.788 E1.79761
G1 X17.415 Y23.02 E.01195
M73 P13 R25
G1 X-23.02 Y-17.415 E1.79455
G1 X-23.253 Y-17.114 E.01195
G1 X17.113 Y23.252 E1.79149
G1 X16.803 Y23.475 E.01198
G1 X-23.473 Y-16.801 E1.78749
G1 X-23.693 Y-16.487 E.01203
G1 X16.487 Y23.693 E1.78323
G1 X16.171 Y23.911 E.01205
G1 X-23.912 Y-16.172 E1.77893
G1 X-24.127 Y-15.854 E.01205
G1 X15.855 Y24.129 E1.77447
G1 X15.528 Y24.335 E.01213
M73 P14 R25
G1 X-24.336 Y-15.528 E1.76919
G1 X-24.544 Y-15.203 E.01211
G1 X15.198 Y24.539 E1.76379
G1 X14.868 Y24.743 E.01218
G1 X-24.744 Y-14.869 E1.75802
G1 X-24.939 Y-14.531 E.01225
G1 X14.537 Y24.946 E1.75201
G1 X14.193 Y25.135 E.01232
G1 X-25.135 Y-14.193 E1.74542
G1 X-25.331 Y-13.855 E.01226
G1 X13.849 Y25.325 E1.73885
G1 X13.505 Y25.515 E.01233
M73 P15 R25
G1 X-25.513 Y-13.503 E1.73166
G1 X-25.694 Y-13.15 E.01245
G1 X13.155 Y25.698 E1.72414
G1 X12.796 Y25.873 E.01253
G1 X-25.875 Y-12.798 E1.71626
G1 X-26.052 Y-12.441 E.0125
M73 P15 R24
G1 X12.437 Y26.049 E1.70821
G1 X12.079 Y26.224 E.01251
G1 X-26.218 Y-12.073 E1.69966
G1 X-26.384 Y-11.706 E.01264
G1 X11.708 Y26.386 E1.69057
G1 X11.334 Y26.546 E.01277
M73 P16 R24
G1 X-26.551 Y-11.338 E1.68136
G1 X-26.705 Y-10.959 E.01284
G1 X10.96 Y26.706 E1.67161
G1 X10.582 Y26.862 E.01283
G1 X-26.856 Y-10.576 E1.66154
G1 X-27.007 Y-10.193 E.01292
G1 X10.192 Y27.006 E1.65093
G1 X9.802 Y27.15 E.01305
G1 X-27.154 Y-9.807 E1.64017
G1 X-27.288 Y-9.407 E.01324
G1 X9.413 Y27.294 E1.62883
G1 X9.01 Y27.425 E.0133
G1 X-27.423 Y-9.008 E1.61694
G1 X-27.557 Y-8.609 E.01321
M73 P17 R24
G1 X8.604 Y27.552 E1.60487
G1 X8.197 Y27.68 E.01339
G1 X-27.678 Y-8.196 E1.59219
G1 X-27.796 Y-7.78 E.01357
G1 X7.784 Y27.8 E1.57908
G1 X7.36 Y27.91 E.01375
G1 X-27.913 Y-7.363 E1.56545
G1 X-28.022 Y-6.938 E.01377
G1 X6.937 Y28.02 E1.5515
G1 X6.511 Y28.128 E.01379
G1 X-28.121 Y-6.504 E1.53701
G1 X-28.221 Y-6.07 E.01398
G1 X6.069 Y28.22 E1.52183
G1 X5.627 Y28.311 E.01416
M73 P18 R24
